;FLAVOR:Marlin
;TIME:1730
;Filament used: 2.02192m
;Layer height: 0.2
;MINX:72.203
;MINY:86.2
;MINZ:0.3
;MAXX:197.797
;MAXY:111.8
;MAXZ:6.9
;Generated with Cura_SteamEngine 4.8.0
M140 S60
M105
M190 S60
M104 S210
M105
M109 S210
M82 ;absolute extrusion mode
G28 ;Home
G1 Z15.0 F6000 ;Move the platform down 15mm
;Prime the extruder
G92 E0
G1 F200 E3
G92 E0
G92 E0
G92 E0
G1 F2400 E-6.5
;LAYER_COUNT:34
;LAYER:0
M107
G0 F3600 X76.352 Y89.572 Z0.3
;TYPE:SKIRT
G1 F2400 E0
G1 F1800 X76.722 Y89.271 E0.0238
G1 X77.759 Y88.477 E0.08896
G1 X78.41 Y88.029 E0.12838
G1 X79.102 Y87.65 E0.16774
G1 X79.512 Y87.465 E0.19019
G1 X80.715 Y86.966 E0.25516
G1 X81.459 Y86.701 E0.29456
G1 X82.226 Y86.512 E0.33398
G1 X82.685 Y86.438 E0.35717
G1 X83.983 Y86.267 E0.42249
G1 X85.002 Y86.2 E0.47344
G1 X184.998 Y86.2 E5.46226
G1 X186.017 Y86.267 E5.5132
G1 X187.315 Y86.438 E5.57852
G1 X188.091 Y86.58 E5.61788
G1 X188.85 Y86.801 E5.65732
G1 X189.285 Y86.966 E5.68053
G1 X190.488 Y87.465 E5.74551
G1 X191.201 Y87.804 E5.78489
G1 X191.876 Y88.214 E5.82429
G1 X192.241 Y88.477 E5.84674
G1 X193.278 Y89.271 E5.9119
G1 X193.88 Y89.782 E5.95129
G1 X194.427 Y90.352 E5.99071
G1 X194.728 Y90.721 E6.01446
G1 X195.523 Y91.759 E6.07969
G1 X195.971 Y92.41 E6.11912
G1 X196.351 Y93.102 E6.15851
G1 X196.537 Y93.516 E6.18115
G1 X197.035 Y94.718 E6.24606
G1 X197.3 Y95.462 E6.28546
G1 X197.488 Y96.229 E6.32486
G1 X197.562 Y96.684 E6.34786
G1 X197.733 Y97.98 E6.41308
G1 X197.797 Y98.767 E6.45247
G1 X197.78 Y99.556 E6.49185
G1 X197.733 Y100.02 E6.51511
G1 X197.562 Y101.316 E6.58033
G1 X197.419 Y102.093 E6.61975
G1 X197.199 Y102.851 E6.65912
G1 X197.035 Y103.282 E6.68213
G1 X196.537 Y104.484 E6.74704
G1 X196.198 Y105.197 E6.78643
G1 X195.789 Y105.872 E6.8258
G1 X195.523 Y106.241 E6.8485
G1 X194.728 Y107.279 E6.91373
G1 X194.217 Y107.881 E6.95312
G1 X193.648 Y108.428 E6.9925
G1 X193.278 Y108.729 E7.0163
G1 X192.241 Y109.523 E7.08146
G1 X191.59 Y109.971 E7.12088
G1 X190.898 Y110.35 E7.16025
G1 X190.488 Y110.535 E7.18269
G1 X189.285 Y111.034 E7.24766
G1 X188.541 Y111.299 E7.28707
G1 X187.774 Y111.488 E7.32648
G1 X187.315 Y111.562 E7.34967
G1 X186.017 Y111.733 E7.41499
G1 X184.998 Y111.8 E7.46594
G1 X85.002 Y111.8 E12.45476
G1 X83.983 Y111.733 E12.50571
G1 X82.685 Y111.562 E12.57102
G1 X81.909 Y111.42 E12.61038
G1 X81.15 Y111.199 E12.64982
G1 X80.715 Y111.034 E12.67303
G1 X79.512 Y110.535 E12.73801
G1 X78.799 Y110.196 E12.77739
G1 X78.124 Y109.786 E12.8168
G1 X77.759 Y109.523 E12.83924
G1 X76.722 Y108.729 E12.9044
G1 X76.12 Y108.218 E12.9438
G1 X75.573 Y107.648 E12.98321
G1 X75.272 Y107.279 E13.00697
G1 X74.477 Y106.241 E13.0722
G1 X74.029 Y105.59 E13.11162
G1 X73.649 Y104.898 E13.15101
G1 X73.463 Y104.484 E13.17365
G1 X72.965 Y103.282 E13.23856
G1 X72.7 Y102.538 E13.27797
G1 X72.512 Y101.771 E13.31736
G1 X72.438 Y101.316 E13.34036
G1 X72.267 Y100.02 E13.40558
G1 X72.203 Y99.233 E13.44497
G1 X72.22 Y98.444 E13.48435
G1 X72.267 Y97.98 E13.50761
G1 X72.438 Y96.684 E13.57283
G1 X72.581 Y95.907 E13.61225
G1 X72.801 Y95.149 E13.65163
G1 X72.965 Y94.718 E13.67463
G1 X73.463 Y93.516 E13.73954
G1 X73.802 Y92.803 E13.77893
G1 X74.211 Y92.128 E13.81831
G1 X74.477 Y91.759 E13.841
G1 X75.272 Y90.721 E13.90623
G1 X75.783 Y90.119 E13.94563
G1 X76.352 Y89.572 E13.985
G0 F3600 X76.645 Y89.848
G1 F1800 X76.965 Y89.588 E14.00557
G1 X78.002 Y88.794 E14.07073
G1 X78.636 Y88.359 E14.10909
G1 X79.312 Y87.992 E14.14747
G1 X79.666 Y87.835 E14.16679
G1 X80.869 Y87.336 E14.23176
G1 X81.594 Y87.078 E14.27016
G1 X82.341 Y86.898 E14.30849
G1 X82.737 Y86.834 E14.3285
G1 X84.035 Y86.663 E14.39382
G1 X85.002 Y86.6 E14.44217
G1 X184.998 Y86.6 E19.43099
G1 X185.965 Y86.663 E19.47933
G1 X187.263 Y86.834 E19.54465
G1 X188.019 Y86.974 E19.58301
G1 X188.757 Y87.192 E19.6214
G1 X189.131 Y87.336 E19.6414
G1 X190.334 Y87.835 E19.70637
G1 X191.028 Y88.166 E19.74473
G1 X191.684 Y88.567 E19.78309
G1 X191.998 Y88.794 E19.80242
G1 X193.035 Y89.588 E19.86758
G1 X193.62 Y90.087 E19.90594
G1 X194.151 Y90.644 E19.94434
G1 X194.411 Y90.964 E19.96491
G1 X195.206 Y92.002 E20.03014
G1 X195.641 Y92.637 E20.06854
G1 X196.008 Y93.312 E20.10687
G1 X196.167 Y93.67 E20.12641
G1 X196.665 Y94.872 E20.19132
G1 X196.923 Y95.597 E20.22971
G1 X197.103 Y96.344 E20.26805
G1 X197.165 Y96.736 E20.28785
G1 X197.336 Y98.032 E20.35307
G1 X197.397 Y98.799 E20.39145
G1 X197.378 Y99.568 E20.42983
G1 X197.336 Y99.968 E20.4499
G1 X197.165 Y101.264 E20.51511
G1 X197.025 Y102.02 E20.55347
G1 X196.807 Y102.758 E20.59186
G1 X196.665 Y103.128 E20.61164
G1 X196.167 Y104.33 E20.67655
G1 X195.837 Y105.025 E20.71493
G1 X195.435 Y105.681 E20.75332
G1 X195.206 Y105.998 E20.77283
G1 X194.411 Y107.036 E20.83806
G1 X193.912 Y107.621 E20.87642
G1 X193.355 Y108.152 E20.91481
G1 X193.035 Y108.412 E20.93538
G1 X191.998 Y109.206 E21.00054
G1 X191.364 Y109.641 E21.0389
G1 X190.688 Y110.008 E21.07728
G1 X190.334 Y110.165 E21.0966
G1 X189.131 Y110.664 E21.16157
G1 X188.406 Y110.922 E21.19996
G1 X187.659 Y111.102 E21.2383
G1 X187.263 Y111.166 E21.25831
G1 X185.965 Y111.337 E21.32363
G1 X184.998 Y111.4 E21.37198
G1 X85.002 Y111.4 E26.3608
G1 X84.035 Y111.337 E26.40914
G1 X82.737 Y111.166 E26.47446
G1 X81.981 Y111.026 E26.51282
G1 X81.243 Y110.808 E26.55121
G1 X80.869 Y110.664 E26.5712
G1 X79.666 Y110.165 E26.63618
G1 X78.972 Y109.834 E26.67454
G1 X78.316 Y109.433 E26.7129
G1 X78.002 Y109.206 E26.73223
G1 X76.965 Y108.412 E26.79739
G1 X76.38 Y107.913 E26.83575
G1 X75.849 Y107.356 E26.87414
G1 X75.589 Y107.036 E26.89471
G1 X74.794 Y105.998 E26.95994
G1 X74.359 Y105.363 E26.99834
G1 X73.992 Y104.688 E27.03668
G1 X73.833 Y104.33 E27.05622
G1 X73.335 Y103.128 E27.12113
G1 X73.077 Y102.403 E27.15952
G1 X72.897 Y101.656 E27.19786
G1 X72.835 Y101.264 E27.21766
G1 X72.664 Y99.968 E27.28287
G1 X72.603 Y99.201 E27.32126
G1 X72.622 Y98.432 E27.35964
G1 X72.664 Y98.032 E27.3797
G1 X72.835 Y96.736 E27.44492
G1 X72.975 Y95.98 E27.48328
G1 X73.193 Y95.242 E27.52167
G1 X73.335 Y94.872 E27.54144
G1 X73.833 Y93.67 E27.60636
G1 X74.163 Y92.975 E27.64474
G1 X74.565 Y92.319 E27.68312
G1 X74.794 Y92.002 E27.70263
G1 X75.589 Y90.964 E27.76786
G1 X76.088 Y90.379 E27.80623
G1 X76.645 Y89.848 E27.84462
G0 F3600 X77.208 Y89.906
G1 F1800 X78.245 Y89.112 E27.90978
G1 X78.863 Y88.69 E27.94711
G1 X79.819 Y88.204 E28.00062
G1 X81.022 Y87.705 E28.06559
G1 X81.727 Y87.456 E28.1029
G1 X82.79 Y87.231 E28.1571
G1 X84.088 Y87.06 E28.22242
G1 X85.002 Y87 E28.26812
G1 X184.998 Y87 E33.25694
G1 X185.912 Y87.06 E33.30264
G1 X187.21 Y87.231 E33.36795
G1 X187.946 Y87.368 E33.4053
G1 X188.978 Y87.705 E33.45947
G1 X190.181 Y88.204 E33.52444
G1 X190.856 Y88.527 E33.56178
G1 X191.755 Y89.112 E33.61529
G1 X192.792 Y89.906 E33.68045
G1 X193.36 Y90.392 E33.71774
G1 X194.093 Y91.208 E33.77246
G1 X194.888 Y92.246 E33.83769
G1 X195.311 Y92.863 E33.87502
G1 X195.798 Y93.823 E33.92872
G1 X196.296 Y95.025 E33.99363
G1 X196.545 Y95.73 E34.03093
G1 X196.769 Y96.788 E34.08489
G1 X196.94 Y98.084 E34.15011
G1 X196.998 Y98.83 E34.18744
G1 X196.94 Y99.916 E34.24169
G1 X196.769 Y101.212 E34.30691
G1 X196.632 Y101.947 E34.34421
G1 X196.296 Y102.975 E34.39817
G1 X195.798 Y104.177 E34.46308
G1 X195.475 Y104.852 E34.50041
G1 X194.888 Y105.754 E34.55411
G1 X194.093 Y106.792 E34.61934
G1 X193.607 Y107.361 E34.65667
G1 X192.792 Y108.094 E34.71135
G1 X191.755 Y108.888 E34.77651
G1 X191.137 Y109.31 E34.81385
G1 X190.181 Y109.796 E34.86735
G1 X188.978 Y110.295 E34.93233
G1 X188.273 Y110.544 E34.96963
G1 X187.21 Y110.769 E35.02384
G1 X185.912 Y110.94 E35.08916
G1 X184.998 Y111 E35.13486
G1 X85.002 Y111 E40.12368
G1 X84.088 Y110.94 E40.16937
G1 X82.79 Y110.769 E40.23469
G1 X82.054 Y110.632 E40.27204
G1 X81.022 Y110.295 E40.3262
G1 X79.819 Y109.796 E40.39118
G1 X79.144 Y109.473 E40.42851
G1 X78.245 Y108.888 E40.48202
G1 X77.208 Y108.094 E40.54718
G1 X76.64 Y107.608 E40.58448
G1 X75.907 Y106.792 E40.6392
G1 X75.112 Y105.754 E40.70443
G1 X74.689 Y105.137 E40.74175
G1 X74.202 Y104.177 E40.79546
G1 X73.704 Y102.975 E40.86037
G1 X73.455 Y102.27 E40.89767
G1 X73.231 Y101.212 E40.95162
G1 X73.06 Y99.916 E41.01684
G1 X73.002 Y99.17 E41.05417
G1 X73.06 Y98.084 E41.10843
G1 X73.231 Y96.788 E41.17365
G1 X73.368 Y96.053 E41.21095
G1 X73.704 Y95.025 E41.26491
G1 X74.202 Y93.823 E41.32982
G1 X74.525 Y93.148 E41.36715
G1 X75.112 Y92.246 E41.42084
G1 X75.907 Y91.208 E41.48607
G1 X76.393 Y90.639 E41.52341
G1 X77.208 Y89.906 E41.57809
G0 F3600 X77.452 Y90.224
G1 F1800 X78.489 Y89.43 E41.64325
G1 X79.089 Y89.021 E41.67948
G1 X79.972 Y88.574 E41.72886
G1 X81.175 Y88.075 E41.79383
G1 X81.86 Y87.834 E41.83006
G1 X82.842 Y87.628 E41.88012
G1 X84.14 Y87.457 E41.94544
G1 X85.002 Y87.4 E41.98853
G1 X184.998 Y87.4 E46.97736
G1 X185.86 Y87.457 E47.02045
G1 X187.158 Y87.628 E47.08577
G1 X187.872 Y87.762 E47.12201
G1 X188.825 Y88.075 E47.17206
G1 X190.028 Y88.574 E47.23704
G1 X190.682 Y88.888 E47.27323
G1 X191.511 Y89.43 E47.32264
G1 X192.548 Y90.224 E47.3878
G1 X193.1 Y90.696 E47.42404
G1 X193.776 Y91.451 E47.4746
G1 X194.571 Y92.489 E47.53983
G1 X194.98 Y93.089 E47.57605
G1 X195.428 Y93.976 E47.62563
G1 X195.926 Y95.178 E47.69054
G1 X196.167 Y95.863 E47.72677
G1 X196.372 Y96.841 E47.77662
G1 X196.543 Y98.137 E47.84184
G1 X196.599 Y98.861 E47.87807
G1 X196.543 Y99.863 E47.92814
G1 X196.372 Y101.159 E47.99336
G1 X196.238 Y101.873 E48.0296
G1 X195.926 Y102.822 E48.07944
G1 X195.428 Y104.024 E48.14435
G1 X195.114 Y104.679 E48.18059
G1 X194.571 Y105.511 E48.23015
G1 X193.776 Y106.549 E48.29538
G1 X193.303 Y107.101 E48.33165
G1 X192.548 Y107.776 E48.38218
G1 X191.511 Y108.57 E48.44734
G1 X190.911 Y108.979 E48.48356
G1 X190.028 Y109.426 E48.53294
G1 X188.825 Y109.925 E48.59792
G1 X188.14 Y110.166 E48.63415
G1 X187.158 Y110.372 E48.6842
G1 X185.86 Y110.543 E48.74952
G1 X184.998 Y110.6 E48.79262
G1 X85.002 Y110.6 E53.78144
G1 X84.14 Y110.543 E53.82454
G1 X82.842 Y110.372 E53.88986
G1 X82.128 Y110.238 E53.9261
G1 X81.175 Y109.925 E53.97614
G1 X79.972 Y109.426 E54.04112
G1 X79.318 Y109.112 E54.07732
G1 X78.489 Y108.57 E54.12673
G1 X77.452 Y107.776 E54.19189
G1 X76.9 Y107.304 E54.22812
G1 X76.224 Y106.549 E54.27868
G1 X75.429 Y105.511 E54.34391
G1 X75.02 Y104.911 E54.38014
G1 X74.572 Y104.024 E54.42972
G1 X74.074 Y102.822 E54.49463
G1 X73.833 Y102.137 E54.53086
G1 X73.628 Y101.159 E54.58071
G1 X73.457 Y99.863 E54.64593
G1 X73.401 Y99.139 E54.68216
G1 X73.457 Y98.137 E54.73222
G1 X73.628 Y96.841 E54.79744
G1 X73.762 Y96.127 E54.83369
G1 X74.074 Y95.178 E54.88352
G1 X74.572 Y93.976 E54.94844
G1 X74.886 Y93.321 E54.98467
G1 X75.429 Y92.489 E55.03424
G1 X76.224 Y91.451 E55.09947
G1 X76.697 Y90.899 E55.13574
G1 X77.452 Y90.224 E55.18626
G0 F3600 X77.695 Y90.541
G1 F1800 X78.732 Y89.747 E55.25142
G1 X79.314 Y89.352 E55.28652
G1 X80.126 Y88.943 E55.33187
G1 X81.329 Y88.444 E55.39685
G1 X81.993 Y88.212 E55.43194
G1 X82.894 Y88.024 E55.47786
G1 X84.192 Y87.853 E55.54318
G1 X85.002 Y87.8 E55.58368
G1 X184.998 Y87.8 E60.5725
G1 X185.808 Y87.853 E60.61299
G1 X187.106 Y88.024 E60.67831
G1 X187.797 Y88.156 E60.71341
G1 X188.671 Y88.444 E60.75932
G1 X189.874 Y88.943 E60.8243
G1 X190.508 Y89.249 E60.85942
G1 X191.268 Y89.747 E60.90475
G1 X192.305 Y90.541 E60.96991
G1 X192.839 Y91 E61.00504
G1 X193.458 Y91.694 E61.05143
G1 X194.253 Y92.732 E61.11666
G1 X194.649 Y93.314 E61.15178
G1 X195.059 Y94.129 E61.1973
G1 X195.557 Y95.331 E61.26221
G1 X195.789 Y95.996 E61.29735
G1 X195.976 Y96.893 E61.34306
G1 X196.147 Y98.189 E61.40828
G1 X196.199 Y98.891 E61.4434
G1 X196.147 Y99.811 E61.48937
G1 X195.976 Y101.107 E61.55459
G1 X195.844 Y101.799 E61.58974
G1 X195.557 Y102.669 E61.63544
G1 X195.059 Y103.871 E61.70035
G1 X194.753 Y104.505 E61.73547
G1 X194.253 Y105.268 E61.78099
G1 X193.458 Y106.306 E61.84622
G1 X192.999 Y106.84 E61.88135
G1 X192.305 Y107.459 E61.92774
G1 X191.268 Y108.253 E61.9929
G1 X190.686 Y108.648 E62.02799
G1 X189.874 Y109.057 E62.07335
G1 X188.671 Y109.556 E62.13833
G1 X188.007 Y109.788 E62.17342
G1 X187.106 Y109.976 E62.21934
G1 X185.808 Y110.147 E62.28466
G1 X184.998 Y110.2 E62.32515
G1 X85.002 Y110.2 E67.31397
G1 X84.192 Y110.147 E67.35447
G1 X82.894 Y109.976 E67.41979
G1 X82.203 Y109.844 E67.45489
G1 X81.329 Y109.556 E67.5008
G1 X80.126 Y109.057 E67.56577
G1 X79.492 Y108.751 E67.6009
G1 X78.732 Y108.253 E67.64623
G1 X77.695 Y107.459 E67.71139
G1 X77.161 Y107 E67.74652
G1 X76.542 Y106.306 E67.79291
G1 X75.747 Y105.268 E67.85814
G1 X75.351 Y104.686 E67.89326
G1 X74.941 Y103.871 E67.93878
G1 X74.443 Y102.669 E68.00369
G1 X74.211 Y102.004 E68.03883
G1 X74.024 Y101.107 E68.08454
G1 X73.853 Y99.811 E68.14976
G1 X73.801 Y99.109 E68.18488
G1 X73.853 Y98.189 E68.23085
G1 X74.024 Y96.893 E68.29607
G1 X74.156 Y96.201 E68.33121
G1 X74.443 Y95.331 E68.37692
G1 X74.941 Y94.129 E68.44183
G1 X75.247 Y93.495 E68.47695
G1 X75.747 Y92.732 E68.52246
G1 X76.542 Y91.694 E68.58769
G1 X77.001 Y91.16 E68.62282
G1 X77.695 Y90.541 E68.66922
G0 F3600 X77.938 Y90.859
G1 F1800 X78.975 Y90.065 E68.73438
G1 X79.539 Y89.683 E68.76836
G1 X80.279 Y89.313 E68.80964
G1 X81.482 Y88.814 E68.87462
G1 X82.125 Y88.59 E68.90859
G1 X82.946 Y88.421 E68.95041
G1 X84.244 Y88.25 E69.01572
G1 X85.002 Y88.2 E69.05362
G1 X184.998 Y88.2 E74.04244
G1 X185.756 Y88.25 E74.08034
G1 X187.054 Y88.421 E74.14566
G1 X187.722 Y88.549 E74.17959
G1 X188.518 Y88.814 E74.22145
G1 X189.721 Y89.313 E74.28642
G1 X190.334 Y89.61 E74.32041
G1 X191.025 Y90.065 E74.36168
G1 X192.062 Y90.859 E74.42684
G1 X192.577 Y91.304 E74.4608
G1 X193.141 Y91.937 E74.5031
G1 X193.936 Y92.975 E74.56833
G1 X194.317 Y93.539 E74.60228
G1 X194.689 Y94.282 E74.64374
G1 X195.187 Y95.484 E74.70865
G1 X195.411 Y96.127 E74.74262
G1 X195.579 Y96.945 E74.78428
G1 X195.75 Y98.241 E74.8495
G1 X195.799 Y98.92 E74.88346
G1 X195.75 Y99.759 E74.92539
G1 X195.579 Y101.055 E74.99061
G1 X195.451 Y101.723 E75.02454
G1 X195.187 Y102.516 E75.06624
G1 X194.689 Y103.718 E75.13115
G1 X194.392 Y104.331 E75.16514
G1 X193.936 Y105.025 E75.20656
G1 X193.141 Y106.063 E75.27179
G1 X192.696 Y106.578 E75.30575
G1 X192.062 Y107.141 E75.34805
G1 X191.025 Y107.935 E75.41321
G1 X190.461 Y108.317 E75.4472
G1 X189.721 Y108.687 E75.48847
G1 X188.518 Y109.186 E75.55345
G1 X187.875 Y109.41 E75.58742
G1 X187.054 Y109.579 E75.62924
G1 X185.756 Y109.75 E75.69456
G1 X184.998 Y109.8 E75.73245
G1 X85.002 Y109.8 E80.72128
G1 X84.244 Y109.75 E80.75917
G1 X82.946 Y109.579 E80.82449
G1 X82.278 Y109.451 E80.85842
G1 X81.482 Y109.186 E80.90028
G1 X80.279 Y108.687 E80.96526
G1 X79.666 Y108.39 E80.99924
G1 X78.975 Y107.935 E81.04052
G1 X77.938 Y107.141 E81.10568
G1 X77.423 Y106.696 E81.13963
G1 X76.859 Y106.063 E81.18193
G1 X76.064 Y105.025 E81.24716
G1 X75.683 Y104.461 E81.28112
G1 X75.311 Y103.718 E81.32257
G1 X74.813 Y102.516 E81.38748
G1 X74.589 Y101.873 E81.42145
G1 X74.421 Y101.055 E81.46311
G1 X74.25 Y99.759 E81.52833
G1 X74.201 Y99.08 E81.5623
G1 X74.25 Y98.241 E81.60423
G1 X74.421 Y96.945 E81.66944
G1 X74.549 Y96.277 E81.70338
G1 X74.813 Y95.484 E81.74507
G1 X75.311 Y94.282 E81.80999
G1 X75.608 Y93.669 E81.84397
G1 X76.064 Y92.975 E81.8854
G1 X76.859 Y91.937 E81.95063
G1 X77.304 Y91.422 E81.98458
G1 X77.938 Y90.859 E82.02689
G0 F3600 X78.181 Y91.176
G1 F1800 X79.218 Y90.382 E82.09205
G1 X79.763 Y90.016 E82.1248
G1 X80.432 Y89.682 E82.1621
G1 X81.635 Y89.183 E82.22708
G1 X82.256 Y88.969 E82.25985
G1 X82.999 Y88.817 E82.29768
G1 X84.297 Y88.646 E82.363
G1 X85.002 Y88.6 E82.39825
G1 X184.998 Y88.6 E87.38707
G1 X185.703 Y88.646 E87.42232
G1 X187.001 Y88.817 E87.48763
G1 X187.646 Y88.943 E87.52042
G1 X188.365 Y89.183 E87.55824
G1 X189.568 Y89.682 E87.62321
G1 X190.158 Y89.97 E87.65597
G1 X190.782 Y90.382 E87.69327
G1 X191.819 Y91.176 E87.75843
G1 X192.315 Y91.607 E87.79122
G1 X192.823 Y92.181 E87.82946
G1 X193.618 Y93.219 E87.89469
G1 X193.985 Y93.763 E87.92743
G1 X194.32 Y94.435 E87.96489
G1 X194.818 Y95.637 E88.0298
G1 X195.032 Y96.258 E88.06257
G1 X195.183 Y96.998 E88.10025
G1 X195.354 Y98.294 E88.16547
G1 X195.4 Y98.949 E88.19823
G1 X195.354 Y99.706 E88.23606
G1 X195.183 Y101.002 E88.30128
G1 X195.057 Y101.647 E88.33407
G1 X194.818 Y102.363 E88.37173
G1 X194.32 Y103.565 E88.43664
