;FLAVOR:Marlin
;TIME:511
;Filament used: 0.404084m
;Layer height: 0.2
;MINX:122.483
;MINY:91.704
;MINZ:0.3
;MAXX:145.796
;MAXY:123.623
;MAXZ:13.7
;Generated with Cura_SteamEngine 4.8.0
M140 S60
M105
M190 S60
M104 S210
M105
M109 S210
M82 ;absolute extrusion mode
G28 ;Home
G1 Z15.0 F6000 ;Move the platform down 15mm
;Prime the extruder
G92 E0
G1 F200 E3
G92 E0
G92 E0
G92 E0
G1 F2400 E-6.5
;LAYER_COUNT:68
;LAYER:0
M107
G0 F3600 X126.213 Y96.254 Z0.3
;TYPE:SKIRT
G1 F2400 E0
G1 F1800 X126.691 Y95.631 E0.03918
G1 X127.202 Y95.03 E0.07853
G1 X127.772 Y94.483 E0.11795
G1 X128.132 Y94.19 E0.1411
G1 X128.754 Y93.713 E0.18021
G1 X129.405 Y93.264 E0.21966
G1 X130.097 Y92.884 E0.25905
G1 X130.513 Y92.697 E0.28181
G1 X131.234 Y92.398 E0.32075
G1 X131.978 Y92.133 E0.36015
G1 X132.745 Y91.944 E0.39956
G1 X133.198 Y91.87 E0.42246
G1 X133.976 Y91.767 E0.46161
G1 X134.763 Y91.704 E0.501
G1 X135.553 Y91.72 E0.54042
G1 X136.024 Y91.767 E0.56404
G1 X136.802 Y91.87 E0.60319
G1 X137.578 Y92.014 E0.64257
G1 X138.336 Y92.235 E0.68196
G1 X138.766 Y92.398 E0.7049
G1 X139.487 Y92.697 E0.74384
G1 X140.2 Y93.036 E0.78323
G1 X140.875 Y93.445 E0.82261
G1 X141.247 Y93.714 E0.84551
G1 X141.87 Y94.192 E0.88469
G1 X142.471 Y94.703 E0.92404
G1 X143.018 Y95.273 E0.96346
G1 X143.311 Y95.633 E0.98661
G1 X143.788 Y96.255 E1.02572
G1 X144.237 Y96.906 E1.06517
G1 X144.617 Y97.598 E1.10456
G1 X144.806 Y98.019 E1.12758
G1 X145.104 Y98.739 E1.16646
G1 X145.369 Y99.483 E1.20586
G1 X145.557 Y100.25 E1.24526
G1 X145.63 Y100.698 E1.26791
G1 X145.733 Y101.476 E1.30706
G1 X145.796 Y102.263 E1.34645
G1 X145.78 Y103.053 E1.38587
G1 X145.733 Y103.524 E1.40949
G1 X145.63 Y104.302 E1.44864
G1 X145.486 Y105.078 E1.48801
G1 X145.265 Y105.836 E1.52741
G1 X145.104 Y106.261 E1.55008
G1 X144.806 Y106.981 E1.58896
G1 X144.468 Y107.694 E1.62832
G1 X144.059 Y108.37 E1.66774
G1 X143.787 Y108.746 E1.69089
G1 X143.433 Y109.208 E1.71993
G1 X143.648 Y109.814 E1.75201
G1 X143.836 Y110.581 E1.79141
G1 X143.906 Y111.016 E1.81339
G1 X144.01 Y111.795 E1.8526
G1 X144.075 Y112.582 E1.892
G1 X144.06 Y113.371 E1.93137
G1 X144.01 Y113.86 E1.95589
G1 X143.906 Y114.638 E1.99505
G1 X143.762 Y115.415 E2.03448
G1 X143.54 Y116.173 E2.07388
G1 X143.386 Y116.579 E2.09554
G1 X143.089 Y117.299 E2.1344
G1 X142.751 Y118.013 E2.17381
G1 X142.343 Y118.689 E2.21321
G1 X142.066 Y119.073 E2.23683
G1 X141.588 Y119.696 E2.276
G1 X141.077 Y120.297 E2.31536
G1 X140.507 Y120.844 E2.35477
G1 X140.147 Y121.137 E2.37793
G1 X139.525 Y121.614 E2.41704
G1 X138.874 Y122.063 E2.45649
G1 X138.182 Y122.443 E2.49588
G1 X137.766 Y122.63 E2.51863
G1 X137.045 Y122.929 E2.55757
G1 X136.301 Y123.194 E2.59698
G1 X135.534 Y123.383 E2.63639
G1 X135.081 Y123.457 E2.65929
G1 X134.303 Y123.56 E2.69844
G1 X133.516 Y123.623 E2.73783
G1 X132.726 Y123.607 E2.77725
G1 X132.257 Y123.56 E2.80077
G1 X131.478 Y123.457 E2.83997
G1 X130.701 Y123.314 E2.87939
G1 X129.943 Y123.093 E2.91878
G1 X129.509 Y122.928 E2.94194
G1 X128.789 Y122.629 E2.98084
G1 X128.075 Y122.289 E3.02029
G1 X127.4 Y121.879 E3.05969
G1 X127.037 Y121.617 E3.08203
G1 X126.413 Y121.139 E3.12124
G1 X125.811 Y120.628 E3.16064
G1 X125.264 Y120.058 E3.20005
G1 X124.962 Y119.687 E3.22392
G1 X124.486 Y119.065 E3.26299
G1 X124.038 Y118.415 E3.30238
G1 X123.659 Y117.722 E3.34178
G1 X123.473 Y117.308 E3.36443
G1 X123.175 Y116.588 E3.4033
G1 X122.91 Y115.844 E3.44271
G1 X122.722 Y115.077 E3.48211
G1 X122.649 Y114.629 E3.50475
G1 X122.546 Y113.851 E3.5439
G1 X122.483 Y113.064 E3.58329
G1 X122.499 Y112.274 E3.62271
G1 X122.546 Y111.805 E3.64623
G1 X122.649 Y111.026 E3.68543
G1 X122.792 Y110.249 E3.72485
G1 X123.013 Y109.491 E3.76424
G1 X123.176 Y109.062 E3.78714
G1 X123.474 Y108.343 E3.82597
G1 X123.813 Y107.629 E3.8654
G1 X124.223 Y106.954 E3.9048
G1 X124.483 Y106.592 E3.92704
G1 X124.845 Y106.118 E3.95679
G1 X124.631 Y105.517 E3.98862
G1 X124.443 Y104.75 E4.02802
G1 X124.37 Y104.302 E4.05066
G1 X124.267 Y103.524 E4.08982
G1 X124.204 Y102.737 E4.12921
G1 X124.22 Y101.947 E4.16863
G1 X124.267 Y101.476 E4.19224
G1 X124.37 Y100.698 E4.2314
G1 X124.514 Y99.922 E4.27077
G1 X124.735 Y99.164 E4.31016
G1 X124.896 Y98.739 E4.33284
G1 X125.194 Y98.019 E4.37171
G1 X125.532 Y97.306 E4.41108
G1 X125.941 Y96.63 E4.4505
G1 X126.213 Y96.254 E4.47365
G0 F3600 X126.53 Y96.497
G1 F1800 X127.008 Y95.874 E4.51283
G1 X127.507 Y95.289 E4.55119
G1 X128.065 Y94.759 E4.58958
G1 X128.376 Y94.507 E4.60955
G1 X128.998 Y94.03 E4.64866
G1 X129.632 Y93.594 E4.68705
G1 X130.307 Y93.227 E4.72538
G1 X130.666 Y93.066 E4.74501
G1 X131.387 Y92.767 E4.78395
G1 X132.112 Y92.51 E4.82232
G1 X132.86 Y92.329 E4.86072
G1 X133.251 Y92.267 E4.88047
G1 X134.029 Y92.164 E4.91962
G1 X134.796 Y92.103 E4.95801
G1 X135.564 Y92.122 E4.99634
G1 X135.971 Y92.164 E5.01675
G1 X136.749 Y92.267 E5.0559
G1 X137.505 Y92.407 E5.09426
G1 X138.243 Y92.626 E5.13267
G1 X138.613 Y92.767 E5.15242
G1 X139.334 Y93.066 E5.19136
G1 X140.028 Y93.398 E5.22974
G1 X140.684 Y93.799 E5.2681
G1 X141.004 Y94.031 E5.28782
G1 X141.627 Y94.509 E5.327
G1 X142.212 Y95.008 E5.36536
G1 X142.742 Y95.566 E5.40375
G1 X142.994 Y95.877 E5.42372
G1 X143.471 Y96.499 E5.46283
G1 X143.907 Y97.133 E5.50122
G1 X144.274 Y97.808 E5.53955
G1 X144.436 Y98.172 E5.55943
G1 X144.734 Y98.892 E5.5983
G1 X144.991 Y99.617 E5.63668
G1 X145.171 Y100.365 E5.67506
G1 X145.233 Y100.751 E5.69457
G1 X145.336 Y101.529 E5.73372
G1 X145.397 Y102.296 E5.77211
G1 X145.378 Y103.064 E5.81043
G1 X145.336 Y103.471 E5.83085
G1 X145.233 Y104.249 E5.87
G1 X145.093 Y105.005 E5.90836
G1 X144.874 Y105.743 E5.94676
G1 X144.734 Y106.108 E5.96627
G1 X144.436 Y106.828 E6.00514
G1 X144.106 Y107.522 E6.04348
G1 X143.705 Y108.179 E6.08188
G1 X143.47 Y108.503 E6.10185
G1 X142.98 Y109.14 E6.14195
G1 X143.014 Y109.223 E6.14642
G1 X143.271 Y109.948 E6.1848
G1 X143.51 Y111.069 E6.24198
G1 X143.614 Y111.848 E6.28119
G1 X143.676 Y112.614 E6.31953
G1 X143.658 Y113.383 E6.35791
G1 X143.614 Y113.807 E6.37917
G1 X143.51 Y114.585 E6.41833
G1 X143.368 Y115.342 E6.45676
G1 X143.016 Y116.427 E6.51367
G1 X142.719 Y117.147 E6.55253
G1 X142.389 Y117.842 E6.59091
G1 X141.989 Y118.499 E6.62928
G1 X141.749 Y118.83 E6.64968
G1 X141.271 Y119.453 E6.68886
G1 X140.772 Y120.038 E6.72722
G1 X140.214 Y120.568 E6.76561
G1 X139.903 Y120.82 E6.78558
G1 X139.281 Y121.297 E6.82469
G1 X138.647 Y121.733 E6.86308
G1 X137.972 Y122.1 E6.90141
G1 X137.613 Y122.261 E6.92104
G1 X136.892 Y122.56 E6.95998
G1 X136.167 Y122.817 E6.99836
G1 X135.419 Y122.998 E7.03675
G1 X135.028 Y123.06 E7.0565
G1 X134.25 Y123.163 E7.09566
G1 X133.483 Y123.224 E7.13404
G1 X132.715 Y123.205 E7.17237
G1 X132.309 Y123.163 E7.19273
G1 X131.53 Y123.06 E7.23194
G1 X130.774 Y122.92 E7.27029
G1 X130.036 Y122.702 E7.30869
G1 X129.662 Y122.558 E7.32868
G1 X128.942 Y122.259 E7.36758
G1 X128.248 Y121.928 E7.40594
G1 X127.592 Y121.526 E7.44432
G1 X127.28 Y121.3 E7.46354
G1 X126.656 Y120.822 E7.50276
G1 X126.071 Y120.323 E7.54112
G1 X125.54 Y119.766 E7.57951
G1 X125.279 Y119.444 E7.60019
G1 X124.803 Y118.822 E7.63927
G1 X124.368 Y118.188 E7.67762
G1 X124.001 Y117.512 E7.716
G1 X123.843 Y117.155 E7.73548
G1 X123.545 Y116.435 E7.77435
G1 X123.288 Y115.71 E7.81273
G1 X123.108 Y114.962 E7.85111
G1 X123.046 Y114.576 E7.87062
G1 X122.943 Y113.798 E7.90977
G1 X122.882 Y113.031 E7.94816
G1 X122.901 Y112.263 E7.98648
G1 X122.943 Y111.857 E8.00685
G1 X123.046 Y111.078 E8.04605
G1 X123.186 Y110.322 E8.08441
G1 X123.404 Y109.584 E8.1228
G1 X123.546 Y109.215 E8.14253
G1 X123.844 Y108.496 E8.18136
G1 X124.175 Y107.801 E8.21976
G1 X124.801 Y106.835 E8.27719
G1 X125.278 Y106.211 E8.31638
G1 X125.266 Y106.108 E8.32155
G1 X125.009 Y105.383 E8.35992
G1 X124.829 Y104.635 E8.39831
G1 X124.767 Y104.249 E8.41781
G1 X124.664 Y103.471 E8.45697
G1 X124.603 Y102.704 E8.49535
G1 X124.622 Y101.936 E8.53368
G1 X124.664 Y101.529 E8.55409
G1 X124.767 Y100.751 E8.59325
G1 X124.907 Y99.995 E8.6316
G1 X125.126 Y99.257 E8.67001
G1 X125.266 Y98.892 E8.68951
G1 X125.564 Y98.172 E8.72839
G1 X125.894 Y97.478 E8.76673
G1 X126.295 Y96.821 E8.80513
G1 X126.53 Y96.497 E8.8251
G0 F3600 X126.847 Y96.741
G1 F1800 X127.325 Y96.118 E8.86427
G1 X127.812 Y95.55 E8.9016
G1 X128.619 Y94.824 E8.95576
G1 X129.241 Y94.347 E8.99486
G1 X129.858 Y93.924 E9.03219
G1 X130.82 Y93.436 E9.086
G1 X131.541 Y93.137 E9.12494
G1 X132.246 Y92.888 E9.16225
G1 X133.303 Y92.664 E9.21615
G1 X134.081 Y92.561 E9.2553
G1 X134.827 Y92.502 E9.29264
G1 X135.919 Y92.561 E9.3472
G1 X136.697 Y92.664 E9.38635
G1 X137.432 Y92.801 E9.42365
G1 X138.459 Y93.137 E9.47756
G1 X139.18 Y93.436 E9.5165
G1 X139.855 Y93.759 E9.55384
G1 X140.76 Y94.348 E9.60771
G1 X141.383 Y94.826 E9.64688
G1 X141.951 Y95.313 E9.68421
G1 X142.677 Y96.12 E9.73837
G1 X143.154 Y96.742 E9.77747
G1 X143.577 Y97.359 E9.81479
G1 X144.067 Y98.325 E9.86883
G1 X144.365 Y99.045 E9.90771
G1 X144.614 Y99.751 E9.94506
G1 X144.836 Y100.803 E9.9987
G1 X144.939 Y101.581 E10.03785
G1 X144.998 Y102.327 E10.07519
G1 X144.939 Y103.419 E10.12975
G1 X144.836 Y104.197 E10.1689
G1 X144.699 Y104.932 E10.2062
G1 X144.365 Y105.955 E10.25989
G1 X144.067 Y106.675 E10.29877
G1 X143.744 Y107.35 E10.3361
G1 X143.153 Y108.259 E10.39019
G1 X142.675 Y108.882 E10.42937
G1 X142.517 Y109.066 E10.44147
G1 X142.645 Y109.376 E10.4582
G1 X142.893 Y110.081 E10.49548
G1 X143.113 Y111.122 E10.54857
G1 X143.217 Y111.901 E10.58778
G1 X143.277 Y112.646 E10.62507
G1 X143.217 Y113.754 E10.68042
G1 X143.113 Y114.532 E10.71958
G1 X142.975 Y115.268 E10.75694
G1 X142.646 Y116.274 E10.80975
G1 X142.349 Y116.994 E10.84861
G1 X142.027 Y117.67 E10.88596
G1 X141.432 Y118.586 E10.94046
G1 X140.954 Y119.209 E10.97963
G1 X140.467 Y119.777 E11.01696
G1 X139.66 Y120.503 E11.07112
G1 X139.038 Y120.98 E11.11022
G1 X138.421 Y121.403 E11.14754
G1 X137.459 Y121.891 E11.20136
G1 X136.738 Y122.19 E11.2403
G1 X136.033 Y122.439 E11.2776
G1 X134.976 Y122.663 E11.33151
G1 X134.198 Y122.766 E11.37066
G1 X133.452 Y122.825 E11.408
G1 X132.361 Y122.767 E11.4625
G1 X131.582 Y122.664 E11.50171
G1 X130.847 Y122.526 E11.53902
G1 X129.815 Y122.189 E11.59318
G1 X129.095 Y121.89 E11.63207
G1 X128.421 Y121.566 E11.66938
G1 X127.523 Y120.982 E11.72283
G1 X126.899 Y120.504 E11.76204
G1 X126.331 Y120.018 E11.79934
G1 X125.597 Y119.201 E11.85413
G1 X125.121 Y118.579 E11.89321
G1 X124.699 Y117.962 E11.9305
G1 X124.212 Y117.002 E11.9842
G1 X123.914 Y116.282 E12.02308
G1 X123.665 Y115.576 E12.06043
G1 X123.443 Y114.524 E12.11407
G1 X123.34 Y113.746 E12.15322
G1 X123.281 Y113 E12.19056
G1 X123.339 Y111.909 E12.24506
G1 X123.442 Y111.13 E12.28427
G1 X123.58 Y110.395 E12.32158
G1 X123.915 Y109.368 E12.37547
G1 X124.213 Y108.649 E12.4143
G1 X124.536 Y107.974 E12.45163
G1 X125.119 Y107.078 E12.50497
G1 X125.596 Y106.454 E12.54415
G1 X125.761 Y106.26 E12.55686
G1 X125.635 Y105.955 E12.57332
G1 X125.386 Y105.249 E12.61067
G1 X125.164 Y104.197 E12.66431
G1 X125.061 Y103.419 E12.70346
G1 X125.002 Y102.673 E12.7408
G1 X125.061 Y101.581 E12.79536
G1 X125.164 Y100.803 E12.83451
G1 X125.301 Y100.068 E12.87181
G1 X125.635 Y99.045 E12.9255
G1 X125.933 Y98.325 E12.96438
G1 X126.256 Y97.65 E13.00171
G1 X126.847 Y96.741 E13.0558
G0 F3600 X127.165 Y96.984
G1 F1800 X127.643 Y96.361 E13.09498
G1 X128.116 Y95.81 E13.13121
G1 X128.863 Y95.142 E13.1812
G1 X129.485 Y94.665 E13.22031
G1 X130.084 Y94.255 E13.25652
G1 X130.973 Y93.805 E13.30623
G1 X131.694 Y93.506 E13.34518
G1 X132.379 Y93.266 E13.38139
G1 X133.356 Y93.06 E13.4312
G1 X134.134 Y92.957 E13.47035
G1 X134.858 Y92.902 E13.50658
G1 X135.866 Y92.957 E13.55694
G1 X136.644 Y93.06 E13.5961
G1 X137.358 Y93.195 E13.63235
G1 X138.306 Y93.506 E13.68213
G1 X139.027 Y93.805 E13.72107
G1 X139.682 Y94.12 E13.75733
G1 X140.517 Y94.666 E13.8071
G1 X141.14 Y95.144 E13.84628
G1 X141.691 Y95.617 E13.88251
G1 X142.359 Y96.364 E13.9325
G1 X142.836 Y96.986 E13.97161
G1 X143.246 Y97.585 E14.00782
G1 X143.697 Y98.478 E14.05773
G1 X143.995 Y99.198 E14.09661
G1 X144.236 Y99.883 E14.13284
G1 X144.44 Y100.856 E14.18244
G1 X144.543 Y101.634 E14.22159
G1 X144.598 Y102.358 E14.25781
G1 X144.543 Y103.366 E14.30818
G1 X144.44 Y104.144 E14.34733
G1 X144.305 Y104.858 E14.38358
G1 X143.995 Y105.802 E14.43316
G1 X143.697 Y106.522 E14.47203
G1 X143.383 Y107.177 E14.50827
G1 X142.835 Y108.016 E14.55827
G1 X142.357 Y108.639 E14.59744
G1 X142.054 Y108.992 E14.62065
G1 X142.275 Y109.528 E14.64958
G1 X142.515 Y110.214 E14.68584
G1 X142.717 Y111.175 E14.73483
G1 X142.821 Y111.954 E14.77404
G1 X142.877 Y112.678 E14.81026
G1 X142.821 Y113.701 E14.86138
G1 X142.717 Y114.479 E14.90054
G1 X142.581 Y115.193 E14.9368
G1 X142.276 Y116.122 E14.98558
G1 X141.979 Y116.842 E15.02444
G1 X141.666 Y117.497 E15.06066
G1 X141.114 Y118.343 E15.11105
G1 X140.636 Y118.966 E15.15023
G1 X140.163 Y119.517 E15.18646
G1 X139.416 Y120.185 E15.23646
G1 X138.794 Y120.662 E15.27556
G1 X138.195 Y121.072 E15.31178
G1 X137.306 Y121.522 E15.36149
G1 X136.585 Y121.821 E15.40043
G1 X135.9 Y122.061 E15.43664
G1 X134.923 Y122.267 E15.48645
G1 X134.145 Y122.37 E15.52561
G1 X133.421 Y122.425 E15.56183
G1 X132.414 Y122.37 E15.61215
G1 X131.635 Y122.267 E15.65135
G1 X130.921 Y122.132 E15.6876
G1 X129.969 Y121.819 E15.7376
G1 X129.249 Y121.52 E15.77649
G1 X128.594 Y121.205 E15.81275
G1 X127.766 Y120.664 E15.8621
G1 X127.142 Y120.186 E15.90131
G1 X126.591 Y119.714 E15.93751
G1 X125.915 Y118.958 E15.98811
G1 X125.439 Y118.336 E16.02718
G1 X125.03 Y117.736 E16.06341
G1 X124.582 Y116.849 E16.11299
G1 X124.284 Y116.129 E16.15186
G1 X124.043 Y115.444 E16.18809
G1 X123.839 Y114.471 E16.23769
G1 X123.736 Y113.693 E16.27684
G1 X123.681 Y112.969 E16.31307
G1 X123.736 Y111.962 E16.36338
G1 X123.839 Y111.183 E16.40259
G1 X123.974 Y110.469 E16.43884
G1 X124.285 Y109.521 E16.48861
G1 X124.583 Y108.802 E16.52744
G1 X124.898 Y108.147 E16.5637
G1 X125.437 Y107.321 E16.61291
G1 X125.914 Y106.697 E16.6521
G1 X126.225 Y106.333 E16.67598
G1 X126.005 Y105.802 E16.70466
G1 X125.764 Y105.117 E16.74089
G1 X125.56 Y104.144 E16.79048
G1 X125.457 Y103.366 E16.82964
G1 X125.402 Y102.642 E16.86586
G1 X125.457 Y101.634 E16.91623
G1 X125.56 Y100.856 E16.95538
G1 X125.695 Y100.142 E16.99163
G1 X126.005 Y99.198 E17.0412
G1 X126.303 Y98.478 E17.08008
G1 X126.617 Y97.823 E17.11632
G1 X127.165 Y96.984 E17.16631
G0 F3600 X127.482 Y97.228
G1 F1800 X127.96 Y96.605 E17.20549
G1 X128.42 Y96.072 E17.24062
G1 X129.106 Y95.459 E17.28651
G1 X129.728 Y94.982 E17.32562
G1 X130.31 Y94.586 E17.36074
G1 X131.126 Y94.175 E17.40632
G1 X131.847 Y93.876 E17.44526
G1 X132.512 Y93.644 E17.4804
G1 X133.408 Y93.457 E17.52607
G1 X134.186 Y93.354 E17.56522
G1 X134.888 Y93.301 E17.60034
G1 X135.814 Y93.354 E17.64662
G1 X136.592 Y93.457 E17.68577
G1 X137.283 Y93.588 E17.72086
G1 X138.153 Y93.876 E17.76658
G1 X138.874 Y94.175 E17.80552
G1 X139.508 Y94.481 E17.84064
G1 X140.273 Y94.983 E17.88629
G1 X140.896 Y95.461 E17.92547
G1 X141.429 Y95.921 E17.96059
G1 X142.042 Y96.607 E18.00649
G1 X142.519 Y97.229 E18.0456
G1 X142.915 Y97.811 E18.08072
G1 X143.328 Y98.631 E18.12652
G1 X143.626 Y99.351 E18.1654
G1 X143.858 Y100.016 E18.20054
G1 X144.043 Y100.908 E18.24599
G1 X144.146 Y101.686 E18.28514
G1 X144.199 Y102.388 E18.32026
G1 X144.146 Y103.314 E18.36654
G1 X144.043 Y104.092 E18.40569
G1 X143.912 Y104.783 E18.44078
G1 X143.626 Y105.649 E18.48628
G1 X143.328 Y106.369 E18.52515
G1 X143.022 Y107.003 E18.56028
G1 X142.518 Y107.772 E18.60615
G1 X142.04 Y108.395 E18.64532
G1 X141.587 Y108.92 E18.67992
G1 X141.608 Y108.962 E18.68226
G1 X141.905 Y109.681 E18.72107
G1 X142.137 Y110.346 E18.75621
G1 X142.32 Y111.228 E18.80115
G1 X142.424 Y112.007 E18.84036
G1 X142.478 Y112.709 E18.87549
G1 X142.424 Y113.648 E18.92241
G1 X142.32 Y114.426 E18.96157
G1 X142.188 Y115.118 E18.99672
G1 X141.907 Y115.969 E19.04143
G1 X141.61 Y116.689 E19.08028
G1 X141.305 Y117.324 E19.11543
G1 X140.797 Y118.099 E19.16166
G1 X140.319 Y118.722 E19.20084
G1 X139.859 Y119.255 E19.23596
G1 X139.173 Y119.868 E19.28186
G1 X138.551 Y120.345 E19.32097
G1 X137.969 Y120.741 E19.35609
G1 X137.153 Y121.152 E19.40167
G1 X136.432 Y121.451 E19.44061
G1 X135.767 Y121.683 E19.47575
G1 X134.871 Y121.87 E19.52141
G1 X134.093 Y121.973 E19.56057
