;FLAVOR:Marlin
;TIME:698
;Filament used: 0.537591m
;Layer height: 0.2
;MINX:122.483
;MINY:91.704
;MINZ:0.3
;MAXX:145.796
;MAXY:123.623
;MAXZ:18.7
;Generated with Cura_SteamEngine 4.8.0
M140 S60
M105
M190 S60
M104 S210
M105
M109 S210
M82 ;absolute extrusion mode
G28 ;Home
G1 Z15.0 F6000 ;Move the platform down 15mm
;Prime the extruder
G92 E0
G1 F200 E3
G92 E0
G92 E0
G92 E0
G1 F2400 E-6.5
;LAYER_COUNT:94
;LAYER:0
M107
G0 F3600 X126.213 Y96.254 Z0.3
;TYPE:SKIRT
G1 F2400 E0
G1 F1800 X126.691 Y95.631 E0.03918
G1 X127.202 Y95.03 E0.07853
G1 X127.772 Y94.483 E0.11795
G1 X128.132 Y94.19 E0.1411
G1 X128.754 Y93.713 E0.18021
G1 X129.405 Y93.264 E0.21966
G1 X130.097 Y92.884 E0.25905
G1 X130.513 Y92.697 E0.28181
G1 X131.234 Y92.398 E0.32075
G1 X131.978 Y92.133 E0.36015
G1 X132.745 Y91.944 E0.39956
G1 X133.198 Y91.87 E0.42246
G1 X133.976 Y91.767 E0.46161
G1 X134.763 Y91.704 E0.501
G1 X135.553 Y91.72 E0.54042
G1 X136.03 Y91.768 E0.56434
G1 X136.811 Y91.872 E0.60365
G1 X137.587 Y92.016 E0.64303
G1 X138.345 Y92.237 E0.68242
G1 X138.777 Y92.403 E0.70551
G1 X139.498 Y92.703 E0.74447
G1 X140.211 Y93.042 E0.78385
G1 X140.886 Y93.453 E0.82328
G1 X141.257 Y93.721 E0.84611
G1 X141.876 Y94.197 E0.88507
G1 X142.477 Y94.709 E0.92446
G1 X143.023 Y95.28 E0.96388
G1 X143.312 Y95.635 E0.98671
G1 X143.791 Y96.26 E1.026
G1 X144.239 Y96.911 E1.06543
G1 X144.619 Y97.603 E1.10481
G1 X144.806 Y98.02 E1.12761
G1 X145.103 Y98.737 E1.16633
G1 X145.368 Y99.481 E1.20573
G1 X145.556 Y100.248 E1.24513
G1 X145.63 Y100.698 E1.26789
G1 X145.733 Y101.476 E1.30704
G1 X145.796 Y102.263 E1.34643
G1 X145.78 Y103.053 E1.38585
G1 X145.733 Y103.524 E1.40946
G1 X145.63 Y104.302 E1.44862
G1 X145.486 Y105.078 E1.48799
G1 X145.265 Y105.836 E1.52738
G1 X145.104 Y106.261 E1.55006
G1 X144.806 Y106.981 E1.58893
G1 X144.468 Y107.694 E1.6283
G1 X144.059 Y108.37 E1.66772
G1 X143.787 Y108.746 E1.69087
G1 X143.433 Y109.208 E1.71991
G1 X143.648 Y109.812 E1.75189
G1 X143.835 Y110.579 E1.79128
G1 X143.906 Y111.016 E1.81337
G1 X144.01 Y111.795 E1.85258
G1 X144.075 Y112.582 E1.89198
G1 X144.06 Y113.371 E1.93135
G1 X144.01 Y113.86 E1.95587
G1 X143.906 Y114.638 E1.99503
G1 X143.762 Y115.415 E2.03445
G1 X143.54 Y116.173 E2.07386
G1 X143.386 Y116.579 E2.09552
G1 X143.089 Y117.299 E2.13438
G1 X142.751 Y118.013 E2.17379
G1 X142.343 Y118.689 E2.21318
G1 X142.066 Y119.073 E2.23681
G1 X141.588 Y119.696 E2.27598
G1 X141.077 Y120.297 E2.31534
G1 X140.507 Y120.844 E2.35475
G1 X140.147 Y121.137 E2.37791
G1 X139.525 Y121.614 E2.41702
G1 X138.874 Y122.063 E2.45647
G1 X138.182 Y122.443 E2.49586
G1 X137.766 Y122.63 E2.51861
G1 X137.045 Y122.929 E2.55755
G1 X136.301 Y123.194 E2.59696
G1 X135.534 Y123.383 E2.63637
G1 X135.081 Y123.457 E2.65927
G1 X134.303 Y123.56 E2.69842
G1 X133.516 Y123.623 E2.73781
G1 X132.726 Y123.607 E2.77723
G1 X132.251 Y123.559 E2.80105
G1 X131.469 Y123.455 E2.84041
G1 X130.692 Y123.311 E2.87983
G1 X129.934 Y123.09 E2.91922
G1 X129.497 Y122.923 E2.94256
G1 X128.777 Y122.623 E2.98148
G1 X128.064 Y122.283 E3.02089
G1 X127.39 Y121.872 E3.06027
G1 X127.027 Y121.61 E3.08261
G1 X126.407 Y121.134 E3.1216
G1 X125.806 Y120.622 E3.16099
G1 X125.259 Y120.052 E3.2004
G1 X124.961 Y119.685 E3.22399
G1 X124.483 Y119.06 E3.26325
G1 X124.036 Y118.41 E3.3026
G1 X123.657 Y117.717 E3.34201
G1 X123.473 Y117.307 E3.36443
G1 X123.176 Y116.59 E3.40315
G1 X122.911 Y115.846 E3.44255
G1 X122.723 Y115.079 E3.48195
G1 X122.649 Y114.629 E3.5047
G1 X122.546 Y113.851 E3.54385
G1 X122.483 Y113.064 E3.58324
G1 X122.499 Y112.274 E3.62267
G1 X122.546 Y111.805 E3.64618
G1 X122.649 Y111.026 E3.68538
G1 X122.792 Y110.249 E3.7248
G1 X123.013 Y109.491 E3.76419
G1 X123.176 Y109.062 E3.78709
G1 X123.474 Y108.343 E3.82592
G1 X123.813 Y107.629 E3.86535
G1 X124.223 Y106.954 E3.90475
G1 X124.483 Y106.592 E3.92699
G1 X124.845 Y106.118 E3.95674
G1 X124.632 Y105.519 E3.98846
G1 X124.444 Y104.752 E4.02786
G1 X124.37 Y104.302 E4.05061
G1 X124.267 Y103.524 E4.08976
G1 X124.204 Y102.737 E4.12915
G1 X124.22 Y101.947 E4.16857
G1 X124.267 Y101.476 E4.19219
G1 X124.37 Y100.698 E4.23134
G1 X124.514 Y99.922 E4.27072
G1 X124.735 Y99.164 E4.31011
G1 X124.896 Y98.739 E4.33278
G1 X125.194 Y98.019 E4.37166
G1 X125.532 Y97.306 E4.41103
G1 X125.941 Y96.63 E4.45044
G1 X126.213 Y96.254 E4.4736
G0 F3600 X126.53 Y96.497
G1 F1800 X127.008 Y95.874 E4.51277
G1 X127.507 Y95.289 E4.55113
G1 X128.065 Y94.759 E4.58953
G1 X128.376 Y94.507 E4.6095
G1 X128.998 Y94.03 E4.6486
G1 X129.632 Y93.594 E4.68699
G1 X130.307 Y93.227 E4.72532
G1 X130.666 Y93.066 E4.74495
G1 X131.387 Y92.767 E4.78389
G1 X132.112 Y92.51 E4.82227
G1 X132.86 Y92.329 E4.86066
G1 X133.251 Y92.267 E4.88042
G1 X134.029 Y92.164 E4.91957
G1 X134.796 Y92.103 E4.95796
G1 X135.564 Y92.122 E4.99628
G1 X135.977 Y92.165 E5.017
G1 X136.758 Y92.269 E5.05631
G1 X137.514 Y92.41 E5.09467
G1 X138.251 Y92.628 E5.13302
G1 X138.624 Y92.772 E5.15297
G1 X139.345 Y93.072 E5.19193
G1 X140.039 Y93.404 E5.23031
G1 X140.694 Y93.806 E5.26865
G1 X141.013 Y94.038 E5.28833
G1 X141.632 Y94.514 E5.32729
G1 X142.216 Y95.014 E5.36564
G1 X142.746 Y95.572 E5.40404
G1 X142.994 Y95.879 E5.42373
G1 X143.473 Y96.504 E5.46301
G1 X143.909 Y97.138 E5.5014
G1 X144.276 Y97.813 E5.53973
G1 X144.437 Y98.173 E5.55941
G1 X144.734 Y98.89 E5.59812
G1 X144.991 Y99.615 E5.6365
G1 X145.171 Y100.363 E5.67488
G1 X145.233 Y100.751 E5.69449
G1 X145.336 Y101.529 E5.73364
G1 X145.397 Y102.296 E5.77203
G1 X145.378 Y103.064 E5.81035
G1 X145.336 Y103.471 E5.83077
G1 X145.233 Y104.249 E5.86992
G1 X145.093 Y105.005 E5.90828
G1 X144.874 Y105.743 E5.94668
G1 X144.734 Y106.108 E5.96619
G1 X144.436 Y106.828 E6.00506
G1 X144.106 Y107.522 E6.0434
G1 X143.705 Y108.179 E6.0818
G1 X143.47 Y108.503 E6.10177
G1 X142.98 Y109.14 E6.14187
G1 X143.014 Y109.221 E6.14625
G1 X143.27 Y109.946 E6.18461
G1 X143.51 Y111.069 E6.2419
G1 X143.614 Y111.848 E6.28111
G1 X143.676 Y112.614 E6.31945
G1 X143.658 Y113.383 E6.35783
G1 X143.614 Y113.807 E6.37909
G1 X143.51 Y114.585 E6.41825
G1 X143.368 Y115.342 E6.45668
G1 X143.016 Y116.427 E6.51359
G1 X142.719 Y117.147 E6.55244
G1 X142.389 Y117.842 E6.59083
G1 X141.989 Y118.499 E6.6292
G1 X141.749 Y118.83 E6.6496
G1 X141.271 Y119.453 E6.68878
G1 X140.772 Y120.038 E6.72714
G1 X140.214 Y120.568 E6.76553
G1 X139.903 Y120.82 E6.7855
G1 X139.281 Y121.297 E6.82461
G1 X138.647 Y121.733 E6.863
G1 X137.972 Y122.1 E6.90133
G1 X137.613 Y122.261 E6.92096
G1 X136.892 Y122.56 E6.9599
G1 X136.167 Y122.817 E6.99828
G1 X135.419 Y122.998 E7.03667
G1 X135.028 Y123.06 E7.05642
G1 X134.25 Y123.163 E7.09557
G1 X133.483 Y123.224 E7.13396
G1 X132.715 Y123.205 E7.17229
G1 X132.303 Y123.162 E7.19295
G1 X131.521 Y123.058 E7.23231
G1 X130.765 Y122.918 E7.27067
G1 X130.028 Y122.699 E7.30903
G1 X129.651 Y122.554 E7.32918
G1 X128.931 Y122.254 E7.3681
G1 X128.237 Y121.921 E7.4065
G1 X127.582 Y121.519 E7.44484
G1 X127.271 Y121.293 E7.46402
G1 X126.651 Y120.817 E7.50302
G1 X126.066 Y120.317 E7.54141
G1 X125.536 Y119.76 E7.57977
G1 X125.279 Y119.442 E7.60017
G1 X124.801 Y118.817 E7.63942
G1 X124.366 Y118.183 E7.67778
G1 X123.999 Y117.507 E7.71616
G1 X123.842 Y117.154 E7.73543
G1 X123.545 Y116.437 E7.77415
G1 X123.288 Y115.712 E7.81253
G1 X123.108 Y114.964 E7.85091
G1 X123.046 Y114.576 E7.87051
G1 X122.943 Y113.798 E7.90967
G1 X122.882 Y113.031 E7.94805
G1 X122.901 Y112.263 E7.98638
G1 X122.943 Y111.857 E8.00674
G1 X123.046 Y111.078 E8.04595
G1 X123.186 Y110.322 E8.0843
G1 X123.404 Y109.584 E8.1227
G1 X123.546 Y109.215 E8.14242
G1 X123.844 Y108.496 E8.18125
G1 X124.175 Y107.801 E8.21966
G1 X124.801 Y106.835 E8.27709
G1 X125.298 Y106.187 E8.31783
G1 X125.266 Y106.11 E8.32199
G1 X125.009 Y105.385 E8.36036
G1 X124.829 Y104.637 E8.39875
G1 X124.767 Y104.249 E8.41835
G1 X124.664 Y103.471 E8.4575
G1 X124.603 Y102.704 E8.49589
G1 X124.622 Y101.936 E8.53422
G1 X124.664 Y101.529 E8.55463
G1 X124.767 Y100.751 E8.59378
G1 X124.907 Y99.995 E8.63214
G1 X125.126 Y99.257 E8.67055
G1 X125.266 Y98.892 E8.69005
G1 X125.564 Y98.172 E8.72893
G1 X125.894 Y97.478 E8.76727
G1 X126.295 Y96.821 E8.80567
G1 X126.53 Y96.497 E8.82564
G0 F3600 X126.847 Y96.741
G1 F1800 X127.325 Y96.118 E8.86481
G1 X127.812 Y95.55 E8.90214
G1 X128.619 Y94.824 E8.9563
G1 X129.241 Y94.347 E8.9954
G1 X129.858 Y93.924 E9.03272
G1 X130.82 Y93.436 E9.08654
G1 X131.541 Y93.137 E9.12548
G1 X132.246 Y92.888 E9.16278
G1 X133.303 Y92.664 E9.21669
G1 X134.081 Y92.561 E9.25584
G1 X134.827 Y92.502 E9.29318
G1 X135.924 Y92.561 E9.34799
G1 X136.705 Y92.665 E9.38729
G1 X137.44 Y92.803 E9.4246
G1 X138.47 Y93.141 E9.47869
G1 X139.191 Y93.441 E9.51765
G1 X139.865 Y93.765 E9.55496
G1 X140.769 Y94.355 E9.60881
G1 X141.388 Y94.831 E9.64777
G1 X141.956 Y95.318 E9.6851
G1 X142.677 Y96.122 E9.73898
G1 X143.156 Y96.747 E9.77826
G1 X143.579 Y97.364 E9.81558
G1 X144.067 Y98.326 E9.8694
G1 X144.364 Y99.043 E9.90812
G1 X144.613 Y99.749 E9.94547
G1 X144.836 Y100.803 E9.99922
G1 X144.939 Y101.581 E10.03837
G1 X144.998 Y102.327 E10.0757
G1 X144.939 Y103.419 E10.13026
G1 X144.836 Y104.197 E10.16942
G1 X144.699 Y104.932 E10.20672
G1 X144.365 Y105.955 E10.26041
G1 X144.067 Y106.675 E10.29928
G1 X143.744 Y107.35 E10.33661
G1 X143.153 Y108.259 E10.39071
G1 X142.675 Y108.882 E10.42988
G1 X142.517 Y109.066 E10.44198
G1 X142.644 Y109.374 E10.4586
G1 X142.892 Y110.079 E10.49589
G1 X143.113 Y111.122 E10.54908
G1 X143.217 Y111.901 E10.58829
G1 X143.277 Y112.646 E10.62558
G1 X143.217 Y113.754 E10.68094
G1 X143.113 Y114.532 E10.7201
G1 X142.975 Y115.268 E10.75746
G1 X142.646 Y116.274 E10.81026
G1 X142.349 Y116.994 E10.84912
G1 X142.027 Y117.67 E10.88648
G1 X141.432 Y118.586 E10.94097
G1 X140.954 Y119.209 E10.98015
G1 X140.467 Y119.777 E11.01747
G1 X139.66 Y120.503 E11.07163
G1 X139.038 Y120.98 E11.11074
G1 X138.421 Y121.403 E11.14806
G1 X137.459 Y121.891 E11.20187
G1 X136.738 Y122.19 E11.24081
G1 X136.033 Y122.439 E11.27812
G1 X134.976 Y122.663 E11.33202
G1 X134.198 Y122.766 E11.37117
G1 X133.452 Y122.825 E11.40851
G1 X132.356 Y122.766 E11.46327
G1 X131.574 Y122.662 E11.50263
G1 X130.839 Y122.524 E11.53994
G1 X129.805 Y122.185 E11.59422
G1 X129.085 Y121.885 E11.63314
G1 X128.411 Y121.56 E11.67047
G1 X127.514 Y120.975 E11.7239
G1 X126.894 Y120.499 E11.76289
G1 X126.326 Y120.013 E11.80019
G1 X125.597 Y119.199 E11.8547
G1 X125.119 Y118.574 E11.89396
G1 X124.697 Y117.957 E11.93125
G1 X124.212 Y117.001 E11.98474
G1 X123.915 Y116.284 E12.02345
G1 X123.666 Y115.578 E12.0608
G1 X123.443 Y114.524 E12.11455
G1 X123.34 Y113.746 E12.1537
G1 X123.281 Y113 E12.19104
G1 X123.339 Y111.909 E12.24555
G1 X123.442 Y111.13 E12.28475
G1 X123.58 Y110.395 E12.32206
G1 X123.915 Y109.368 E12.37595
G1 X124.213 Y108.649 E12.41478
G1 X124.536 Y107.974 E12.45212
G1 X125.119 Y107.078 E12.50545
G1 X125.596 Y106.454 E12.54463
G1 X125.761 Y106.26 E12.55734
G1 X125.636 Y105.957 E12.57369
G1 X125.387 Y105.251 E12.61104
G1 X125.164 Y104.197 E12.66479
G1 X125.061 Y103.419 E12.70394
G1 X125.002 Y102.673 E12.74128
G1 X125.061 Y101.581 E12.79584
G1 X125.164 Y100.803 E12.83499
G1 X125.301 Y100.068 E12.87229
G1 X125.635 Y99.045 E12.92598
G1 X125.933 Y98.325 E12.96485
G1 X126.256 Y97.65 E13.00219
G1 X126.847 Y96.741 E13.05628
G0 F3600 X127.165 Y96.984
G1 F1800 X127.643 Y96.361 E13.09546
G1 X128.116 Y95.81 E13.13169
G1 X128.863 Y95.142 E13.18168
G1 X129.485 Y94.665 E13.22079
G1 X130.084 Y94.255 E13.257
G1 X130.973 Y93.805 E13.30671
G1 X131.694 Y93.506 E13.34565
G1 X132.379 Y93.266 E13.38187
G1 X133.356 Y93.06 E13.43168
G1 X134.134 Y92.957 E13.47083
G1 X134.858 Y92.902 E13.50706
G1 X135.871 Y92.958 E13.55767
G1 X136.652 Y93.062 E13.59698
G1 X137.366 Y93.197 E13.63323
G1 X138.316 Y93.51 E13.68314
G1 X139.037 Y93.81 E13.7221
G1 X139.692 Y94.126 E13.75838
G1 X140.525 Y94.672 E13.80807
G1 X141.144 Y95.148 E13.84703
G1 X141.695 Y95.622 E13.88329
G1 X142.359 Y96.365 E13.933
G1 X142.838 Y96.99 E13.97229
G1 X143.248 Y97.59 E14.00854
G1 X143.698 Y98.479 E14.05825
G1 X143.995 Y99.196 E14.09697
G1 X144.235 Y99.882 E14.13323
G1 X144.44 Y100.856 E14.18289
G1 X144.543 Y101.634 E14.22204
G1 X144.598 Y102.358 E14.25827
G1 X144.543 Y103.366 E14.30863
G1 X144.44 Y104.144 E14.34778
G1 X144.305 Y104.858 E14.38404
G1 X143.995 Y105.802 E14.43361
G1 X143.697 Y106.522 E14.47248
G1 X143.383 Y107.177 E14.50872
G1 X142.835 Y108.016 E14.55872
G1 X142.357 Y108.639 E14.59789
G1 X142.053 Y108.993 E14.62117
G1 X142.274 Y109.526 E14.64996
G1 X142.514 Y110.212 E14.68622
G1 X142.717 Y111.175 E14.73532
G1 X142.821 Y111.954 E14.77453
G1 X142.877 Y112.678 E14.81076
G1 X142.821 Y113.701 E14.86187
G1 X142.717 Y114.479 E14.90103
G1 X142.581 Y115.193 E14.93729
G1 X142.276 Y116.122 E14.98608
G1 X141.979 Y116.842 E15.02493
G1 X141.666 Y117.497 E15.06115
G1 X141.114 Y118.343 E15.11155
G1 X140.636 Y118.966 E15.15072
G1 X140.163 Y119.517 E15.18695
G1 X139.416 Y120.185 E15.23695
G1 X138.794 Y120.662 E15.27605
G1 X138.195 Y121.072 E15.31227
G1 X137.306 Y121.522 E15.36198
G1 X136.585 Y121.821 E15.40092
G1 X135.9 Y122.061 E15.43713
G1 X134.923 Y122.267 E15.48695
G1 X134.145 Y122.37 E15.5261
G1 X133.421 Y122.425 E15.56232
G1 X132.409 Y122.369 E15.61289
G1 X131.627 Y122.265 E15.65225
G1 X130.913 Y122.13 E15.6885
G1 X129.959 Y121.815 E15.73862
G1 X129.239 Y121.515 E15.77754
G1 X128.584 Y121.199 E15.81382
G1 X127.758 Y120.658 E15.86308
G1 X127.138 Y120.182 E15.90208
G1 X126.587 Y119.709 E15.93831
G1 X125.914 Y118.956 E15.98869
G1 X125.436 Y118.331 E16.02795
G1 X125.028 Y117.731 E16.06415
G1 X124.581 Y116.848 E16.11352
G1 X124.284 Y116.131 E16.15224
G1 X124.044 Y115.445 E16.1885
G1 X123.839 Y114.471 E16.23816
G1 X123.736 Y113.693 E16.27731
G1 X123.681 Y112.969 E16.31354
G1 X123.736 Y111.962 E16.36385
G1 X123.839 Y111.183 E16.40305
G1 X123.974 Y110.469 E16.43931
G1 X124.285 Y109.521 E16.48908
G1 X124.583 Y108.802 E16.52791
G1 X124.898 Y108.147 E16.56417
G1 X125.437 Y107.321 E16.61338
G1 X125.914 Y106.697 E16.65256
G1 X126.224 Y106.334 E16.67638
G1 X126.005 Y105.804 E16.70499
G1 X125.765 Y105.118 E16.74125
G1 X125.56 Y104.144 E16.79091
G1 X125.457 Y103.366 E16.83006
G1 X125.402 Y102.642 E16.86628
G1 X125.457 Y101.634 E16.91665
G1 X125.56 Y100.856 E16.9558
G1 X125.695 Y100.142 E16.99205
G1 X126.005 Y99.198 E17.04163
G1 X126.303 Y98.478 E17.0805
G1 X126.617 Y97.823 E17.11674
G1 X127.165 Y96.984 E17.16674
G0 F3600 X127.482 Y97.228
G1 F1800 X127.96 Y96.605 E17.20591
G1 X128.42 Y96.072 E17.24104
G1 X129.106 Y95.459 E17.28694
G1 X129.728 Y94.982 E17.32604
G1 X130.31 Y94.586 E17.36116
G1 X131.126 Y94.175 E17.40674
G1 X131.847 Y93.876 E17.44569
G1 X132.512 Y93.644 E17.48082
G1 X133.408 Y93.457 E17.52649
G1 X134.186 Y93.354 E17.56564
G1 X134.888 Y93.301 E17.60076
G1 X135.818 Y93.354 E17.64724
G1 X136.599 Y93.458 E17.68655
G1 X137.291 Y93.591 E17.7217
G1 X138.163 Y93.88 E17.76753
G1 X138.884 Y94.18 E17.80649
G1 X139.517 Y94.487 E17.84159
G1 X140.281 Y94.989 E17.8872
G1 X140.9 Y95.465 E17.92616
G1 X141.433 Y95.925 E17.96128
G1 X142.042 Y96.609 E18.00697
G1 X142.521 Y97.234 E18.04626
G1 X142.917 Y97.816 E18.08138
G1 X143.328 Y98.632 E18.12696
G1 X143.625 Y99.349 E18.16568
G1 X143.857 Y100.014 E18.20082
G1 X144.043 Y100.908 E18.24638
G1 X144.146 Y101.686 E18.28553
G1 X144.199 Y102.388 E18.32065
G1 X144.146 Y103.314 E18.36692
G1 X144.043 Y104.092 E18.40608
G1 X143.912 Y104.783 E18.44117
G1 X143.626 Y105.649 E18.48667
G1 X143.328 Y106.369 E18.52554
G1 X143.022 Y107.003 E18.56066
G1 X142.518 Y107.772 E18.60654
G1 X142.04 Y108.395 E18.64571
G1 X141.587 Y108.92 E18.68031
G1 X141.609 Y108.963 E18.68272
G1 X141.905 Y109.679 E18.72137
G1 X142.136 Y110.344 E18.75649
G1 X142.32 Y111.228 E18.80154
G1 X142.424 Y112.007 E18.84075
G1 X142.478 Y112.709 E18.87588
G1 X142.424 Y113.648 E18.9228
G1 X142.32 Y114.426 E18.96196
G1 X142.188 Y115.118 E18.99711
G1 X141.907 Y115.969 E19.04182
G1 X141.61 Y116.689 E19.08067
G1 X141.305 Y117.324 E19.11582
G1 X140.797 Y118.099 E19.16205
G1 X140.319 Y118.722 E19.20123
G1 X139.859 Y119.255 E19.23635
G1 X139.173 Y119.868 E19.28225
G1 X138.551 Y120.345 E19.32136
G1 X137.969 Y120.741 E19.35648
G1 X137.153 Y121.152 E19.40206
G1 X136.432 Y121.451 E19.441
G1 X135.767 Y121.683 E19.47614
G1 X134.871 Y121.87 E19.5218
G1 X134.093 Y121.973 E19.56096
