;FLAVOR:Marlin
;TIME:24369
;Filament used: 45.1143m
;Layer height: 0.3
;MINX:52.2
;MINY:18.794
;MINZ:0.3
;MAXX:218.495
;MAXY:154.971
;MAXZ:72
;Generated with Cura_SteamEngine 4.8.0
M140 S60
M105
M190 S60
M104 S210
M105
M109 S210
M82 ;absolute extrusion mode
G28 ;Home
G1 Z15.0 F6000 ;Move the platform down 15mm
;Prime the extruder
G92 E0
G1 F200 E3
G92 E0
G92 E0
G92 E0
G1 F2400 E-6.5
;LAYER_COUNT:240
;LAYER:0
M107
G0 F3600 X52.831 Y25.919 Z0.3
;TYPE:SKIRT
G1 F2400 E0
G1 F1800 X53.179 Y25.21 E0.0394
G1 X53.597 Y24.539 E0.07884
G1 X54.08 Y23.915 E0.11821
G1 X54.623 Y23.342 E0.1576
G1 X55.222 Y22.827 E0.19701
G1 X55.87 Y22.376 E0.2364
G1 X56.561 Y21.992 E0.27583
G1 X57.286 Y21.68 E0.31521
G1 X58.039 Y21.443 E0.3546
G1 X58.706 Y21.301 E0.38862
G1 X59.425 Y21.18 E0.42499
G1 X59.775 Y21.124 E0.44268
G1 X60.558 Y21.02 E0.48209
G1 X61.348 Y20.996 E0.52152
G1 X62.12 Y21.05 E0.56013
G1 X62.381 Y21.044 E0.57315
G1 X63.168 Y21.106 E0.61254
G1 X63.945 Y21.248 E0.65194
G1 X64.703 Y21.467 E0.69131
G1 X65.262 Y21.692 E0.72137
G1 X65.473 Y21.483 E0.73619
G1 X66.087 Y20.986 E0.7756
G1 X66.749 Y20.554 E0.81503
G1 X67.45 Y20.192 E0.85439
G1 X68.185 Y19.902 E0.89382
G1 X68.945 Y19.688 E0.93321
G1 X69.723 Y19.552 E0.97261
G1 X70.643 Y19.493 E1.0186
G1 X71.557 Y19.489 E1.0642
G1 X134.583 Y19.489 E4.20858
G1 X135.372 Y19.529 E4.248
G1 X136.152 Y19.648 E4.28736
G1 X136.917 Y19.846 E4.32678
G1 X137.657 Y20.12 E4.36615
G1 X138.298 Y20.435 E4.40179
G1 X138.562 Y20.288 E4.41686
G1 X139.287 Y19.976 E4.45624
G1 X140.04 Y19.739 E4.49562
G1 X140.814 Y19.58 E4.53504
G1 X141.599 Y19.499 E4.57442
G1 X142.001 Y19.489 E4.59448
G1 X199.648 Y19.489 E7.4705
G1 X200.437 Y19.529 E7.50991
G1 X201.217 Y19.648 E7.54928
G1 X201.982 Y19.846 E7.5887
G1 X202.722 Y20.12 E7.62807
G1 X203.067 Y20.289 E7.64723
G1 X203.675 Y19.886 E7.68363
G1 X204.374 Y19.518 E7.72304
G1 X205.106 Y19.222 E7.76243
G1 X205.865 Y19.002 E7.80185
G1 X206.642 Y18.86 E7.84126
G1 X207.655 Y18.794 E7.89191
G1 X210.695 Y18.794 E8.04357
G1 X211.484 Y18.834 E8.08299
G1 X212.264 Y18.953 E8.12235
G1 X213.029 Y19.151 E8.16178
G1 X213.769 Y19.425 E8.20114
G1 X214.478 Y19.773 E8.24055
G1 X215.149 Y20.191 E8.27999
G1 X215.773 Y20.674 E8.31936
G1 X216.346 Y21.217 E8.35874
G1 X216.861 Y21.816 E8.39815
G1 X217.312 Y22.464 E8.43754
G1 X217.696 Y23.155 E8.47698
G1 X218.008 Y23.88 E8.51636
G1 X218.245 Y24.633 E8.55574
G1 X218.404 Y25.407 E8.59516
G1 X218.485 Y26.192 E8.63453
G1 X218.495 Y26.594 E8.6546
G1 X218.495 Y29.684 E8.80876
G1 X218.455 Y30.473 E8.84817
G1 X218.336 Y31.253 E8.88754
G1 X218.138 Y32.018 E8.92696
G1 X217.864 Y32.758 E8.96633
G1 X217.516 Y33.467 E9.00573
G1 X217.098 Y34.138 E9.04517
G1 X216.772 Y34.559 E9.07174
G1 X216.994 Y34.955 E9.09438
G1 X217.307 Y35.68 E9.13378
G1 X217.546 Y36.433 E9.1732
G1 X217.707 Y37.206 E9.21259
G1 X217.789 Y37.991 E9.25197
G1 X217.8 Y38.409 E9.27283
G1 X217.8 Y135.173 E14.1004
G1 X217.76 Y135.962 E14.13982
G1 X217.641 Y136.742 E14.17918
G1 X217.443 Y137.507 E14.2186
G1 X217.169 Y138.247 E14.25797
G1 X216.821 Y138.956 E14.29738
G1 X216.712 Y139.131 E14.30766
G1 X216.861 Y139.305 E14.31909
G1 X217.312 Y139.953 E14.35848
G1 X217.696 Y140.644 E14.39792
G1 X218.008 Y141.369 E14.4373
G1 X218.245 Y142.122 E14.47668
G1 X218.404 Y142.896 E14.5161
G1 X218.485 Y143.681 E14.55547
G1 X218.495 Y144.083 E14.57554
G1 X218.495 Y147.171 E14.7296
G1 X218.455 Y147.96 E14.76901
G1 X218.336 Y148.74 E14.80838
G1 X218.138 Y149.505 E14.8478
G1 X217.864 Y150.245 E14.88717
G1 X217.516 Y150.954 E14.92657
G1 X217.098 Y151.625 E14.96601
G1 X216.615 Y152.249 E15.00538
G1 X216.072 Y152.822 E15.04476
G1 X215.473 Y153.337 E15.08417
G1 X214.825 Y153.788 E15.12356
G1 X214.134 Y154.172 E15.163
G1 X213.409 Y154.484 E15.20238
G1 X212.656 Y154.721 E15.24176
G1 X211.882 Y154.88 E15.28119
G1 X211.097 Y154.961 E15.32056
G1 X210.695 Y154.971 E15.34062
G1 X207.661 Y154.971 E15.49199
G1 X206.872 Y154.931 E15.5314
G1 X206.092 Y154.812 E15.57076
G1 X205.327 Y154.614 E15.61019
G1 X204.587 Y154.34 E15.64956
G1 X203.878 Y153.992 E15.68896
G1 X203.207 Y153.574 E15.7284
G1 X203.063 Y153.462 E15.7375
G1 X202.984 Y153.505 E15.74199
G1 X202.256 Y153.811 E15.78139
G1 X201.501 Y154.041 E15.82076
G1 X200.726 Y154.195 E15.86018
G1 X199.602 Y154.276 E15.91641
G1 X142.001 Y154.277 E18.79013
G1 X141.212 Y154.237 E18.82955
G1 X140.432 Y154.118 E18.86891
G1 X139.667 Y153.92 E18.90833
G1 X138.927 Y153.646 E18.9477
G1 X138.286 Y153.331 E18.98333
G1 X138.022 Y153.478 E18.99841
G1 X137.297 Y153.79 E19.03779
G1 X136.544 Y154.027 E19.07717
G1 X135.77 Y154.186 E19.11659
G1 X134.985 Y154.267 E19.15596
G1 X134.583 Y154.277 E19.17603
G1 X71.45 Y154.277 E22.32574
G1 X70.656 Y154.274 E22.36536
G1 X69.867 Y154.231 E22.40478
G1 X69.087 Y154.109 E22.44417
G1 X68.323 Y153.908 E22.48358
G1 X67.584 Y153.631 E22.52295
G1 X66.876 Y153.281 E22.56236
G1 X66.207 Y152.861 E22.60177
G1 X65.584 Y152.375 E22.64119
G1 X65.231 Y152.037 E22.66557
G1 X64.948 Y152.167 E22.68111
G1 X64.201 Y152.424 E22.72052
G1 X63.432 Y152.604 E22.75992
G1 X62.649 Y152.706 E22.79931
G1 X61.85 Y152.769 E22.8393
G1 X61.061 Y152.784 E22.87867
G1 X59.972 Y152.673 E22.93328
G1 X58.668 Y152.447 E22.99931
G1 X57.898 Y152.273 E23.03869
G1 X57.149 Y152.022 E23.0781
G1 X56.43 Y151.697 E23.11747
G1 X55.747 Y151.3 E23.15688
G1 X55.107 Y150.837 E23.19629
G1 X54.518 Y150.311 E23.23569
G1 X53.985 Y149.728 E23.2751
G1 X53.514 Y149.095 E23.31446
G1 X53.109 Y148.417 E23.35386
G1 X52.775 Y147.701 E23.39328
G1 X52.515 Y146.955 E23.43269
G1 X52.331 Y146.187 E23.47209
G1 X52.227 Y145.405 E23.51145
G1 X52.2 Y144.762 E23.54356
G1 X52.2 Y140.001 E23.78109
G1 X52.237 Y139.245 E23.81885
G1 X52.237 Y34.719 E29.03367
G1 X52.2 Y33.957 E29.07173
G1 X52.2 Y28.993 E29.31939
G1 X52.24 Y28.204 E29.3588
G1 X52.359 Y27.424 E29.39817
G1 X52.557 Y26.659 E29.43759
G1 X52.831 Y25.919 E29.47696
G0 F3600 X53.231 Y26.003
G1 F1800 X53.578 Y25.317 E29.51531
G1 X53.994 Y24.67 E29.55369
G1 X54.475 Y24.07 E29.59205
G1 X55.016 Y23.523 E29.63044
G1 X55.611 Y23.035 E29.66883
G1 X56.253 Y22.612 E29.70718
G1 X56.936 Y22.257 E29.74559
G1 X57.651 Y21.976 E29.78391
G1 X58.393 Y21.77 E29.82233
G1 X58.772 Y21.696 E29.8416
G1 X59.491 Y21.575 E29.87797
G1 X59.848 Y21.517 E29.89602
G1 X60.611 Y21.417 E29.93441
G1 X61.38 Y21.396 E29.97279
G1 X62.091 Y21.452 E30.00837
G1 X62.449 Y21.447 E30.02623
G1 X63.215 Y21.517 E30.06461
G1 X63.97 Y21.666 E30.103
G1 X64.705 Y21.892 E30.14137
G1 X65.343 Y22.164 E30.17597
G1 X65.906 Y21.636 E30.21448
G1 X66.519 Y21.172 E30.25283
G1 X67.177 Y20.773 E30.29122
G1 X67.873 Y20.445 E30.32961
G1 X68.598 Y20.191 E30.36794
G1 X69.347 Y20.014 E30.40633
G1 X70.11 Y19.915 E30.44472
G1 X70.645 Y19.893 E30.47143
G1 X71.559 Y19.889 E30.51703
G1 X134.583 Y19.889 E33.66131
G1 X135.351 Y19.929 E33.69968
G1 X136.111 Y20.048 E33.73806
G1 X136.854 Y20.246 E33.77642
G1 X137.573 Y20.52 E33.81481
G1 X138.259 Y20.867 E33.85316
G1 X138.292 Y20.888 E33.85511
G1 X138.937 Y20.553 E33.89137
G1 X139.652 Y20.272 E33.9297
G1 X140.394 Y20.066 E33.96812
G1 X141.152 Y19.938 E34.00647
G1 X142.001 Y19.889 E34.0489
G1 X199.648 Y19.889 E36.92492
G1 X200.416 Y19.929 E36.96329
G1 X201.176 Y20.048 E37.00167
G1 X201.919 Y20.246 E37.04003
G1 X202.638 Y20.52 E37.07842
G1 X203.116 Y20.762 E37.10515
G1 X203.385 Y20.55 E37.12223
G1 X204.035 Y20.14 E37.16057
G1 X204.725 Y19.799 E37.19897
G1 X205.446 Y19.531 E37.23735
G1 X206.191 Y19.34 E37.27572
G1 X206.952 Y19.227 E37.3141
G1 X207.655 Y19.194 E37.34921
G1 X210.695 Y19.194 E37.50088
G1 X211.463 Y19.234 E37.53925
G1 X212.223 Y19.353 E37.57762
G1 X212.966 Y19.551 E37.61599
G1 X213.685 Y19.825 E37.65437
G1 X214.371 Y20.172 E37.69273
G1 X215.018 Y20.588 E37.7311
G1 X215.618 Y21.069 E37.76947
G1 X216.165 Y21.61 E37.80785
G1 X216.653 Y22.205 E37.84624
G1 X217.076 Y22.847 E37.8846
G1 X217.431 Y23.53 E37.923
G1 X217.712 Y24.245 E37.96133
G1 X217.918 Y24.987 E37.99975
G1 X218.046 Y25.745 E38.0381
G1 X218.095 Y26.594 E38.08053
G1 X218.095 Y29.684 E38.23469
G1 X218.055 Y30.452 E38.27306
G1 X217.936 Y31.212 E38.31144
G1 X217.738 Y31.955 E38.3498
G1 X217.464 Y32.674 E38.38819
G1 X217.117 Y33.36 E38.42654
G1 X216.701 Y34.007 E38.46492
G1 X216.289 Y34.521 E38.49778
G1 X216.374 Y34.649 E38.50545
G1 X216.73 Y35.331 E38.54383
G1 X217.013 Y36.046 E38.58219
G1 X217.22 Y36.787 E38.62058
G1 X217.349 Y37.545 E38.65894
G1 X217.4 Y38.409 E38.70212
G1 X217.4 Y135.173 E43.52969
G1 X217.36 Y135.941 E43.56806
G1 X217.241 Y136.701 E43.60644
G1 X217.043 Y137.444 E43.6448
G1 X216.769 Y138.163 E43.68319
G1 X216.422 Y138.849 E43.72154
G1 X216.219 Y139.165 E43.74028
G1 X216.653 Y139.694 E43.77442
G1 X217.076 Y140.336 E43.81277
G1 X217.431 Y141.019 E43.85118
G1 X217.712 Y141.734 E43.8895
G1 X217.918 Y142.476 E43.92792
G1 X218.046 Y143.234 E43.96627
G1 X218.095 Y144.083 E44.0087
G1 X218.095 Y147.171 E44.16276
G1 X218.055 Y147.939 E44.20113
G1 X217.936 Y148.699 E44.23951
G1 X217.738 Y149.442 E44.27787
G1 X217.464 Y150.161 E44.31626
G1 X217.117 Y150.847 E44.35461
G1 X216.701 Y151.494 E44.39299
G1 X216.22 Y152.094 E44.43135
G1 X215.679 Y152.641 E44.46974
G1 X215.084 Y153.129 E44.50813
G1 X214.442 Y153.552 E44.54649
G1 X213.759 Y153.907 E44.58489
G1 X213.044 Y154.188 E44.62322
G1 X212.302 Y154.394 E44.66163
G1 X211.544 Y154.522 E44.69999
G1 X210.695 Y154.571 E44.74241
G1 X207.661 Y154.571 E44.89378
G1 X206.893 Y154.531 E44.93215
G1 X206.133 Y154.412 E44.97053
G1 X205.39 Y154.214 E45.00889
G1 X204.671 Y153.94 E45.04728
G1 X203.985 Y153.593 E45.08563
G1 X203.338 Y153.177 E45.12401
G1 X203.102 Y152.988 E45.13909
G1 X202.574 Y153.253 E45.16856
G1 X201.855 Y153.525 E45.20692
G1 X201.111 Y153.721 E45.2453
G1 X200.351 Y153.838 E45.28366
G1 X199.602 Y153.876 E45.32108
G1 X142.001 Y153.877 E48.19481
G1 X141.233 Y153.837 E48.23317
G1 X140.473 Y153.718 E48.27155
G1 X139.73 Y153.52 E48.30991
G1 X139.011 Y153.246 E48.3483
G1 X138.325 Y152.899 E48.38665
G1 X138.292 Y152.878 E48.38861
G1 X137.647 Y153.213 E48.42487
G1 X136.932 Y153.494 E48.46319
G1 X136.19 Y153.7 E48.50161
G1 X135.432 Y153.828 E48.53997
G1 X134.583 Y153.877 E48.58239
G1 X71.451 Y153.877 E51.73206
G1 X70.657 Y153.874 E51.77167
G1 X69.889 Y153.831 E51.81005
G1 X69.13 Y153.709 E51.8484
G1 X68.387 Y153.508 E51.8868
G1 X67.669 Y153.232 E51.92518
G1 X66.984 Y152.882 E51.96356
G1 X66.339 Y152.463 E52.00193
G1 X65.741 Y151.98 E52.04028
G1 X65.32 Y151.56 E52.06995
G1 X64.649 Y151.854 E52.1065
G1 X63.917 Y152.088 E52.14484
G1 X63.164 Y152.244 E52.1832
G1 X62.398 Y152.321 E52.22161
G1 X62.243 Y152.321 E52.22934
G1 X61.662 Y152.379 E52.25847
G1 X60.893 Y152.377 E52.29684
G1 X60.04 Y152.279 E52.33968
G1 X58.736 Y152.053 E52.4057
G1 X57.986 Y151.883 E52.44407
G1 X57.258 Y151.635 E52.48244
G1 X56.559 Y151.314 E52.52081
G1 X55.898 Y150.921 E52.55918
G1 X55.281 Y150.462 E52.59755
G1 X54.715 Y149.941 E52.63593
G1 X54.206 Y149.365 E52.67428
G1 X53.759 Y148.738 E52.71269
G1 X53.38 Y148.069 E52.75105
G1 X53.073 Y147.364 E52.78941
G1 X52.84 Y146.631 E52.82779
G1 X52.685 Y145.878 E52.86614
G1 X52.6 Y144.762 E52.92198
G1 X52.6 Y140.001 E53.15951
G1 X52.633 Y139.304 E53.19432
G1 X52.637 Y139.262 E53.19643
G1 X52.637 Y34.692 E58.41344
G1 X52.634 Y34.661 E58.415
G1 X52.6 Y33.957 E58.45016
G1 X52.6 Y28.993 E58.69782
G1 X52.64 Y28.225 E58.73618
G1 X52.759 Y27.465 E58.77456
G1 X52.957 Y26.722 E58.81292
G1 X53.231 Y26.003 E58.85131
G0 F3600 X53.63 Y26.09
G1 F1800 X53.977 Y25.427 E58.88865
G1 X54.392 Y24.804 E58.92599
G1 X54.871 Y24.23 E58.96329
G1 X55.408 Y23.709 E59.00062
G1 X55.998 Y23.25 E59.03791
G1 X56.634 Y22.855 E59.07526
G1 X57.308 Y22.531 E59.11257
G1 X58.013 Y22.281 E59.14989
G1 X58.838 Y22.09 E59.19214
G1 X59.557 Y21.969 E59.22852
G1 X59.921 Y21.91 E59.24691
G1 X60.663 Y21.814 E59.28424
G1 X61.41 Y21.797 E59.32152
G1 X62.043 Y21.851 E59.35321
G1 X62.516 Y21.85 E59.37681
G1 X63.26 Y21.928 E59.41413
G1 X63.991 Y22.085 E59.45143
G1 X64.702 Y22.319 E59.48878
G1 X65.383 Y22.627 E59.52607
G1 X65.441 Y22.661 E59.52942
G1 X65.777 Y22.294 E59.55424
G1 X66.339 Y21.799 E59.59161
G1 X66.95 Y21.368 E59.62891
G1 X67.603 Y21.004 E59.66621
G1 X68.292 Y20.712 E59.70354
G1 X69.008 Y20.495 E59.74087
G1 X69.743 Y20.356 E59.77819
G1 X70.646 Y20.293 E59.82335
G1 X71.56 Y20.289 E59.86895
G1 X134.583 Y20.289 E63.01318
G1 X135.33 Y20.329 E63.0505
G1 X136.068 Y20.448 E63.0878
G1 X136.79 Y20.646 E63.12515
G1 X137.486 Y20.919 E63.16245
G1 X138.149 Y21.266 E63.19978
G1 X138.294 Y21.363 E63.20848
G1 X138.635 Y21.151 E63.22851
G1 X139.309 Y20.827 E63.26582
G1 X140.014 Y20.577 E63.30314
G1 X140.742 Y20.403 E63.34049
G1 X141.484 Y20.308 E63.37781
G1 X142.001 Y20.289 E63.40362
G1 X199.648 Y20.289 E66.27964
G1 X200.395 Y20.329 E66.31696
G1 X201.133 Y20.448 E66.35425
G1 X201.855 Y20.646 E66.3916
G1 X202.551 Y20.919 E66.4289
G1 X203.153 Y21.234 E66.4628
G1 X203.751 Y20.784 E66.50014
G1 X204.393 Y20.4 E66.53746
G1 X205.073 Y20.088 E66.57479
G1 X205.782 Y19.849 E66.61211
G1 X206.512 Y19.688 E66.64941
G1 X207.256 Y19.605 E66.68676
G1 X207.655 Y19.594 E66.70667
G1 X210.695 Y19.594 E66.85834
G1 X211.442 Y19.634 E66.89566
G1 X212.18 Y19.753 E66.93295
G1 X212.902 Y19.951 E66.9703
G1 X213.598 Y20.224 E67.0076
G1 X214.261 Y20.571 E67.04494
G1 X214.884 Y20.986 E67.08228
G1 X215.458 Y21.465 E67.11958
G1 X215.979 Y22.002 E67.15691
G1 X216.438 Y22.592 E67.1942
G1 X216.833 Y23.228 E67.23156
G1 X217.157 Y23.902 E67.26886
G1 X217.407 Y24.607 E67.30618
G1 X217.581 Y25.335 E67.34353
G1 X217.676 Y26.077 E67.38085
G1 X217.695 Y26.594 E67.40666
G1 X217.695 Y29.684 E67.56082
G1 X217.655 Y30.431 E67.59814
G1 X217.536 Y31.169 E67.63543
G1 X217.338 Y31.891 E67.67278
G1 X217.065 Y32.587 E67.71008
G1 X216.718 Y33.25 E67.74742
G1 X216.303 Y33.873 E67.78476
G1 X215.824 Y34.447 E67.82206
G1 X215.788 Y34.482 E67.82457
G1 X216.131 Y35.031 E67.85686
G1 X216.456 Y35.704 E67.89415
G1 X216.708 Y36.409 E67.9315
G1 X216.883 Y37.136 E67.96881
G1 X216.98 Y37.878 E68.00614
G1 X217 Y38.409 E68.03265
G1 X217 Y135.173 E72.86023
G1 X216.96 Y135.92 E72.89755
G1 X216.841 Y136.658 E72.93484
G1 X216.643 Y137.38 E72.97219
G1 X216.37 Y138.076 E73.00949
G1 X216.023 Y138.739 E73.04683
G1 X215.708 Y139.212 E73.07518
G1 X215.979 Y139.491 E73.09458
G1 X216.438 Y140.081 E73.13188
G1 X216.833 Y140.717 E73.16923
G1 X217.157 Y141.391 E73.20654
G1 X217.407 Y142.096 E73.24386
G1 X217.581 Y142.824 E73.2812
G1 X217.676 Y143.566 E73.31852
G1 X217.695 Y144.083 E73.34433
G1 X217.695 Y147.171 E73.49839
G1 X217.655 Y147.918 E73.53571
G1 X217.536 Y148.656 E73.57301
G1 X217.338 Y149.378 E73.61036
G1 X217.065 Y150.074 E73.64766
G1 X216.718 Y150.737 E73.68499
G1 X216.303 Y151.36 E73.72234
G1 X215.824 Y151.934 E73.75964
G1 X215.287 Y152.455 E73.79696
G1 X214.697 Y152.914 E73.83426
G1 X214.061 Y153.309 E73.87161
G1 X213.387 Y153.633 E73.90892
G1 X212.682 Y153.883 E73.94624
G1 X211.954 Y154.057 E73.98358
G1 X211.212 Y154.152 E74.0209
G1 X210.695 Y154.171 E74.04671
G1 X207.661 Y154.171 E74.19808
G1 X206.914 Y154.131 E74.2354
G1 X206.176 Y154.012 E74.2727
G1 X205.454 Y153.814 E74.31005
G1 X204.758 Y153.541 E74.34735
G1 X204.095 Y153.194 E74.38468
G1 X203.472 Y152.779 E74.42203
G1 X203.142 Y152.503 E74.44349
G1 X202.848 Y152.678 E74.46056
G1 X202.167 Y152.989 E74.49791
G1 X201.458 Y153.226 E74.5352
G1 X200.727 Y153.385 E74.57253
G1 X199.983 Y153.466 E74.60986
G1 X199.602 Y153.476 E74.62888
G1 X142.001 Y153.477 E77.5026
G1 X141.254 Y153.437 E77.53993
G1 X140.516 Y153.318 E77.57722
G1 X139.794 Y153.12 E77.61457
G1 X139.098 Y152.847 E77.65187
G1 X138.435 Y152.5 E77.6892
G1 X138.29 Y152.403 E77.69791
G1 X137.949 Y152.615 E77.71794
G1 X137.275 Y152.939 E77.75525
G1 X136.57 Y153.189 E77.79257
G1 X135.842 Y153.363 E77.82991
G1 X135.1 Y153.458 E77.86723
G1 X134.583 Y153.477 E77.89304
G1 X71.453 Y153.477 E81.04261
G1 X70.659 Y153.474 E81.08222
G1 X69.912 Y153.431 E81.11955
G1 X69.174 Y153.309 E81.15687
G1 X68.453 Y153.109 E81.1942
G1 X67.758 Y152.833 E81.23151
G1 X67.096 Y152.484 E81.26885
G1 X66.475 Y152.067 E81.30616
G1 X65.902 Y151.585 E81.34352
G1 X65.397 Y151.06 E81.37986
G1 X65.046 Y151.251 E81.3998
G1 X64.354 Y151.536 E81.43714
G1 X63.636 Y151.745 E81.47444
G1 X62.9 Y151.877 E81.51175
