;FLAVOR:Marlin
;TIME:13465
;Filament used: 22.2031m
;Layer height: 0.3
;MINX:59.7
;MINY:29.7
;MINZ:0.3
;MAXX:210.3
;MAXY:175.3
;MAXZ:34.8
;Generated with Cura_SteamEngine 4.8.0
M140 S60
M105
M190 S60
M104 S210
M105
M109 S210
M82 ;absolute extrusion mode
G28 ;Home
G1 Z15.0 F6000 ;Move the platform down 15mm
;Prime the extruder
G92 E0
G1 F200 E3
G92 E0
G92 E0
G92 E0
G1 F2400 E-6.5
;LAYER_COUNT:116
;LAYER:0
M107
G0 F3600 X60.679 Y33.717 Z0.3
;TYPE:SKIRT
G1 F2400 E0
G1 F1800 X61.097 Y33.046 E0.03944
G1 X61.58 Y32.422 E0.07881
G1 X62.123 Y31.849 E0.11819
G1 X62.722 Y31.334 E0.1576
G1 X63.37 Y30.883 E0.19699
G1 X64.061 Y30.499 E0.23643
G1 X64.786 Y30.187 E0.27581
G1 X65.539 Y29.95 E0.31519
G1 X66.313 Y29.791 E0.35461
G1 X67.098 Y29.71 E0.39399
G1 X67.5 Y29.7 E0.41405
G1 X202.5 Y29.7 E7.14923
G1 X203.289 Y29.74 E7.18864
G1 X204.069 Y29.859 E7.228
G1 X204.834 Y30.057 E7.26743
G1 X205.574 Y30.331 E7.3068
G1 X206.283 Y30.679 E7.3462
G1 X206.954 Y31.097 E7.38564
G1 X207.578 Y31.58 E7.42501
G1 X208.151 Y32.123 E7.46439
G1 X208.666 Y32.722 E7.5038
G1 X209.117 Y33.37 E7.54319
G1 X209.501 Y34.061 E7.58263
G1 X209.813 Y34.786 E7.62201
G1 X210.05 Y35.539 E7.66139
G1 X210.209 Y36.313 E7.70081
G1 X210.29 Y37.098 E7.74019
G1 X210.3 Y37.5 E7.76025
G1 X210.3 Y167.5 E14.24597
G1 X210.26 Y168.289 E14.28539
G1 X210.141 Y169.069 E14.32475
G1 X209.943 Y169.834 E14.36418
G1 X209.669 Y170.574 E14.40354
G1 X209.321 Y171.283 E14.44295
G1 X208.903 Y171.954 E14.48239
G1 X208.42 Y172.578 E14.52176
G1 X207.877 Y173.151 E14.56114
G1 X207.278 Y173.666 E14.60055
G1 X206.63 Y174.117 E14.63994
G1 X205.939 Y174.501 E14.67938
G1 X205.214 Y174.813 E14.71876
G1 X204.461 Y175.05 E14.75814
G1 X203.687 Y175.209 E14.79756
G1 X202.902 Y175.29 E14.83693
G1 X202.5 Y175.3 E14.857
G1 X67.5 Y175.3 E21.59217
G1 X66.711 Y175.26 E21.63159
G1 X65.931 Y175.141 E21.67095
G1 X65.166 Y174.943 E21.71038
G1 X64.426 Y174.669 E21.74974
G1 X63.717 Y174.321 E21.78915
G1 X63.046 Y173.903 E21.82859
G1 X62.422 Y173.42 E21.86796
G1 X61.849 Y172.877 E21.90734
G1 X61.334 Y172.278 E21.94675
G1 X60.883 Y171.63 E21.98614
G1 X60.499 Y170.939 E22.02558
G1 X60.187 Y170.214 E22.06496
G1 X59.95 Y169.461 E22.10434
G1 X59.791 Y168.687 E22.14376
G1 X59.71 Y167.902 E22.18313
G1 X59.7 Y167.5 E22.2032
G1 X59.7 Y37.5 E28.68892
G1 X59.74 Y36.711 E28.72834
G1 X59.859 Y35.931 E28.7677
G1 X60.057 Y35.166 E28.80712
G1 X60.331 Y34.426 E28.84649
G1 X60.679 Y33.717 E28.8859
G0 F3600 X61.078 Y33.824
G1 F1800 X61.494 Y33.177 E28.92427
G1 X61.975 Y32.577 E28.96264
G1 X62.516 Y32.03 E29.00102
G1 X63.111 Y31.542 E29.03941
G1 X63.753 Y31.119 E29.07777
G1 X64.436 Y30.764 E29.11617
G1 X65.151 Y30.483 E29.1545
G1 X65.893 Y30.277 E29.19292
G1 X66.651 Y30.149 E29.23127
G1 X67.5 Y30.1 E29.2737
G1 X202.5 Y30.1 E36.00887
G1 X203.268 Y30.14 E36.04724
G1 X204.028 Y30.259 E36.08562
G1 X204.771 Y30.457 E36.12398
G1 X205.49 Y30.731 E36.16237
G1 X206.176 Y31.078 E36.20072
G1 X206.823 Y31.494 E36.2391
G1 X207.423 Y31.975 E36.27746
G1 X207.97 Y32.516 E36.31585
G1 X208.458 Y33.111 E36.35424
G1 X208.881 Y33.753 E36.3926
G1 X209.236 Y34.436 E36.431
G1 X209.517 Y35.151 E36.46933
G1 X209.723 Y35.893 E36.50774
G1 X209.851 Y36.651 E36.5461
G1 X209.9 Y37.5 E36.58852
G1 X209.9 Y167.5 E43.07425
G1 X209.86 Y168.268 E43.11262
G1 X209.741 Y169.028 E43.151
G1 X209.543 Y169.771 E43.18936
G1 X209.269 Y170.49 E43.22775
G1 X208.922 Y171.176 E43.2661
G1 X208.506 Y171.823 E43.30448
G1 X208.025 Y172.423 E43.34284
G1 X207.484 Y172.97 E43.38122
G1 X206.889 Y173.458 E43.41962
G1 X206.247 Y173.881 E43.45797
G1 X205.564 Y174.236 E43.49638
G1 X204.849 Y174.517 E43.5347
G1 X204.107 Y174.723 E43.57312
G1 X203.349 Y174.851 E43.61147
G1 X202.5 Y174.9 E43.6539
G1 X67.5 Y174.9 E50.38908
G1 X66.732 Y174.86 E50.42745
G1 X65.972 Y174.741 E50.46582
G1 X65.229 Y174.543 E50.50419
G1 X64.51 Y174.269 E50.54257
G1 X63.824 Y173.922 E50.58093
G1 X63.177 Y173.506 E50.6193
G1 X62.577 Y173.025 E50.65767
G1 X62.03 Y172.484 E50.69605
G1 X61.542 Y171.889 E50.73444
G1 X61.119 Y171.247 E50.7728
G1 X60.764 Y170.564 E50.8112
G1 X60.483 Y169.849 E50.84953
G1 X60.277 Y169.107 E50.88795
G1 X60.149 Y168.349 E50.9263
G1 X60.1 Y167.5 E50.96873
G1 X60.1 Y37.5 E57.45446
G1 X60.14 Y36.732 E57.49282
G1 X60.259 Y35.972 E57.5312
G1 X60.457 Y35.229 E57.56956
G1 X60.731 Y34.51 E57.60795
G1 X61.078 Y33.824 E57.64631
G0 F3600 X61.477 Y33.934
G1 F1800 X61.892 Y33.311 E57.68365
G1 X62.371 Y32.737 E57.72095
G1 X62.908 Y32.216 E57.75828
G1 X63.498 Y31.757 E57.79557
G1 X64.134 Y31.362 E57.83292
G1 X64.808 Y31.038 E57.87023
G1 X65.513 Y30.788 E57.90755
G1 X66.241 Y30.614 E57.94489
G1 X66.983 Y30.519 E57.98222
G1 X67.5 Y30.5 E58.00803
G1 X202.5 Y30.5 E64.7432
G1 X203.247 Y30.54 E64.78052
G1 X203.985 Y30.659 E64.81782
G1 X204.707 Y30.857 E64.85517
G1 X205.403 Y31.13 E64.89247
G1 X206.066 Y31.477 E64.9298
G1 X206.689 Y31.892 E64.96715
G1 X207.263 Y32.371 E65.00445
G1 X207.784 Y32.908 E65.04178
G1 X208.243 Y33.498 E65.07907
G1 X208.638 Y34.134 E65.11642
G1 X208.962 Y34.808 E65.15373
G1 X209.212 Y35.513 E65.19105
G1 X209.386 Y36.241 E65.22839
G1 X209.481 Y36.983 E65.26571
G1 X209.5 Y37.5 E65.29152
G1 X209.5 Y167.5 E71.77725
G1 X209.46 Y168.247 E71.81457
G1 X209.341 Y168.985 E71.85187
G1 X209.143 Y169.707 E71.88922
G1 X208.87 Y170.403 E71.92652
G1 X208.523 Y171.066 E71.96385
G1 X208.108 Y171.689 E72.0012
G1 X207.629 Y172.263 E72.03849
G1 X207.092 Y172.784 E72.07582
G1 X206.502 Y173.243 E72.11312
G1 X205.866 Y173.638 E72.15047
G1 X205.192 Y173.962 E72.18778
G1 X204.487 Y174.212 E72.2251
G1 X203.759 Y174.386 E72.26244
G1 X203.017 Y174.481 E72.29976
G1 X202.5 Y174.5 E72.32557
G1 X67.5 Y174.5 E79.06075
G1 X66.753 Y174.46 E79.09807
G1 X66.015 Y174.341 E79.13536
G1 X65.293 Y174.143 E79.17271
G1 X64.597 Y173.87 E79.21001
G1 X63.934 Y173.523 E79.24735
G1 X63.311 Y173.108 E79.28469
G1 X62.737 Y172.629 E79.32199
G1 X62.216 Y172.092 E79.35932
G1 X61.757 Y171.502 E79.39661
G1 X61.362 Y170.866 E79.43396
G1 X61.038 Y170.192 E79.47127
G1 X60.788 Y169.487 E79.50859
G1 X60.614 Y168.759 E79.54594
G1 X60.519 Y168.017 E79.58326
G1 X60.5 Y167.5 E79.60907
G1 X60.5 Y37.5 E86.09479
G1 X60.54 Y36.753 E86.13211
G1 X60.659 Y36.015 E86.16941
G1 X60.857 Y35.293 E86.20676
G1 X61.13 Y34.597 E86.24406
G1 X61.477 Y33.934 E86.28139
G0 F3600 X61.875 Y34.047
G1 F1800 X62.289 Y33.45 E86.31764
G1 X62.765 Y32.902 E86.35385
G1 X63.299 Y32.409 E86.39011
G1 X63.884 Y31.979 E86.42633
G1 X64.513 Y31.615 E86.46259
G1 X65.178 Y31.322 E86.49884
G1 X65.871 Y31.104 E86.53509
G1 X66.583 Y30.964 E86.57129
G1 X67.5 Y30.9 E86.61715
G1 X202.5 Y30.9 E93.35233
G1 X203.225 Y30.94 E93.38855
G1 X203.942 Y31.059 E93.42481
G1 X204.641 Y31.257 E93.46106
G1 X205.314 Y31.53 E93.49729
G1 X205.953 Y31.875 E93.53352
G1 X206.55 Y32.289 E93.56977
G1 X207.098 Y32.765 E93.60598
G1 X207.591 Y33.299 E93.64224
G1 X208.021 Y33.884 E93.67846
G1 X208.385 Y34.513 E93.71472
G1 X208.678 Y35.178 E93.75097
G1 X208.896 Y35.871 E93.78722
G1 X209.036 Y36.583 E93.82342
G1 X209.1 Y37.5 E93.86928
G1 X209.1 Y167.5 E100.35501
G1 X209.06 Y168.225 E100.39123
G1 X208.941 Y168.942 E100.42749
G1 X208.743 Y169.641 E100.46374
G1 X208.47 Y170.314 E100.49997
G1 X208.125 Y170.953 E100.5362
G1 X207.711 Y171.55 E100.57245
G1 X207.235 Y172.098 E100.60866
G1 X206.701 Y172.591 E100.64492
G1 X206.116 Y173.021 E100.68114
G1 X205.487 Y173.385 E100.7174
G1 X204.822 Y173.678 E100.75365
G1 X204.129 Y173.896 E100.7899
G1 X203.417 Y174.036 E100.8261
G1 X202.5 Y174.1 E100.87196
G1 X67.5 Y174.1 E107.60714
G1 X66.775 Y174.06 E107.64336
G1 X66.058 Y173.941 E107.67962
G1 X65.359 Y173.743 E107.71587
G1 X64.686 Y173.47 E107.7521
G1 X64.047 Y173.125 E107.78833
G1 X63.45 Y172.711 E107.82458
G1 X62.902 Y172.235 E107.86079
G1 X62.409 Y171.701 E107.89705
G1 X61.979 Y171.116 E107.93327
G1 X61.615 Y170.487 E107.96953
G1 X61.322 Y169.822 E108.00578
G1 X61.104 Y169.129 E108.04203
G1 X60.964 Y168.417 E108.07823
G1 X60.9 Y167.5 E108.12409
G1 X60.9 Y37.5 E114.60982
G1 X60.94 Y36.775 E114.64604
G1 X61.059 Y36.058 E114.6823
G1 X61.257 Y35.359 E114.71855
G1 X61.53 Y34.686 E114.75478
G1 X61.875 Y34.047 E114.79101
G0 F3600 X61.929 Y34.779
G1 F1800 X62.274 Y34.165 E114.82615
G1 X62.685 Y33.594 E114.86125
G1 X63.159 Y33.073 E114.89639
G1 X63.689 Y32.609 E114.93153
G1 X64.268 Y32.209 E114.96664
G1 X64.889 Y31.877 E115.00177
G1 X65.543 Y31.617 E115.03688
G1 X66.223 Y31.433 E115.07203
G1 X66.919 Y31.327 E115.10715
G1 X67.5 Y31.3 E115.13617
G1 X202.5 Y31.3 E121.87135
G1 X203.203 Y31.34 E121.90648
G1 X203.897 Y31.459 E121.94161
G1 X204.572 Y31.657 E121.9767
G1 X205.221 Y31.929 E122.01181
G1 X205.835 Y32.274 E122.04694
G1 X206.406 Y32.685 E122.08204
G1 X206.927 Y33.159 E122.11718
G1 X207.391 Y33.689 E122.15233
G1 X207.791 Y34.268 E122.18744
G1 X208.123 Y34.889 E122.22257
G1 X208.383 Y35.543 E122.25768
G1 X208.567 Y36.223 E122.29283
G1 X208.673 Y36.919 E122.32795
G1 X208.7 Y37.5 E122.35697
G1 X208.7 Y167.5 E128.84269
G1 X208.66 Y168.203 E128.87782
G1 X208.541 Y168.897 E128.91295
G1 X208.343 Y169.572 E128.94805
G1 X208.071 Y170.221 E128.98316
G1 X207.726 Y170.835 E129.01829
G1 X207.315 Y171.406 E129.05339
G1 X206.841 Y171.927 E129.08853
G1 X206.311 Y172.391 E129.12368
G1 X205.732 Y172.791 E129.15878
G1 X205.111 Y173.123 E129.19392
G1 X204.457 Y173.383 E129.22903
G1 X203.777 Y173.567 E129.26417
G1 X203.081 Y173.673 E129.2993
G1 X202.5 Y173.7 E129.32832
G1 X67.5 Y173.7 E136.06349
G1 X66.797 Y173.66 E136.09862
G1 X66.103 Y173.541 E136.13375
G1 X65.428 Y173.343 E136.16885
G1 X64.779 Y173.071 E136.20395
G1 X64.165 Y172.726 E136.23909
G1 X63.594 Y172.315 E136.27419
G1 X63.073 Y171.841 E136.30933
G1 X62.609 Y171.311 E136.34447
G1 X62.209 Y170.732 E136.37958
G1 X61.877 Y170.111 E136.41471
G1 X61.617 Y169.457 E136.44983
G1 X61.433 Y168.777 E136.48497
G1 X61.327 Y168.081 E136.5201
G1 X61.3 Y167.5 E136.54911
G1 X61.3 Y37.5 E143.03484
G1 X61.34 Y36.797 E143.06997
G1 X61.459 Y36.103 E143.1051
G1 X61.657 Y35.428 E143.14019
G1 X61.929 Y34.779 E143.1753
G0 F3600 X62.328 Y34.874
G1 F1800 X62.672 Y34.286 E143.20929
G1 X63.082 Y33.742 E143.24327
G1 X63.553 Y33.251 E143.27722
G1 X64.078 Y32.817 E143.3112
G1 X64.65 Y32.448 E143.34516
G1 X65.262 Y32.149 E143.37914
G1 X65.904 Y31.924 E143.41308
G1 X66.569 Y31.775 E143.44708
G1 X67.5 Y31.7 E143.49368
G1 X202.5 Y31.7 E150.22886
G1 X203.18 Y31.74 E150.26284
G1 X203.85 Y31.859 E150.29679
G1 X204.502 Y32.056 E150.33077
G1 X205.126 Y32.328 E150.36473
G1 X205.714 Y32.672 E150.39872
G1 X206.258 Y33.082 E150.4327
G1 X206.749 Y33.553 E150.46665
G1 X207.183 Y34.078 E150.50063
G1 X207.552 Y34.65 E150.53459
G1 X207.851 Y35.262 E150.56857
G1 X208.076 Y35.904 E150.60251
G1 X208.225 Y36.569 E150.63651
G1 X208.3 Y37.5 E150.68311
G1 X208.3 Y167.5 E157.16884
G1 X208.26 Y168.18 E157.20282
G1 X208.141 Y168.85 E157.23677
G1 X207.944 Y169.502 E157.27075
G1 X207.672 Y170.126 E157.30471
G1 X207.328 Y170.714 E157.3387
G1 X206.918 Y171.258 E157.37269
G1 X206.447 Y171.749 E157.40663
G1 X205.922 Y172.183 E157.44061
G1 X205.35 Y172.552 E157.47457
G1 X204.738 Y172.851 E157.50855
G1 X204.096 Y173.076 E157.54249
G1 X203.431 Y173.225 E157.57649
G1 X202.5 Y173.3 E157.62309
G1 X67.5 Y173.3 E164.35827
G1 X66.82 Y173.26 E164.39225
G1 X66.15 Y173.141 E164.4262
G1 X65.498 Y172.944 E164.46018
G1 X64.874 Y172.672 E164.49414
G1 X64.286 Y172.328 E164.52813
G1 X63.742 Y171.918 E164.56212
G1 X63.251 Y171.447 E164.59606
G1 X62.817 Y170.922 E164.63004
G1 X62.448 Y170.35 E164.664
G1 X62.149 Y169.738 E164.69799
G1 X61.924 Y169.096 E164.73193
G1 X61.775 Y168.431 E164.76593
G1 X61.7 Y167.5 E164.81252
G1 X61.7 Y37.5 E171.29825
G1 X61.74 Y36.82 E171.33223
G1 X61.859 Y36.15 E171.36618
G1 X62.056 Y35.498 E171.40016
G1 X62.328 Y34.874 E171.43413
G0 F3600 X62.728 Y34.973
G1 F1800 X63.07 Y34.412 E171.4669
G1 X63.478 Y33.897 E171.49968
G1 X63.945 Y33.435 E171.53246
G1 X64.465 Y33.034 E171.56522
G1 X65.029 Y32.698 E171.59797
G1 X65.631 Y32.434 E171.63077
G1 X66.26 Y32.244 E171.66355
G1 X66.907 Y32.133 E171.6963
G1 X67.5 Y32.1 E171.72593
G1 X202.5 Y32.1 E178.46111
G1 X203.156 Y32.14 E178.49389
G1 X203.802 Y32.259 E178.52667
G1 X204.429 Y32.456 E178.55945
G1 X205.027 Y32.728 E178.59223
G1 X205.588 Y33.07 E178.62501
G1 X206.103 Y33.478 E178.65779
G1 X206.565 Y33.945 E178.69056
G1 X206.966 Y34.465 E178.72332
G1 X207.302 Y35.029 E178.75608
G1 X207.566 Y35.631 E178.78887
G1 X207.756 Y36.26 E178.82165
G1 X207.867 Y36.907 E178.8544
G1 X207.9 Y37.5 E178.88403
G1 X207.9 Y167.5 E185.36976
G1 X207.86 Y168.156 E185.40255
G1 X207.741 Y168.802 E185.43532
G1 X207.544 Y169.429 E185.46811
G1 X207.272 Y170.027 E185.50088
G1 X206.93 Y170.588 E185.53366
G1 X206.522 Y171.103 E185.56644
G1 X206.055 Y171.565 E185.59922
G1 X205.535 Y171.966 E185.63198
G1 X204.971 Y172.302 E185.66473
G1 X204.369 Y172.566 E185.69753
G1 X203.74 Y172.756 E185.73031
G1 X203.093 Y172.867 E185.76306
G1 X202.5 Y172.9 E185.79269
G1 X67.5 Y172.9 E192.52787
G1 X66.844 Y172.86 E192.56065
G1 X66.198 Y172.741 E192.59343
G1 X65.571 Y172.544 E192.62621
G1 X64.973 Y172.272 E192.65899
G1 X64.412 Y171.93 E192.69177
G1 X63.897 Y171.522 E192.72455
G1 X63.435 Y171.055 E192.75732
G1 X63.034 Y170.535 E192.79008
G1 X62.698 Y169.971 E192.82284
G1 X62.434 Y169.369 E192.85563
G1 X62.244 Y168.74 E192.88841
G1 X62.133 Y168.093 E192.92116
G1 X62.1 Y167.5 E192.95079
G1 X62.1 Y37.5 E199.43652
G1 X62.14 Y36.844 E199.46931
G1 X62.259 Y36.198 E199.50208
G1 X62.456 Y35.571 E199.53487
G1 X62.728 Y34.973 E199.56764
G0 F3600 X63.127 Y35.076
G1 F1800 X63.467 Y34.544 E199.59914
G1 X63.873 Y34.059 E199.6307
G1 X64.336 Y33.629 E199.66222
G1 X64.85 Y33.26 E199.69379
G1 X65.406 Y32.96 E199.72531
G1 X65.995 Y32.732 E199.75682
G1 X66.609 Y32.58 E199.78838
G1 X67.5 Y32.5 E199.83301
G1 X202.5 Y32.5 E206.56819
G1 X203.131 Y32.54 E206.59973
G1 X203.752 Y32.659 E206.63128
G1 X204.352 Y32.856 E206.66278
G1 X204.924 Y33.127 E206.69436
G1 X205.456 Y33.467 E206.72586
G1 X205.941 Y33.873 E206.75741
G1 X206.371 Y34.336 E206.78894
G1 X206.74 Y34.85 E206.82051
G1 X207.04 Y35.406 E206.85203
G1 X207.268 Y35.995 E206.88354
G1 X207.42 Y36.609 E206.91509
G1 X207.5 Y37.5 E206.95972
G1 X207.5 Y167.5 E213.44545
G1 X207.46 Y168.131 E213.47699
G1 X207.341 Y168.752 E213.50854
G1 X207.144 Y169.352 E213.54005
G1 X206.873 Y169.924 E213.57162
G1 X206.533 Y170.456 E213.60312
G1 X206.127 Y170.941 E213.63468
G1 X205.664 Y171.371 E213.6662
G1 X205.15 Y171.74 E213.69777
G1 X204.594 Y172.04 E213.72929
G1 X204.005 Y172.268 E213.7608
G1 X203.391 Y172.42 E213.79236
G1 X202.5 Y172.5 E213.83699
G1 X67.5 Y172.5 E220.57217
G1 X66.869 Y172.46 E220.60371
G1 X66.248 Y172.341 E220.63525
G1 X65.648 Y172.144 E220.66676
G1 X65.076 Y171.873 E220.69834
G1 X64.544 Y171.533 E220.72984
G1 X64.059 Y171.127 E220.76139
G1 X63.629 Y170.664 E220.79292
G1 X63.26 Y170.15 E220.82449
G1 X62.96 Y169.594 E220.856
G1 X62.732 Y169.005 E220.88752
G1 X62.58 Y168.391 E220.91907
G1 X62.5 Y167.5 E220.9637
G1 X62.5 Y37.5 E227.44943
G1 X62.54 Y36.869 E227.48097
G1 X62.659 Y36.248 E227.51252
G1 X62.856 Y35.648 E227.54403
G1 X63.127 Y35.076 E227.5756
G0 F3600 X63.526 Y35.184
G1 F1800 X63.865 Y34.681 E227.60587
G1 X64.267 Y34.228 E227.63608
G1 X64.725 Y33.831 E227.66632
G1 X65.232 Y33.498 E227.69658
G1 X65.778 Y33.234 E227.72684
G1 X66.354 Y33.045 E227.75708
G1 X66.95 Y32.933 E227.78734
G1 X67.5 Y32.9 E227.81483
G1 X202.5 Y32.9 E234.55001
G1 X203.105 Y32.94 E234.58026
G1 X203.699 Y33.059 E234.61048
G1 X204.273 Y33.255 E234.64074
G1 X204.816 Y33.526 E234.67102
G1 X205.319 Y33.865 E234.70128
G1 X205.772 Y34.267 E234.73149
G1 X206.169 Y34.725 E234.76173
G1 X206.502 Y35.232 E234.792
G1 X206.766 Y35.778 E234.82225
G1 X206.955 Y36.354 E234.8525
G1 X207.067 Y36.95 E234.88275
G1 X207.1 Y37.5 E234.91024
G1 X207.1 Y167.5 E241.39597
G1 X207.06 Y168.105 E241.42622
G1 X206.941 Y168.699 E241.45644
G1 X206.745 Y169.273 E241.4867
G1 X206.474 Y169.816 E241.51698
G1 X206.135 Y170.319 E241.54724
G1 X205.733 Y170.772 E241.57746
G1 X205.275 Y171.169 E241.60769
G1 X204.768 Y171.502 E241.63796
G1 X204.222 Y171.766 E241.66821
G1 X203.646 Y171.955 E241.69846
G1 X203.05 Y172.067 E241.72871
G1 X202.5 Y172.1 E241.7562
G1 X67.5 Y172.1 E248.49138
