;FLAVOR:Marlin
;TIME:8662
;Filament used: 10.3233m
;Layer height: 0.2
;MINX:43.48
;MINY:50.959
;MINZ:0.3
;MAXX:226.522
;MAXY:138.041
;MAXZ:15.9
;Generated with Cura_SteamEngine 4.8.0
M140 S60
M105
M190 S60
M104 S210
M105
M109 S210
M82 ;absolute extrusion mode
G28 ;Home
G1 Z15.0 F6000 ;Move the platform down 15mm
;Prime the extruder
G92 E0
G1 F200 E3
G92 E0
G92 E0
G92 E0
G1 F2400 E-6.5
;LAYER_COUNT:79
;LAYER:0
M107
G0 F3600 X51.068 Y105.725 Z0.3
;TYPE:SKIRT
G1 F2400 E0
G1 F1800 X104.259 Y68.479 E3.23962
G1 X104.928 Y68.059 E3.27903
G1 X105.636 Y67.709 E3.31843
G1 X106.376 Y67.433 E3.35783
G1 X107.14 Y67.233 E3.39723
G1 X107.92 Y67.111 E3.43662
G1 X108.708 Y67.068 E3.47599
G1 X109.887 Y67.154 E3.53497
G1 X110.514 Y67.248 E3.5666
G1 X110.601 Y66.664 E3.59606
G1 X110.795 Y65.899 E3.63543
G1 X111.066 Y65.157 E3.67484
G1 X111.411 Y64.447 E3.71422
G1 X111.826 Y63.775 E3.75363
G1 X112.306 Y63.148 E3.79302
G1 X112.847 Y62.573 E3.83241
G1 X113.444 Y62.056 E3.87181
G1 X113.774 Y61.812 E3.89229
G1 X124.723 Y54.144 E4.55917
G1 X125.539 Y53.644 E4.60692
G1 X127.788 Y52.45 E4.73395
G1 X128.504 Y52.115 E4.77339
G1 X129.554 Y51.772 E4.8285
G1 X131.874 Y51.192 E4.94781
G1 X132.649 Y51.039 E4.98722
G1 X133.766 Y50.959 E5.04309
G1 X136.227 Y50.959 E5.16587
G1 X137.016 Y50.999 E5.20528
G1 X138.121 Y51.192 E5.26125
G1 X140.466 Y51.779 E5.38185
G1 X141.221 Y52.01 E5.42124
G1 X142.226 Y52.455 E5.47607
G1 X144.38 Y53.597 E5.59771
G1 X145.201 Y54.1 E5.64574
G1 X149.933 Y57.415 E5.93399
G1 X150.556 Y57.9 E5.97338
G1 X151.127 Y58.446 E6.0128
G1 X151.64 Y59.046 E6.05218
G1 X152.089 Y59.696 E6.09159
G1 X152.47 Y60.387 E6.13096
G1 X152.688 Y60.897 E6.15863
G1 X153.197 Y60.921 E6.18405
G1 X153.978 Y61.038 E6.22345
G1 X154.744 Y61.234 E6.2629
G1 X155.485 Y61.505 E6.30226
G1 X156.195 Y61.851 E6.34167
G1 X156.908 Y62.295 E6.38357
G1 X218.932 Y105.725 E10.16113
G1 X219.668 Y106.309 E10.20801
G1 X221.461 Y107.918 E10.3282
G1 X222.021 Y108.474 E10.36757
G1 X222.7 Y109.335 E10.42227
G1 X224.058 Y111.331 E10.54272
G1 X224.469 Y112.006 E10.58214
G1 X224.92 Y113 E10.6366
G1 X225.761 Y115.261 E10.75695
G1 X225.998 Y116.014 E10.79634
G1 X226.2 Y117.097 E10.8513
G1 X226.473 Y119.492 E10.97156
G1 X226.522 Y120.28 E11.01095
G1 X226.46 Y121.364 E11.06512
G1 X226.155 Y123.751 E11.18518
G1 X226.015 Y124.528 E11.22457
G1 X225.692 Y125.577 E11.27932
G1 X224.82 Y127.83 E11.39985
G1 X224.498 Y128.551 E11.43925
G1 X223.936 Y129.489 E11.4938
G1 X222.556 Y131.46 E11.61384
G1 X222.07 Y132.083 E11.65326
G1 X221.301 Y132.858 E11.70773
G1 X219.485 Y134.446 E11.82809
G1 X218.864 Y134.935 E11.86752
G1 X217.927 Y135.505 E11.92224
G1 X215.782 Y136.612 E12.04266
G1 X215.063 Y136.939 E12.08207
G1 X214.019 Y137.267 E12.13666
G1 X211.677 Y137.827 E12.2568
G1 X210.901 Y137.972 E12.29619
G1 X209.811 Y138.041 E12.35067
G1 X207.398 Y138.025 E12.47106
G1 X206.61 Y137.98 E12.51044
G1 X205.532 Y137.785 E12.56509
G1 X203.199 Y137.193 E12.68518
G1 X202.444 Y136.961 E12.72458
G1 X201.446 Y136.515 E12.77912
G1 X199.316 Y135.379 E12.89955
G1 X198.513 Y134.886 E12.94656
G1 X135 Y90.414 E16.81479
G1 X71.487 Y134.886 E20.68303
G1 X70.684 Y135.379 E20.73004
G1 X68.554 Y136.515 E20.85047
G1 X67.839 Y136.851 E20.88989
G1 X66.801 Y137.193 E20.94441
G1 X64.468 Y137.785 E21.06449
G1 X63.694 Y137.941 E21.10388
G1 X62.602 Y138.025 E21.15852
G1 X60.189 Y138.041 E21.27891
G1 X59.4 Y138.006 E21.31831
G1 X58.323 Y137.827 E21.37278
G1 X55.981 Y137.267 E21.49292
G1 X55.223 Y137.045 E21.53233
G1 X54.218 Y136.612 E21.58692
G1 X52.073 Y135.505 E21.70735
G1 X51.39 Y135.108 E21.74676
G1 X50.515 Y134.446 E21.8015
G1 X48.699 Y132.858 E21.92185
G1 X48.132 Y132.308 E21.96126
G1 X47.444 Y131.46 E22.01574
G1 X46.064 Y129.489 E22.13578
G1 X45.645 Y128.82 E22.17517
G1 X45.18 Y127.83 E22.22973
G1 X44.308 Y125.577 E22.35026
G1 X44.06 Y124.827 E22.38967
G1 X43.845 Y123.749 E22.44451
G1 X43.54 Y121.359 E22.56472
G1 X43.48 Y120.572 E22.60409
G1 X43.527 Y119.488 E22.65823
G1 X43.8 Y117.096 E22.77834
G1 X43.929 Y116.316 E22.81778
G1 X44.239 Y115.261 E22.87264
G1 X45.08 Y113 E22.99299
G1 X45.393 Y112.274 E23.03244
G1 X45.942 Y111.331 E23.08688
G1 X47.3 Y109.335 E23.20732
G1 X47.777 Y108.706 E23.2467
G1 X48.539 Y107.918 E23.30139
G1 X50.332 Y106.309 E23.42158
G1 X51.068 Y105.725 E23.46845
G0 F3600 X51.297 Y106.052
G1 F1800 X104.488 Y68.806 E26.70807
G1 X105.141 Y68.399 E26.74646
G1 X105.831 Y68.061 E26.78479
G1 X106.554 Y67.796 E26.82321
G1 X107.3 Y67.608 E26.86159
G1 X108.061 Y67.499 E26.89995
G1 X108.829 Y67.469 E26.93829
G1 X109.827 Y67.549 E26.98824
G1 X110.873 Y67.705 E27.041
G1 X110.918 Y67.186 E27.06699
G1 X111.063 Y66.431 E27.10535
G1 X111.285 Y65.695 E27.1437
G1 X111.583 Y64.986 E27.18207
G1 X111.953 Y64.311 E27.22047
G1 X112.391 Y63.679 E27.25884
G1 X112.892 Y63.095 E27.29723
G1 X113.451 Y62.567 E27.33559
G1 X114.003 Y62.14 E27.37041
G1 X124.952 Y54.472 E28.03729
G1 X125.727 Y53.997 E28.08264
G1 X127.976 Y52.803 E28.20968
G1 X128.673 Y52.478 E28.24804
G1 X129.651 Y52.16 E28.29935
G1 X131.971 Y51.58 E28.41866
G1 X132.726 Y51.432 E28.45704
G1 X133.766 Y51.359 E28.50906
G1 X136.227 Y51.359 E28.63184
G1 X136.995 Y51.399 E28.6702
G1 X138.024 Y51.58 E28.72233
G1 X140.369 Y52.167 E28.84293
G1 X141.104 Y52.393 E28.88129
G1 X142.038 Y52.808 E28.93228
G1 X144.192 Y53.95 E29.05392
G1 X144.972 Y54.427 E29.09953
G1 X149.704 Y57.742 E29.38778
G1 X150.31 Y58.216 E29.42616
G1 X150.864 Y58.75 E29.46455
G1 X151.359 Y59.338 E29.5029
G1 X151.791 Y59.975 E29.5413
G1 X152.154 Y60.653 E29.57967
G1 X152.414 Y61.29 E29.61399
G1 X152.53 Y61.285 E29.61978
G1 X153.297 Y61.335 E29.65813
G1 X154.056 Y61.464 E29.69654
G1 X154.796 Y61.671 E29.73488
G1 X155.511 Y61.954 E29.77324
G1 X156.193 Y62.31 E29.81162
G1 X156.678 Y62.622 E29.84039
G1 X218.702 Y106.052 E33.61795
G1 X219.4 Y106.606 E33.66241
G1 X221.193 Y108.215 E33.7826
G1 X221.738 Y108.758 E33.82099
G1 X222.369 Y109.56 E33.8719
G1 X223.727 Y111.556 E33.99234
G1 X224.126 Y112.214 E34.03073
G1 X224.545 Y113.139 E34.08139
G1 X225.386 Y115.4 E34.20175
G1 X225.616 Y116.134 E34.24012
G1 X225.802 Y117.142 E34.29126
G1 X226.075 Y119.537 E34.41152
G1 X226.123 Y120.305 E34.44991
G1 X226.063 Y121.313 E34.50029
G1 X225.758 Y123.7 E34.62035
G1 X225.621 Y124.457 E34.65873
G1 X225.319 Y125.433 E34.7097
G1 X224.447 Y127.686 E34.83022
G1 X224.133 Y128.388 E34.86859
G1 X223.608 Y129.259 E34.91933
G1 X222.228 Y131.23 E35.03937
G1 X221.755 Y131.837 E35.07776
G1 X221.037 Y132.557 E35.12849
G1 X219.221 Y134.145 E35.24884
G1 X218.617 Y134.62 E35.28718
G1 X217.744 Y135.15 E35.33813
G1 X215.599 Y136.257 E35.45856
G1 X214.898 Y136.574 E35.49694
G1 X213.926 Y136.878 E35.54775
G1 X211.584 Y137.438 E35.66789
G1 X210.828 Y137.578 E35.70625
G1 X209.814 Y137.641 E35.75693
G1 X207.401 Y137.625 E35.87732
G1 X206.633 Y137.58 E35.9157
G1 X205.63 Y137.398 E35.96656
G1 X203.297 Y136.806 E36.08664
G1 X202.562 Y136.578 E36.12503
G1 X201.635 Y136.162 E36.17573
G1 X199.505 Y135.026 E36.29616
G1 X198.743 Y134.559 E36.34075
G1 X135 Y89.926 E40.22299
G1 X71.257 Y134.559 E44.10522
G1 X70.495 Y135.026 E44.14981
G1 X68.365 Y136.162 E44.27025
G1 X67.669 Y136.489 E44.30861
G1 X66.703 Y136.806 E44.35934
G1 X64.37 Y137.398 E44.47942
G1 X63.616 Y137.548 E44.51777
G1 X62.599 Y137.625 E44.56866
G1 X60.186 Y137.641 E44.68904
G1 X59.418 Y137.606 E44.7274
G1 X58.416 Y137.438 E44.77809
G1 X56.074 Y136.878 E44.89822
G1 X55.336 Y136.661 E44.9366
G1 X54.401 Y136.257 E44.98742
G1 X52.256 Y135.15 E45.10784
G1 X51.592 Y134.762 E45.14621
G1 X50.779 Y134.145 E45.19713
G1 X48.963 Y132.557 E45.31748
G1 X48.411 Y132.021 E45.35587
G1 X47.772 Y131.23 E45.4066
G1 X46.392 Y129.259 E45.52664
G1 X45.984 Y128.607 E45.56501
G1 X45.553 Y127.686 E45.61574
G1 X44.681 Y125.433 E45.73627
G1 X44.441 Y124.702 E45.77466
G1 X44.242 Y123.699 E45.82567
G1 X43.937 Y121.309 E45.94588
G1 X43.879 Y120.542 E45.98425
G1 X43.925 Y119.533 E46.03464
G1 X44.198 Y117.141 E46.15476
G1 X44.325 Y116.382 E46.19315
G1 X44.614 Y115.4 E46.24422
G1 X45.455 Y113.139 E46.36457
G1 X45.761 Y112.433 E46.40296
G1 X46.273 Y111.556 E46.45362
G1 X47.631 Y109.56 E46.57407
G1 X48.096 Y108.948 E46.61241
G1 X48.807 Y108.215 E46.66336
G1 X50.6 Y106.606 E46.78355
G1 X51.297 Y106.052 E46.82797
G0 F3600 X51.527 Y106.38
G1 F1800 X104.718 Y69.134 E50.06759
G1 X105.353 Y68.738 E50.10492
G1 X106.026 Y68.413 E50.14221
G1 X106.73 Y68.161 E50.17951
G1 X107.458 Y67.985 E50.21688
G1 X108.199 Y67.888 E50.25416
G1 X108.947 Y67.871 E50.29149
G1 X109.768 Y67.945 E50.33262
G1 X111.257 Y68.168 E50.40773
G1 X111.267 Y67.679 E50.43213
G1 X111.363 Y66.937 E50.46946
G1 X111.537 Y66.21 E50.50676
G1 X111.788 Y65.505 E50.54409
G1 X112.112 Y64.831 E50.5814
G1 X112.507 Y64.196 E50.61871
G1 X112.967 Y63.606 E50.65603
G1 X113.488 Y63.069 E50.69336
G1 X114.232 Y62.467 E50.74111
G1 X125.181 Y54.799 E51.408
G1 X125.915 Y54.35 E51.45092
G1 X128.164 Y53.156 E51.57796
G1 X128.842 Y52.841 E51.61526
G1 X129.748 Y52.548 E51.66276
G1 X132.068 Y51.968 E51.78207
G1 X132.803 Y51.826 E51.81942
G1 X133.766 Y51.759 E51.86758
G1 X136.227 Y51.759 E51.99036
G1 X136.974 Y51.799 E52.02768
G1 X137.927 Y51.969 E52.07598
G1 X140.272 Y52.556 E52.19658
G1 X140.987 Y52.776 E52.2339
G1 X141.851 Y53.161 E52.28109
G1 X144.005 Y54.303 E52.40272
G1 X144.742 Y54.755 E52.44586
G1 X149.474 Y58.07 E52.7341
G1 X150.063 Y58.531 E52.77142
G1 X150.599 Y59.053 E52.80875
G1 X151.077 Y59.629 E52.84609
G1 X151.49 Y60.252 E52.88338
G1 X151.835 Y60.916 E52.92071
G1 X152.107 Y61.613 E52.95804
G1 X152.13 Y61.699 E52.96248
G1 X152.648 Y61.687 E52.98833
G1 X153.393 Y61.75 E53.02563
G1 X154.128 Y61.892 E53.06298
G1 X154.843 Y62.112 E53.1003
G1 X155.53 Y62.406 E53.13758
G1 X156.449 Y62.95 E53.19086
G1 X218.473 Y106.38 E56.96842
G1 X219.133 Y106.904 E57.01047
G1 X220.926 Y108.513 E57.13066
G1 X221.455 Y109.042 E57.16798
G1 X222.039 Y109.785 E57.21513
G1 X223.397 Y111.781 E57.33557
G1 X223.784 Y112.421 E57.37289
G1 X224.17 Y113.279 E57.41982
G1 X225.011 Y115.54 E57.54018
G1 X225.234 Y116.254 E57.5775
G1 X225.405 Y117.187 E57.62482
G1 X225.678 Y119.582 E57.74508
G1 X225.723 Y120.329 E57.78241
G1 X225.667 Y121.262 E57.82905
G1 X225.362 Y123.649 E57.9491
G1 X225.227 Y124.385 E57.98643
G1 X224.946 Y125.289 E58.03366
G1 X224.074 Y127.542 E58.15419
G1 X223.767 Y128.224 E58.1915
G1 X223.28 Y129.03 E58.23849
G1 X221.9 Y131.001 E58.35853
G1 X221.439 Y131.59 E58.39584
G1 X220.774 Y132.255 E58.44276
G1 X218.958 Y133.843 E58.56312
G1 X218.369 Y134.305 E58.60046
G1 X217.56 Y134.794 E58.64762
G1 X215.415 Y135.901 E58.76805
G1 X214.733 Y136.209 E58.80538
G1 X213.833 Y136.489 E58.85241
G1 X211.491 Y137.049 E58.97254
G1 X210.755 Y137.184 E59.00988
G1 X209.817 Y137.241 E59.05676
G1 X207.404 Y137.225 E59.17715
G1 X206.657 Y137.18 E59.21448
G1 X205.728 Y137.01 E59.2616
G1 X203.395 Y136.418 E59.38168
G1 X202.681 Y136.195 E59.419
G1 X201.823 Y135.809 E59.46594
G1 X199.693 Y134.673 E59.58637
G1 X198.972 Y134.231 E59.62857
G1 X135 Y89.437 E63.52477
G1 X71.028 Y134.231 E67.42098
G1 X70.307 Y134.673 E67.46317
G1 X68.177 Y135.809 E67.5836
G1 X67.499 Y136.126 E67.62094
G1 X66.605 Y136.418 E67.66786
G1 X64.272 Y137.01 E67.78795
G1 X63.538 Y137.155 E67.82527
G1 X62.596 Y137.225 E67.8724
G1 X60.183 Y137.241 E67.99279
G1 X59.436 Y137.206 E68.0301
G1 X58.509 Y137.049 E68.077
G1 X56.167 Y136.489 E68.19714
G1 X55.45 Y136.276 E68.23446
G1 X54.585 Y135.901 E68.28149
G1 X52.44 Y134.794 E68.40192
G1 X51.794 Y134.416 E68.43926
G1 X51.042 Y133.843 E68.48643
G1 X49.226 Y132.255 E68.60678
G1 X48.69 Y131.734 E68.64407
G1 X48.1 Y131.001 E68.69102
G1 X46.72 Y129.03 E68.81106
G1 X46.324 Y128.395 E68.84839
G1 X45.926 Y127.542 E68.89535
G1 X45.054 Y125.289 E69.01588
G1 X44.822 Y124.578 E69.05319
G1 X44.638 Y123.648 E69.10049
G1 X44.333 Y121.258 E69.22069
G1 X44.278 Y120.512 E69.25801
G1 X44.322 Y119.578 E69.30466
G1 X44.595 Y117.186 E69.42478
G1 X44.72 Y116.449 E69.46207
G1 X44.989 Y115.54 E69.50936
G1 X45.83 Y113.279 E69.62972
G1 X46.128 Y112.592 E69.66708
G1 X46.603 Y111.781 E69.71397
G1 X47.961 Y109.785 E69.83441
G1 X48.415 Y109.19 E69.87175
G1 X49.074 Y108.513 E69.91888
G1 X50.867 Y106.904 E70.03907
G1 X51.527 Y106.38 E70.08112
G0 F3600 X51.756 Y106.708
G1 F1800 X104.947 Y69.462 E73.32073
G1 X105.564 Y69.078 E73.35699
G1 X106.22 Y68.765 E73.39325
G1 X106.906 Y68.526 E73.4295
G1 X107.614 Y68.364 E73.46573
G1 X108.335 Y68.28 E73.50195
G1 X109.061 Y68.276 E73.53817
G1 X109.709 Y68.341 E73.57066
G1 X111.671 Y68.634 E73.66963
G1 X111.648 Y68.14 E73.6943
G1 X111.695 Y67.416 E73.7305
G1 X111.821 Y66.7 E73.76677
G1 X112.025 Y66.003 E73.803
G1 X112.304 Y65.333 E73.83921
G1 X112.655 Y64.697 E73.87545
G1 X113.074 Y64.103 E73.91172
G1 X113.556 Y63.56 E73.94794
G1 X114.094 Y63.072 E73.98418
G1 X114.462 Y62.795 E74.00716
G1 X125.411 Y55.127 E74.67404
G1 X126.102 Y54.704 E74.71446
G1 X128.351 Y53.51 E74.8415
G1 X129.01 Y53.205 E74.87773
G1 X129.845 Y52.936 E74.92149
G1 X132.165 Y52.356 E75.0408
G1 X132.879 Y52.219 E75.07707
G1 X133.766 Y52.159 E75.12143
G1 X136.227 Y52.159 E75.24421
G1 X136.952 Y52.199 E75.28043
G1 X137.83 Y52.357 E75.32494
G1 X140.175 Y52.944 E75.44554
G1 X140.869 Y53.158 E75.48177
G1 X141.664 Y53.515 E75.52525
G1 X143.818 Y54.657 E75.64688
G1 X144.513 Y55.082 E75.68753
G1 X149.245 Y58.397 E75.97577
G1 X149.816 Y58.846 E76.01201
G1 X150.334 Y59.355 E76.04825
G1 X150.793 Y59.918 E76.08449
G1 X151.188 Y60.528 E76.12074
G1 X151.513 Y61.177 E76.15695
G1 X151.765 Y61.859 E76.19323
G1 X151.83 Y62.12 E76.20665
G1 X152.036 Y62.096 E76.21699
G1 X152.762 Y62.092 E76.25321
G1 X153.484 Y62.168 E76.28943
G1 X154.194 Y62.323 E76.32569
G1 X154.882 Y62.555 E76.36191
G1 X155.541 Y62.861 E76.39816
G1 X156.22 Y63.278 E76.43792
G1 X218.244 Y106.708 E80.21548
G1 X218.866 Y107.202 E80.25511
G1 X220.659 Y108.811 E80.3753
G1 X221.172 Y109.325 E80.41153
G1 X221.708 Y110.01 E80.45492
G1 X223.066 Y112.006 E80.57536
G1 X223.441 Y112.629 E80.61164
G1 X223.795 Y113.418 E80.65479
G1 X224.636 Y115.679 E80.77514
G1 X224.851 Y116.373 E80.81138
G1 X225.008 Y117.233 E80.855
G1 X225.281 Y119.628 E80.97526
G1 X225.323 Y120.353 E81.01149
G1 X225.27 Y121.212 E81.05443
G1 X224.965 Y123.599 E81.17448
G1 X224.833 Y124.313 E81.21071
G1 X224.573 Y125.144 E81.25415
G1 X223.701 Y127.397 E81.37468
G1 X223.402 Y128.059 E81.41092
G1 X222.953 Y128.8 E81.45414
G1 X221.573 Y130.771 E81.57418
G1 X221.124 Y131.343 E81.61046
G1 X220.511 Y131.954 E81.65364
G1 X218.695 Y133.542 E81.774
G1 X218.122 Y133.99 E81.81028
G1 X217.377 Y134.439 E81.85368
G1 X215.232 Y135.546 E81.97411
G1 X214.569 Y135.843 E82.01035
G1 X213.74 Y136.1 E82.05365
G1 X211.398 Y136.66 E82.17379
G1 X210.683 Y136.79 E82.21005
G1 X209.819 Y136.841 E82.25323
G1 X207.406 Y136.825 E82.37361
G1 X206.681 Y136.78 E82.40985
G1 X205.827 Y136.622 E82.45318
G1 X203.494 Y136.03 E82.57326
G1 X202.801 Y135.813 E82.60949
G1 X202.011 Y135.457 E82.65272
G1 X199.881 Y134.321 E82.77316
G1 X199.201 Y133.903 E82.81298
G1 X135 Y88.949 E86.72312
G1 X70.799 Y133.903 E90.63326
G1 X70.119 Y134.321 E90.67309
G1 X67.989 Y135.457 E90.79352
G1 X67.33 Y135.763 E90.82977
G1 X66.506 Y136.03 E90.87298
G1 X64.173 Y136.622 E90.99307
G1 X63.46 Y136.762 E91.02932
G1 X62.594 Y136.825 E91.07264
G1 X60.181 Y136.841 E91.19303
G1 X59.455 Y136.806 E91.22929
G1 X58.602 Y136.66 E91.27246
G1 X56.26 Y136.1 E91.3926
G1 X55.564 Y135.893 E91.42883
G1 X54.768 Y135.546 E91.47215
G1 X52.623 Y134.439 E91.59257
G1 X51.997 Y134.071 E91.6288
G1 X51.305 Y133.542 E91.67226
G1 X49.489 Y131.954 E91.79261
G1 X48.97 Y131.447 E91.82881
G1 X48.427 Y130.771 E91.87207
G1 X47.047 Y128.8 E91.99211
G1 X46.664 Y128.183 E92.02834
G1 X46.299 Y127.397 E92.07157
G1 X45.427 Y125.144 E92.1921
G1 X45.202 Y124.453 E92.22836
G1 X45.035 Y123.597 E92.27187
G1 X44.73 Y121.207 E92.39207
G1 X44.678 Y120.483 E92.42829
G1 X44.72 Y119.624 E92.47119
G1 X44.993 Y117.232 E92.59131
G1 X45.115 Y116.516 E92.62754
G1 X45.364 Y115.679 E92.67111
G1 X46.205 Y113.418 E92.79146
G1 X46.495 Y112.752 E92.8277
G1 X46.934 Y112.006 E92.87089
G1 X48.292 Y110.01 E92.99133
G1 X48.733 Y109.433 E93.02756
G1 X49.341 Y108.811 E93.07096
G1 X51.134 Y107.202 E93.19115
G1 X51.756 Y106.708 E93.23077
