;FLAVOR:Marlin
;TIME:2391
;Filament used: 2.61479m
;Layer height: 0.2
;MINX:122.404
;MINY:92.39
;MINZ:0.3
;MAXX:147.596
;MAXY:117.583
;MAXZ:63.9
;Generated with Cura_SteamEngine 4.8.0
M140 S60
M105
M190 S60
M104 S210
M105
M109 S210
M82 ;absolute extrusion mode
G28 ;Home
G1 Z15.0 F6000 ;Move the platform down 15mm
;Prime the extruder
G92 E0
G1 F200 E3
G92 E0
G92 E0
G92 E0
G1 F2400 E-6.5
;LAYER_COUNT:319
;LAYER:0
M107
G0 F3600 X125.417 Y96.846 Z0.3
;TYPE:SKIRT
G1 F2400 E0
G1 F1800 X125.929 Y96.244 E0.03943
G1 X126.499 Y95.698 E0.07881
G1 X126.86 Y95.403 E0.10207
G1 X127.855 Y94.64 E0.16462
G1 X128.505 Y94.192 E0.20401
G1 X129.197 Y93.812 E0.24339
G1 X129.613 Y93.625 E0.26615
G1 X130.768 Y93.146 E0.32853
G1 X131.512 Y92.881 E0.36793
G1 X132.279 Y92.692 E0.40734
G1 X132.737 Y92.618 E0.43049
G1 X133.981 Y92.454 E0.49309
G1 X134.768 Y92.39 E0.53248
G1 X135.557 Y92.407 E0.57186
G1 X136.019 Y92.454 E0.59502
G1 X137.263 Y92.618 E0.65762
G1 X138.04 Y92.761 E0.69704
G1 X138.798 Y92.981 E0.73642
G1 X139.232 Y93.146 E0.75958
G1 X140.387 Y93.625 E0.82196
G1 X141.1 Y93.964 E0.86135
G1 X141.775 Y94.374 E0.90075
G1 X142.145 Y94.64 E0.92349
G1 X143.14 Y95.403 E0.98604
G1 X143.742 Y95.915 E1.02547
G1 X144.289 Y96.485 E1.06488
G1 X144.583 Y96.846 E1.08811
G1 X145.347 Y97.842 E1.15074
G1 X145.795 Y98.492 E1.19012
G1 X146.175 Y99.184 E1.22951
G1 X146.366 Y99.609 E1.25276
G1 X146.843 Y100.763 E1.31505
G1 X147.108 Y101.508 E1.3545
G1 X147.296 Y102.275 E1.3939
G1 X147.367 Y102.717 E1.41624
G1 X147.532 Y103.961 E1.47884
G1 X147.596 Y104.748 E1.51824
G1 X147.581 Y105.538 E1.55766
G1 X147.532 Y106.013 E1.58148
G1 X147.367 Y107.257 E1.64409
G1 X147.224 Y108.033 E1.68345
G1 X147.003 Y108.791 E1.72284
G1 X146.843 Y109.211 E1.74527
G1 X146.366 Y110.365 E1.80756
G1 X146.028 Y111.078 E1.84693
G1 X145.62 Y111.754 E1.88632
G1 X145.347 Y112.132 E1.90959
G1 X144.583 Y113.128 E1.97221
G1 X144.071 Y113.73 E2.01164
G1 X143.501 Y114.276 E2.05102
G1 X143.14 Y114.571 E2.07428
G1 X142.145 Y115.334 E2.13683
G1 X141.495 Y115.782 E2.17622
G1 X140.803 Y116.162 E2.21561
G1 X140.382 Y116.351 E2.23863
G1 X139.227 Y116.829 E2.30099
G1 X138.483 Y117.094 E2.34039
G1 X137.716 Y117.282 E2.37979
G1 X137.27 Y117.354 E2.40233
G1 X136.026 Y117.519 E2.46494
G1 X135.239 Y117.583 E2.50433
G1 X134.449 Y117.568 E2.54375
G1 X133.974 Y117.519 E2.56758
G1 X132.73 Y117.354 E2.63018
G1 X131.954 Y117.211 E2.66955
G1 X131.196 Y116.99 E2.70894
G1 X130.773 Y116.829 E2.73152
G1 X129.618 Y116.351 E2.79388
G1 X128.905 Y116.013 E2.83325
G1 X128.229 Y115.604 E2.87267
G1 X127.855 Y115.334 E2.89568
G1 X126.86 Y114.571 E2.95824
G1 X126.258 Y114.059 E2.99766
G1 X125.711 Y113.489 E3.03708
G1 X125.417 Y113.128 E3.06031
G1 X124.653 Y112.132 E3.12293
G1 X124.205 Y111.482 E3.16232
G1 X123.825 Y110.79 E3.2017
G1 X123.634 Y110.365 E3.22495
G1 X123.157 Y109.211 E3.28725
G1 X122.892 Y108.466 E3.3267
G1 X122.704 Y107.699 E3.3661
G1 X122.633 Y107.257 E3.38843
G1 X122.468 Y106.013 E3.45104
G1 X122.404 Y105.226 E3.49043
G1 X122.419 Y104.436 E3.52985
G1 X122.468 Y103.961 E3.55367
G1 X122.633 Y102.717 E3.61628
G1 X122.776 Y101.941 E3.65565
G1 X122.997 Y101.183 E3.69504
G1 X123.157 Y100.763 E3.71746
G1 X123.634 Y99.609 E3.77976
G1 X123.972 Y98.896 E3.81913
G1 X124.38 Y98.22 E3.85852
G1 X124.653 Y97.842 E3.88178
G1 X125.417 Y96.846 E3.94441
G0 F3600 X125.734 Y97.089
G1 F1800 X126.234 Y96.504 E3.9828
G1 X126.791 Y95.974 E4.02116
G1 X127.103 Y95.721 E4.0412
G1 X128.098 Y94.958 E4.10375
G1 X128.732 Y94.522 E4.14214
G1 X129.408 Y94.155 E4.18052
G1 X129.766 Y93.995 E4.20008
G1 X130.921 Y93.516 E4.26246
G1 X131.646 Y93.258 E4.30086
G1 X132.394 Y93.077 E4.33925
G1 X132.789 Y93.014 E4.35921
G1 X134.033 Y92.85 E4.42181
G1 X134.8 Y92.79 E4.46019
G1 X135.568 Y92.809 E4.49852
G1 X135.967 Y92.85 E4.51853
G1 X137.211 Y93.014 E4.58113
G1 X137.967 Y93.155 E4.6195
G1 X138.705 Y93.372 E4.65787
G1 X139.079 Y93.516 E4.67787
G1 X140.234 Y93.995 E4.74025
G1 X140.928 Y94.326 E4.77861
G1 X141.584 Y94.727 E4.81697
G1 X141.902 Y94.958 E4.83658
G1 X142.897 Y95.721 E4.89913
G1 X143.482 Y96.22 E4.93749
G1 X144.012 Y96.777 E4.97585
G1 X144.266 Y97.089 E4.99593
G1 X145.03 Y98.085 E5.05855
G1 X145.465 Y98.719 E5.09691
G1 X145.833 Y99.395 E5.13531
G1 X145.997 Y99.762 E5.15536
G1 X146.474 Y100.916 E5.21766
G1 X146.73 Y101.641 E5.25602
G1 X146.91 Y102.389 E5.2944
G1 X146.971 Y102.77 E5.31365
G1 X147.136 Y104.014 E5.37626
G1 X147.197 Y104.781 E5.41465
G1 X147.179 Y105.55 E5.45302
G1 X147.136 Y105.96 E5.47359
G1 X146.971 Y107.204 E5.5362
G1 X146.83 Y107.96 E5.57457
G1 X146.612 Y108.698 E5.61296
G1 X146.474 Y109.058 E5.63219
G1 X145.997 Y110.212 E5.69449
G1 X145.666 Y110.906 E5.73285
G1 X145.266 Y111.563 E5.77123
G1 X145.03 Y111.889 E5.7913
G1 X144.266 Y112.885 E5.85393
G1 X143.766 Y113.47 E5.89232
G1 X143.209 Y114 E5.93068
G1 X142.897 Y114.253 E5.95072
G1 X141.902 Y115.016 E6.01328
G1 X141.268 Y115.452 E6.05167
G1 X140.592 Y115.819 E6.09004
G1 X140.229 Y115.982 E6.10989
G1 X139.074 Y116.46 E6.17226
G1 X138.349 Y116.716 E6.21062
G1 X137.601 Y116.897 E6.24901
G1 X137.217 Y116.958 E6.26841
G1 X135.973 Y117.123 E6.33102
G1 X135.206 Y117.184 E6.3694
G1 X134.437 Y117.166 E6.40778
G1 X134.027 Y117.123 E6.42835
G1 X132.783 Y116.958 E6.49095
G1 X132.027 Y116.817 E6.52932
G1 X131.289 Y116.599 E6.56771
G1 X130.926 Y116.46 E6.5871
G1 X129.771 Y115.982 E6.64947
G1 X129.077 Y115.651 E6.68783
G1 X128.42 Y115.25 E6.72623
G1 X128.098 Y115.016 E6.74609
G1 X127.103 Y114.253 E6.80864
G1 X126.518 Y113.754 E6.847
G1 X125.988 Y113.197 E6.88536
G1 X125.734 Y112.885 E6.90543
G1 X124.97 Y111.889 E6.96806
G1 X124.535 Y111.255 E7.00642
G1 X124.167 Y110.579 E7.04482
G1 X124.003 Y110.212 E7.06487
G1 X123.526 Y109.058 E7.12717
G1 X123.27 Y108.333 E7.16553
G1 X123.09 Y107.585 E7.20391
G1 X123.029 Y107.204 E7.22316
G1 X122.864 Y105.96 E7.28577
G1 X122.803 Y105.193 E7.32416
G1 X122.821 Y104.424 E7.36253
G1 X122.864 Y104.014 E7.3831
G1 X123.029 Y102.77 E7.44571
G1 X123.17 Y102.014 E7.48408
G1 X123.388 Y101.276 E7.52247
G1 X123.526 Y100.916 E7.5417
G1 X124.003 Y99.762 E7.604
G1 X124.334 Y99.068 E7.64236
G1 X124.734 Y98.411 E7.68073
G1 X124.97 Y98.085 E7.70081
G1 X125.734 Y97.089 E7.76344
G0 F3600 X126.052 Y97.333
G1 F1800 X126.538 Y96.764 E7.80077
G1 X127.346 Y96.038 E7.85497
G1 X128.341 Y95.275 E7.91752
G1 X128.958 Y94.852 E7.95484
G1 X129.919 Y94.364 E8.00862
G1 X131.074 Y93.885 E8.071
G1 X131.78 Y93.636 E8.10835
G1 X132.841 Y93.411 E8.16246
G1 X134.085 Y93.247 E8.22506
G1 X134.831 Y93.189 E8.26239
G1 X135.915 Y93.247 E8.31655
G1 X137.159 Y93.411 E8.37915
G1 X137.894 Y93.548 E8.41645
G1 X138.926 Y93.885 E8.47061
G1 X140.081 Y94.364 E8.53299
G1 X140.755 Y94.687 E8.57028
G1 X141.659 Y95.275 E8.62408
G1 X142.654 Y96.038 E8.68664
G1 X143.222 Y96.524 E8.72393
G1 X143.948 Y97.333 E8.77816
G1 X144.712 Y98.329 E8.84079
G1 X145.135 Y98.946 E8.87811
G1 X145.627 Y99.915 E8.93233
G1 X146.104 Y101.069 E8.99463
G1 X146.353 Y101.775 E9.03198
G1 X146.574 Y102.823 E9.08541
G1 X146.739 Y104.067 E9.14802
G1 X146.798 Y104.812 E9.1853
G1 X146.739 Y105.907 E9.24001
G1 X146.574 Y107.151 E9.30262
G1 X146.436 Y107.887 E9.33998
G1 X146.104 Y108.905 E9.3934
G1 X145.627 Y110.059 E9.4557
G1 X145.305 Y110.734 E9.49301
G1 X144.712 Y111.645 E9.54724
G1 X143.948 Y112.641 E9.60986
G1 X143.462 Y113.21 E9.6472
G1 X142.654 Y113.936 E9.70139
G1 X141.659 Y114.699 E9.76395
G1 X141.042 Y115.122 E9.80127
G1 X140.076 Y115.612 E9.85531
G1 X138.921 Y116.09 E9.91767
G1 X138.215 Y116.339 E9.95502
G1 X137.164 Y116.561 E10.00861
G1 X135.92 Y116.726 E10.07122
G1 X135.175 Y116.785 E10.1085
G1 X134.08 Y116.726 E10.16321
G1 X132.836 Y116.561 E10.22582
G1 X132.1 Y116.423 E10.26318
G1 X131.079 Y116.09 E10.31676
G1 X129.924 Y115.612 E10.37912
G1 X129.249 Y115.289 E10.41645
G1 X128.341 Y114.699 E10.47047
G1 X127.346 Y113.936 E10.53303
G1 X126.778 Y113.45 E10.57033
G1 X126.052 Y112.641 E10.62456
G1 X125.288 Y111.645 E10.68718
G1 X124.865 Y111.028 E10.7245
G1 X124.373 Y110.059 E10.77872
G1 X123.896 Y108.905 E10.84102
G1 X123.647 Y108.199 E10.87837
G1 X123.426 Y107.151 E10.9318
G1 X123.261 Y105.907 E10.99441
G1 X123.202 Y105.162 E11.03169
G1 X123.261 Y104.067 E11.0864
G1 X123.426 Y102.823 E11.14901
G1 X123.564 Y102.087 E11.18637
G1 X123.896 Y101.069 E11.23979
G1 X124.373 Y99.915 E11.30209
G1 X124.695 Y99.24 E11.3394
G1 X125.288 Y98.329 E11.39363
G1 X126.052 Y97.333 E11.45626
G0 F3600 X126.369 Y97.576
G1 F1800 X126.842 Y97.025 E11.49249
G1 X127.59 Y96.356 E11.54255
G1 X128.585 Y95.593 E11.60511
G1 X129.185 Y95.183 E11.64136
G1 X130.073 Y94.733 E11.69103
G1 X131.228 Y94.254 E11.75341
G1 X131.913 Y94.014 E11.78962
G1 X132.893 Y93.808 E11.83958
G1 X134.137 Y93.644 E11.90218
G1 X134.862 Y93.588 E11.93846
G1 X135.863 Y93.644 E11.98848
G1 X137.107 Y93.808 E12.05108
G1 X137.82 Y93.942 E12.08728
G1 X138.772 Y94.254 E12.13726
G1 X139.927 Y94.733 E12.19964
G1 X140.582 Y95.048 E12.2359
G1 X141.415 Y95.593 E12.28556
G1 X142.41 Y96.356 E12.34812
G1 X142.961 Y96.829 E12.38435
G1 X143.631 Y97.576 E12.43441
G1 X144.395 Y98.572 E12.49704
G1 X144.804 Y99.172 E12.53326
G1 X145.257 Y100.068 E12.58335
G1 X145.734 Y101.222 E12.64565
G1 X145.975 Y101.907 E12.68188
G1 X146.178 Y102.875 E12.73122
G1 X146.343 Y104.119 E12.79383
G1 X146.398 Y104.843 E12.83005
G1 X146.343 Y105.855 E12.88062
G1 X146.178 Y107.099 E12.94322
G1 X146.043 Y107.813 E12.97948
G1 X145.734 Y108.752 E13.0288
G1 X145.257 Y109.906 E13.09109
G1 X144.943 Y110.561 E13.12733
G1 X144.395 Y111.402 E13.17741
G1 X143.631 Y112.398 E13.24004
G1 X143.158 Y112.949 E13.27627
G1 X142.41 Y113.618 E13.32633
G1 X141.415 Y114.381 E13.38889
G1 X140.815 Y114.791 E13.42514
G1 X139.923 Y115.242 E13.47501
G1 X138.768 Y115.72 E13.53737
G1 X138.082 Y115.961 E13.57365
G1 X137.112 Y116.165 E13.6231
G1 X135.868 Y116.33 E13.68571
G1 X135.144 Y116.385 E13.72193
G1 X134.132 Y116.33 E13.7725
G1 X132.888 Y116.165 E13.8351
G1 X132.174 Y116.03 E13.87136
G1 X131.232 Y115.72 E13.92083
G1 X130.077 Y115.242 E13.98319
G1 X129.422 Y114.928 E14.01943
G1 X128.585 Y114.381 E14.06932
G1 X127.59 Y113.618 E14.13187
G1 X127.039 Y113.145 E14.1681
G1 X126.369 Y112.398 E14.21817
G1 X125.605 Y111.402 E14.28079
G1 X125.196 Y110.802 E14.31702
G1 X124.743 Y109.906 E14.36711
G1 X124.266 Y108.752 E14.42941
G1 X124.025 Y108.067 E14.46563
G1 X123.822 Y107.099 E14.51498
G1 X123.657 Y105.855 E14.57759
G1 X123.602 Y105.131 E14.61381
G1 X123.657 Y104.119 E14.66437
G1 X123.822 Y102.875 E14.72698
G1 X123.957 Y102.161 E14.76323
G1 X124.266 Y101.222 E14.81255
G1 X124.743 Y100.068 E14.87485
G1 X125.057 Y99.413 E14.91109
G1 X125.605 Y98.572 E14.96117
G1 X126.369 Y97.576 E15.02379
G0 F3600 X126.687 Y97.819
G1 F1800 X127.146 Y97.286 E15.05889
G1 X127.833 Y96.673 E15.10482
G1 X128.828 Y95.91 E15.16738
G1 X129.41 Y95.514 E15.2025
G1 X130.226 Y95.103 E15.24808
G1 X131.381 Y94.624 E15.31046
G1 X132.045 Y94.392 E15.34555
G1 X132.946 Y94.204 E15.39147
G1 X134.19 Y94.04 E15.45407
G1 X134.892 Y93.988 E15.48919
G1 X135.81 Y94.04 E15.53506
G1 X137.054 Y94.204 E15.59766
G1 X137.746 Y94.336 E15.63281
G1 X138.619 Y94.624 E15.67867
G1 X139.774 Y95.103 E15.74106
G1 X140.408 Y95.409 E15.77618
G1 X141.172 Y95.91 E15.82176
G1 X142.167 Y96.673 E15.88431
G1 X142.7 Y97.132 E15.91941
G1 X143.313 Y97.819 E15.96534
G1 X144.077 Y98.815 E16.02797
G1 X144.473 Y99.397 E16.06309
G1 X144.888 Y100.221 E16.10912
G1 X145.365 Y101.375 E16.17141
G1 X145.596 Y102.039 E16.20649
G1 X145.781 Y102.928 E16.25179
G1 X145.946 Y104.172 E16.3144
G1 X145.999 Y104.874 E16.34952
G1 X145.946 Y105.802 E16.3959
G1 X145.781 Y107.046 E16.4585
G1 X145.649 Y107.738 E16.49365
G1 X145.365 Y108.599 E16.53888
G1 X144.888 Y109.753 E16.60118
G1 X144.582 Y110.388 E16.63635
G1 X144.077 Y111.159 E16.68233
G1 X143.313 Y112.155 E16.74495
G1 X142.854 Y112.688 E16.78005
G1 X142.167 Y113.301 E16.82598
G1 X141.172 Y114.064 E16.88854
G1 X140.59 Y114.46 E16.92366
G1 X139.77 Y114.873 E16.96946
G1 X138.615 Y115.351 E17.03183
G1 X137.95 Y115.583 E17.06696
G1 X137.059 Y115.768 E17.11236
G1 X135.815 Y115.933 E17.17497
G1 X135.113 Y115.986 E17.21009
G1 X134.185 Y115.933 E17.25647
G1 X132.941 Y115.768 E17.31907
G1 X132.249 Y115.636 E17.35422
G1 X131.385 Y115.351 E17.39961
G1 X130.23 Y114.873 E17.46197
G1 X129.596 Y114.567 E17.49709
G1 X128.828 Y114.064 E17.5429
G1 X127.833 Y113.301 E17.60545
G1 X127.3 Y112.842 E17.64055
G1 X126.687 Y112.155 E17.68648
G1 X125.923 Y111.159 E17.74911
G1 X125.527 Y110.577 E17.78423
G1 X125.112 Y109.753 E17.83026
G1 X124.635 Y108.599 E17.89255
G1 X124.404 Y107.935 E17.92763
G1 X124.219 Y107.046 E17.97293
G1 X124.054 Y105.802 E18.03554
G1 X124.001 Y105.1 E18.07066
G1 X124.054 Y104.172 E18.11703
G1 X124.219 Y102.928 E18.17964
G1 X124.351 Y102.236 E18.21479
G1 X124.635 Y101.375 E18.26002
G1 X125.112 Y100.221 E18.32232
G1 X125.418 Y99.586 E18.35748
G1 X125.923 Y98.815 E18.40347
G1 X126.687 Y97.819 E18.46609
G0 F3600 X127.004 Y98.063
G1 F1800 X127.449 Y97.548 E18.50005
G1 X128.077 Y96.99 E18.54196
G1 X129.072 Y96.227 E18.60452
G1 X129.635 Y95.846 E18.63843
G1 X130.379 Y95.472 E18.67998
G1 X131.534 Y94.993 E18.74236
G1 X132.177 Y94.77 E18.77631
G1 X132.998 Y94.601 E18.81813
G1 X134.242 Y94.437 E18.88073
G1 X134.921 Y94.388 E18.91469
G1 X135.758 Y94.437 E18.95652
G1 X137.002 Y94.601 E19.01912
G1 X137.671 Y94.729 E19.05311
G1 X138.466 Y94.993 E19.0949
G1 X139.621 Y95.472 E19.15728
G1 X140.233 Y95.77 E19.19124
G1 X140.928 Y96.227 E19.23274
G1 X141.923 Y96.99 E19.29529
G1 X142.438 Y97.436 E19.32928
G1 X142.996 Y98.063 E19.37116
G1 X143.76 Y99.059 E19.43378
G1 X144.142 Y99.623 E19.46777
G1 X144.518 Y100.373 E19.50963
G1 X144.995 Y101.527 E19.57192
G1 X145.218 Y102.171 E19.60592
G1 X145.385 Y102.98 E19.64714
G1 X145.55 Y104.224 E19.70974
G1 X145.599 Y104.903 E19.74371
G1 X145.55 Y105.75 E19.78604
G1 X145.385 Y106.994 E19.84864
G1 X145.256 Y107.662 E19.88258
G1 X144.995 Y108.447 E19.92386
G1 X144.518 Y109.601 E19.98615
G1 X144.222 Y110.213 E20.02007
G1 X143.76 Y110.915 E20.062
G1 X142.996 Y111.911 E20.12462
G1 X142.551 Y112.426 E20.15858
G1 X141.923 Y112.984 E20.20049
G1 X140.928 Y113.747 E20.26305
G1 X140.365 Y114.128 E20.29696
G1 X139.617 Y114.503 E20.33871
G1 X138.462 Y114.981 E20.40107
G1 X137.819 Y115.204 E20.43503
G1 X137.007 Y115.372 E20.47639
G1 X135.763 Y115.537 E20.539
G1 X135.084 Y115.586 E20.57296
G1 X134.237 Y115.537 E20.61529
G1 X132.993 Y115.372 E20.6779
G1 X132.325 Y115.243 E20.71184
G1 X131.538 Y114.981 E20.75322
G1 X130.383 Y114.503 E20.81559
G1 X129.77 Y114.206 E20.84957
G1 X129.072 Y113.747 E20.89125
G1 X128.077 Y112.984 E20.9538
G1 X127.562 Y112.538 E20.98779
G1 X127.004 Y111.911 E21.02967
G1 X126.24 Y110.915 E21.09229
G1 X125.858 Y110.351 E21.12628
G1 X125.482 Y109.601 E21.16813
G1 X125.005 Y108.447 E21.23043
G1 X124.782 Y107.803 E21.26443
G1 X124.615 Y106.994 E21.30565
G1 X124.45 Y105.75 E21.36825
G1 X124.401 Y105.071 E21.40222
G1 X124.45 Y104.224 E21.44454
G1 X124.615 Y102.98 E21.50715
G1 X124.744 Y102.312 E21.54109
G1 X125.005 Y101.527 E21.58237
G1 X125.482 Y100.373 E21.64466
G1 X125.778 Y99.761 E21.67858
G1 X126.24 Y99.059 E21.72051
G1 X127.004 Y98.063 E21.78313
G0 F3600 X127.321 Y98.306
G1 F1800 X127.752 Y97.81 E21.81592
G1 X128.32 Y97.308 E21.85373
G1 X129.315 Y96.545 E21.91629
G1 X129.86 Y96.178 E21.94907
G1 X130.532 Y95.842 E21.98655
G1 X131.687 Y95.363 E22.04894
G1 X132.308 Y95.149 E22.08171
G1 X133.05 Y94.997 E22.11949
G1 X134.294 Y94.833 E22.18209
G1 X134.95 Y94.787 E22.2149
G1 X135.706 Y94.833 E22.25269
G1 X136.95 Y94.997 E22.31529
G1 X137.595 Y95.123 E22.34808
G1 X138.313 Y95.363 E22.38585
G1 X139.468 Y95.842 E22.44823
G1 X140.058 Y96.13 E22.48098
G1 X140.685 Y96.545 E22.51849
G1 X141.68 Y97.308 E22.58105
G1 X142.176 Y97.739 E22.61383
G1 X142.679 Y98.306 E22.65165
G1 X143.443 Y99.302 E22.71427
G1 X143.81 Y99.847 E22.74705
G1 X144.148 Y100.526 E22.78489
G1 X144.625 Y101.68 E22.84719
G1 X144.839 Y102.301 E22.87996
G1 X144.988 Y103.033 E22.91723
G1 X145.153 Y104.277 E22.97984
G1 X145.2 Y104.932 E23.0126
G1 X145.153 Y105.697 E23.05084
G1 X144.988 Y106.941 E23.11344
G1 X144.862 Y107.586 E23.14623
G1 X144.625 Y108.294 E23.18348
G1 X144.148 Y109.448 E23.24578
