;FLAVOR:Marlin
;TIME:255
;Filament used: 0.277299m
;Layer height: 0.2
;MINX:119.228
;MINY:80.777
;MINZ:0.3
;MAXX:150.772
;MAXY:112.322
;MAXZ:4.7
;Generated with Cura_SteamEngine 4.8.0
M140 S60
M105
M190 S60
M104 S210
M105
M109 S210
M82 ;absolute extrusion mode
G28 ;Home
G1 Z15.0 F6000 ;Move the platform down 15mm
;Prime the extruder
G92 E0
G1 F200 E3
G92 E0
G92 E0
G92 E0
G1 F2400 E-6.5
;LAYER_COUNT:23
;LAYER:0
M107
G0 F3600 X121.902 Y87.817 Z0.3
;TYPE:SKIRT
G1 F2400 E0
G1 F1800 X123.17 Y86.163 E0.10398
G1 X123.681 Y85.562 E0.14333
G1 X124.251 Y85.015 E0.18275
G1 X124.615 Y84.718 E0.20619
G1 X126.268 Y83.451 E0.31009
G1 X126.918 Y83.003 E0.34948
G1 X127.61 Y82.623 E0.38886
G1 X128.026 Y82.437 E0.4116
G1 X129.946 Y81.641 E0.51529
G1 X130.69 Y81.376 E0.5547
G1 X131.456 Y81.187 E0.59406
G1 X131.912 Y81.113 E0.61711
G1 X133.979 Y80.84 E0.72112
G1 X134.766 Y80.777 E0.76051
G1 X135.555 Y80.793 E0.79989
G1 X136.021 Y80.84 E0.82325
G1 X138.088 Y81.113 E0.92727
G1 X138.865 Y81.256 E0.96669
G1 X139.623 Y81.477 E1.00608
G1 X140.054 Y81.641 E1.02908
G1 X141.974 Y82.437 E1.13278
G1 X142.687 Y82.776 E1.17217
G1 X143.363 Y83.185 E1.21159
G1 X143.732 Y83.451 E1.23428
G1 X145.385 Y84.718 E1.33819
G1 X145.987 Y85.23 E1.37761
G1 X146.534 Y85.8 E1.41703
G1 X146.83 Y86.163 E1.4404
G1 X148.098 Y87.817 E1.54437
G1 X148.546 Y88.468 E1.5838
G1 X148.926 Y89.16 E1.62319
G1 X149.115 Y89.579 E1.64612
G1 X149.91 Y91.499 E1.74979
G1 X150.174 Y92.243 E1.78918
G1 X150.363 Y93.01 E1.82859
G1 X150.436 Y93.461 E1.85138
G1 X150.709 Y95.527 E1.95535
G1 X150.772 Y96.314 E1.99474
G1 X150.756 Y97.104 E2.03416
G1 X150.709 Y97.57 E2.05753
G1 X150.436 Y99.637 E2.16155
G1 X150.293 Y100.414 E2.20096
G1 X150.072 Y101.172 E2.24035
G1 X149.909 Y101.601 E2.26325
G1 X149.114 Y103.52 E2.36688
G1 X148.775 Y104.234 E2.40631
G1 X148.366 Y104.909 E2.44569
G1 X148.098 Y105.281 E2.46856
G1 X146.83 Y106.935 E2.57254
G1 X146.319 Y107.536 E2.6119
G1 X145.749 Y108.083 E2.65131
G1 X145.387 Y108.378 E2.67461
G1 X143.734 Y109.646 E2.77855
G1 X143.084 Y110.094 E2.81793
G1 X142.392 Y110.474 E2.85732
G1 X141.974 Y110.662 E2.88018
G1 X140.054 Y111.458 E2.98388
G1 X139.31 Y111.723 E3.02328
G1 X138.544 Y111.912 E3.06264
G1 X138.085 Y111.986 E3.08584
G1 X136.018 Y112.258 E3.18985
G1 X135.23 Y112.322 E3.22929
G1 X134.441 Y112.305 E3.26867
G1 X133.982 Y112.258 E3.29169
G1 X131.915 Y111.986 E3.3957
G1 X131.139 Y111.844 E3.43505
G1 X130.38 Y111.623 E3.47449
G1 X129.946 Y111.458 E3.49766
G1 X128.026 Y110.662 E3.60135
G1 X127.313 Y110.323 E3.64074
G1 X126.637 Y109.914 E3.68016
G1 X126.266 Y109.646 E3.70299
G1 X124.613 Y108.378 E3.80693
G1 X124.011 Y107.866 E3.84636
G1 X123.465 Y107.296 E3.88574
G1 X123.17 Y106.935 E3.909
G1 X121.902 Y105.281 E4.01297
G1 X121.454 Y104.63 E4.0524
G1 X121.074 Y103.938 E4.09179
G1 X120.886 Y103.52 E4.11465
G1 X120.091 Y101.601 E4.21828
G1 X119.826 Y100.857 E4.25768
G1 X119.638 Y100.091 E4.29703
G1 X119.564 Y99.637 E4.31998
G1 X119.291 Y97.57 E4.424
G1 X119.228 Y96.783 E4.46339
G1 X119.244 Y95.994 E4.50276
G1 X119.291 Y95.527 E4.52618
G1 X119.564 Y93.461 E4.63015
G1 X119.707 Y92.685 E4.66951
G1 X119.928 Y91.926 E4.70895
G1 X120.09 Y91.499 E4.73174
G1 X120.885 Y89.579 E4.83541
G1 X121.224 Y88.866 E4.8748
G1 X121.633 Y88.19 E4.91422
G1 X121.902 Y87.817 E4.93716
G0 F3600 X122.219 Y88.061
G1 F1800 X123.487 Y86.407 E5.04114
G1 X123.986 Y85.821 E5.07954
G1 X124.543 Y85.291 E5.1179
G1 X124.858 Y85.036 E5.13812
G1 X126.511 Y83.769 E5.24203
G1 X127.145 Y83.333 E5.28041
G1 X127.821 Y82.966 E5.31879
G1 X128.179 Y82.806 E5.33835
G1 X130.099 Y82.01 E5.44205
G1 X130.824 Y81.753 E5.48042
G1 X131.571 Y81.572 E5.51877
G1 X131.964 Y81.51 E5.53862
G1 X134.031 Y81.237 E5.64264
G1 X134.798 Y81.176 E5.68102
G1 X135.567 Y81.195 E5.7194
G1 X135.969 Y81.237 E5.73957
G1 X138.036 Y81.51 E5.84358
G1 X138.792 Y81.65 E5.88194
G1 X139.53 Y81.868 E5.92033
G1 X139.901 Y82.01 E5.94015
G1 X141.821 Y82.806 E6.04385
G1 X142.515 Y83.137 E6.08221
G1 X143.171 Y83.539 E6.12059
G1 X143.489 Y83.769 E6.14017
G1 X145.142 Y85.036 E6.24408
G1 X145.727 Y85.535 E6.28244
G1 X146.257 Y86.092 E6.3208
G1 X146.513 Y86.407 E6.34105
G1 X147.781 Y88.061 E6.44503
G1 X148.216 Y88.695 E6.48339
G1 X148.584 Y89.37 E6.52174
G1 X148.745 Y89.732 E6.54151
G1 X149.54 Y91.652 E6.64518
G1 X149.797 Y92.377 E6.68356
G1 X149.977 Y93.125 E6.72194
G1 X150.039 Y93.514 E6.7416
G1 X150.312 Y95.58 E6.84556
G1 X150.373 Y96.346 E6.8839
G1 X150.354 Y97.115 E6.92228
G1 X150.312 Y97.518 E6.94249
G1 X150.039 Y99.585 E7.04651
G1 X149.899 Y100.341 E7.08487
G1 X149.681 Y101.079 E7.12326
G1 X149.54 Y101.448 E7.14297
G1 X148.745 Y103.367 E7.2466
G1 X148.414 Y104.062 E7.285
G1 X148.012 Y104.718 E7.32339
G1 X147.781 Y105.037 E7.34304
G1 X146.513 Y106.691 E7.44702
G1 X146.014 Y107.277 E7.48541
G1 X145.457 Y107.807 E7.52377
G1 X145.144 Y108.06 E7.54385
G1 X143.491 Y109.328 E7.64779
G1 X142.857 Y109.764 E7.68618
G1 X142.182 Y110.132 E7.72453
G1 X141.821 Y110.293 E7.74425
G1 X139.901 Y111.089 E7.84795
G1 X139.176 Y111.346 E7.88632
G1 X138.429 Y111.527 E7.92467
G1 X138.032 Y111.59 E7.94473
G1 X135.965 Y111.862 E8.04874
G1 X135.199 Y111.922 E8.08707
G1 X134.43 Y111.903 E8.12545
G1 X134.035 Y111.862 E8.14526
G1 X131.968 Y111.59 E8.24927
G1 X131.211 Y111.45 E8.28768
G1 X130.473 Y111.232 E8.32607
G1 X130.099 Y111.089 E8.34605
G1 X128.179 Y110.293 E8.44974
G1 X127.485 Y109.962 E8.4881
G1 X126.829 Y109.56 E8.52649
G1 X126.509 Y109.328 E8.54621
G1 X124.856 Y108.06 E8.65014
G1 X124.271 Y107.561 E8.6885
G1 X123.741 Y107.004 E8.72686
G1 X123.487 Y106.691 E8.74697
G1 X122.219 Y105.037 E8.85095
G1 X121.784 Y104.403 E8.88931
G1 X121.416 Y103.728 E8.92767
G1 X121.255 Y103.367 E8.94739
G1 X120.46 Y101.448 E9.05102
G1 X120.203 Y100.723 E9.08939
G1 X120.023 Y99.976 E9.12773
G1 X119.961 Y99.585 E9.14748
G1 X119.688 Y97.518 E9.2515
G1 X119.627 Y96.751 E9.28988
G1 X119.646 Y95.982 E9.32826
G1 X119.688 Y95.58 E9.34843
G1 X119.961 Y93.514 E9.45239
G1 X120.101 Y92.757 E9.4908
G1 X120.319 Y92.02 E9.52915
G1 X120.46 Y91.652 E9.54881
G1 X121.255 Y89.732 E9.65248
G1 X121.586 Y89.038 E9.69084
G1 X121.987 Y88.381 E9.72924
G1 X122.219 Y88.061 E9.74896
G0 F3600 X122.537 Y88.304
G1 F1800 X123.805 Y86.65 E9.85294
G1 X124.291 Y86.082 E9.89023
G1 X125.102 Y85.353 E9.94464
G1 X126.755 Y84.086 E10.04855
G1 X127.372 Y83.664 E10.08584
G1 X128.332 Y83.176 E10.13957
G1 X130.252 Y82.38 E10.24326
G1 X130.958 Y82.131 E10.28061
G1 X132.016 Y81.906 E10.33458
G1 X134.083 Y81.633 E10.43859
G1 X134.829 Y81.575 E10.47592
G1 X135.917 Y81.633 E10.53028
G1 X137.984 Y81.906 E10.6343
G1 X138.719 Y82.044 E10.67161
G1 X139.748 Y82.38 E10.72562
G1 X141.668 Y83.176 E10.82931
G1 X142.343 Y83.499 E10.86664
G1 X143.245 Y84.086 E10.92033
G1 X144.898 Y85.353 E11.02424
G1 X145.467 Y85.839 E11.06157
G1 X146.195 Y86.65 E11.11595
G1 X147.463 Y88.304 E11.21992
G1 X147.886 Y88.921 E11.25724
G1 X148.376 Y89.885 E11.31119
G1 X149.171 Y91.805 E11.41487
G1 X149.419 Y92.511 E11.4522
G1 X149.643 Y93.566 E11.50601
G1 X149.916 Y95.632 E11.60998
G1 X149.974 Y96.378 E11.64731
G1 X149.916 Y97.466 E11.70167
G1 X149.643 Y99.533 E11.80569
G1 X149.505 Y100.268 E11.843
G1 X149.17 Y101.295 E11.89689
G1 X148.375 Y103.214 E12.00052
G1 X148.052 Y103.889 E12.03785
G1 X147.463 Y104.794 E12.09172
G1 X146.195 Y106.448 E12.1957
G1 X145.709 Y107.016 E12.233
G1 X144.901 Y107.743 E12.28722
G1 X143.248 Y109.011 E12.39116
G1 X142.63 Y109.434 E12.42852
G1 X141.668 Y109.923 E12.48236
G1 X139.748 Y110.719 E12.58606
G1 X139.042 Y110.968 E12.62341
G1 X137.98 Y111.193 E12.67757
G1 X135.913 Y111.465 E12.78158
G1 X135.167 Y111.523 E12.81891
G1 X134.087 Y111.465 E12.87287
G1 X132.02 Y111.193 E12.97688
G1 X131.284 Y111.056 E13.01423
G1 X130.252 Y110.719 E13.06839
G1 X128.332 Y109.923 E13.17209
G1 X127.657 Y109.6 E13.20942
G1 X126.752 Y109.011 E13.26329
G1 X125.099 Y107.743 E13.36723
G1 X124.531 Y107.257 E13.40452
G1 X123.805 Y106.448 E13.45875
G1 X122.537 Y104.794 E13.56273
G1 X122.114 Y104.177 E13.60005
G1 X121.625 Y103.214 E13.65394
G1 X120.83 Y101.295 E13.75757
G1 X120.581 Y100.59 E13.79487
G1 X120.357 Y99.533 E13.84877
G1 X120.084 Y97.466 E13.95279
G1 X120.026 Y96.72 E13.99012
G1 X120.084 Y95.632 E14.04448
G1 X120.357 Y93.566 E14.14845
G1 X120.495 Y92.831 E14.18576
G1 X120.829 Y91.805 E14.23959
G1 X121.624 Y89.885 E14.34327
G1 X121.947 Y89.21 E14.3806
G1 X122.537 Y88.304 E14.43454
G0 F3600 X122.854 Y88.547
G1 F1800 X124.122 Y86.893 E14.53852
G1 X124.595 Y86.342 E14.57474
G1 X125.345 Y85.671 E14.62495
G1 X126.998 Y84.404 E14.72886
G1 X127.598 Y83.994 E14.76511
G1 X128.485 Y83.545 E14.81471
G1 X130.405 Y82.749 E14.91841
G1 X131.091 Y82.508 E14.95468
G1 X132.069 Y82.303 E15.00454
G1 X134.136 Y82.03 E15.10855
G1 X134.86 Y81.974 E15.14478
G1 X135.864 Y82.03 E15.19495
G1 X137.931 Y82.303 E15.29897
G1 X138.645 Y82.437 E15.33521
G1 X139.595 Y82.749 E15.3851
G1 X141.515 Y83.545 E15.48879
G1 X142.169 Y83.86 E15.52501
G1 X143.002 Y84.404 E15.57465
G1 X144.655 Y85.671 E15.67855
G1 X145.206 Y86.144 E15.71478
G1 X145.878 Y86.893 E15.76498
G1 X147.146 Y88.547 E15.86896
G1 X147.555 Y89.147 E15.90519
G1 X148.006 Y90.038 E15.95501
G1 X148.801 Y91.958 E16.05869
G1 X149.041 Y92.643 E16.0949
G1 X149.246 Y93.618 E16.14461
G1 X149.519 Y95.684 E16.24857
G1 X149.575 Y96.409 E16.28485
G1 X149.519 Y97.413 E16.33502
G1 X149.246 Y99.48 E16.43904
G1 X149.112 Y100.194 E16.47528
G1 X148.8 Y101.142 E16.52507
G1 X148.005 Y103.061 E16.6287
G1 X147.691 Y103.716 E16.66494
G1 X147.146 Y104.551 E16.71469
G1 X145.878 Y106.205 E16.81867
G1 X145.405 Y106.756 E16.8549
G1 X144.657 Y107.426 E16.90499
G1 X143.004 Y108.694 E17.00893
G1 X142.404 Y109.103 E17.04516
G1 X141.515 Y109.554 E17.09489
G1 X139.595 Y110.35 E17.19859
G1 X138.909 Y110.591 E17.23486
G1 X137.928 Y110.797 E17.28487
G1 X135.861 Y111.069 E17.38888
G1 X135.137 Y111.124 E17.42511
G1 X134.139 Y111.069 E17.47498
G1 X132.072 Y110.797 E17.57899
G1 X131.358 Y110.662 E17.61524
G1 X130.405 Y110.35 E17.66527
G1 X128.485 Y109.554 E17.76896
G1 X127.831 Y109.239 E17.80518
G1 X126.996 Y108.694 E17.85493
G1 X125.343 Y107.426 E17.95886
G1 X124.792 Y106.953 E17.99509
G1 X124.122 Y106.205 E18.04519
G1 X122.854 Y104.551 E18.14917
G1 X122.445 Y103.951 E18.1854
G1 X121.995 Y103.061 E18.23515
G1 X121.2 Y101.142 E18.33878
G1 X120.959 Y100.457 E18.37501
G1 X120.754 Y99.48 E18.42481
G1 X120.481 Y97.413 E18.52883
G1 X120.425 Y96.689 E18.56506
G1 X120.481 Y95.684 E18.61528
G1 X120.754 Y93.618 E18.71925
G1 X120.889 Y92.905 E18.75545
G1 X121.199 Y91.958 E18.80516
G1 X121.994 Y90.038 E18.90884
G1 X122.308 Y89.383 E18.94508
G1 X122.854 Y88.547 E18.99489
G0 F3600 X123.172 Y88.791
G1 F1800 X124.44 Y87.137 E19.09887
G1 X124.899 Y86.603 E19.134
G1 X125.588 Y85.988 E19.18008
G1 X127.241 Y84.721 E19.28399
G1 X127.823 Y84.325 E19.31911
G1 X128.639 Y83.915 E19.36467
G1 X130.559 Y83.119 E19.46836
G1 X131.223 Y82.886 E19.50347
G1 X132.121 Y82.699 E19.54923
G1 X134.188 Y82.426 E19.65325
G1 X134.89 Y82.374 E19.68837
G1 X135.812 Y82.426 E19.73444
G1 X137.879 Y82.699 E19.83846
G1 X138.57 Y82.831 E19.87356
G1 X139.441 Y83.119 E19.91932
G1 X141.361 Y83.915 E20.02302
G1 X141.995 Y84.221 E20.05814
G1 X142.759 Y84.721 E20.10369
G1 X144.412 Y85.988 E20.2076
G1 X144.945 Y86.448 E20.24273
G1 X145.56 Y87.137 E20.2888
G1 X146.828 Y88.791 E20.39278
G1 X147.224 Y89.373 E20.4279
G1 X147.636 Y90.191 E20.47359
G1 X148.431 Y92.111 E20.57727
G1 X148.663 Y92.776 E20.61241
G1 X148.85 Y93.671 E20.65802
G1 X149.123 Y95.737 E20.76199
G1 X149.175 Y96.439 E20.79711
G1 X149.123 Y97.361 E20.84318
G1 X148.85 Y99.428 E20.9472
G1 X148.718 Y100.119 E20.9823
G1 X148.431 Y100.989 E21.02801
G1 X147.636 Y102.908 E21.13164
G1 X147.33 Y103.542 E21.16676
G1 X146.828 Y104.307 E21.21241
G1 X145.56 Y105.961 E21.31638
G1 X145.101 Y106.495 E21.35151
G1 X144.414 Y107.108 E21.39745
G1 X142.761 Y108.376 E21.50139
G1 X142.179 Y108.772 E21.53651
G1 X141.361 Y109.184 E21.5822
G1 X139.441 Y109.98 E21.6859
G1 X138.777 Y110.213 E21.721
G1 X137.876 Y110.4 E21.76691
G1 X135.809 Y110.672 E21.87092
G1 X135.107 Y110.724 E21.90604
G1 X134.191 Y110.672 E21.95182
G1 X132.124 Y110.4 E22.05583
G1 X131.432 Y110.269 E22.09097
G1 X130.559 Y109.98 E22.13684
G1 X128.639 Y109.184 E22.24054
G1 X128.005 Y108.878 E22.27566
G1 X127.239 Y108.376 E22.32135
G1 X125.586 Y107.108 E22.42529
G1 X125.053 Y106.649 E22.46038
G1 X124.44 Y105.961 E22.50636
G1 X123.172 Y104.307 E22.61033
G1 X122.776 Y103.725 E22.64545
G1 X122.364 Y102.908 E22.6911
G1 X121.569 Y100.989 E22.79473
G1 X121.337 Y100.324 E22.82987
G1 X121.15 Y99.428 E22.87553
G1 X120.877 Y97.361 E22.97955
G1 X120.825 Y96.659 E23.01467
G1 X120.877 Y95.737 E23.06074
G1 X121.15 Y93.671 E23.16471
G1 X121.282 Y92.979 E23.19986
G1 X121.569 Y92.111 E23.24547
G1 X122.364 Y90.191 E23.34915
G1 X122.669 Y89.557 E23.38425
G1 X123.172 Y88.791 E23.42996
G0 F3600 X123.489 Y89.034
G1 F1800 X124.757 Y87.38 E23.53394
G1 X125.202 Y86.865 E23.5679
G1 X125.832 Y86.306 E23.60992
G1 X127.485 Y85.039 E23.71383
G1 X128.048 Y84.657 E23.74777
G1 X128.792 Y84.284 E23.78929
G1 X130.712 Y83.488 E23.89299
G1 X131.355 Y83.265 E23.92694
G1 X132.174 Y83.096 E23.96866
G1 X134.241 Y82.823 E24.07268
G1 X134.92 Y82.774 E24.10664
G1 X135.759 Y82.823 E24.14857
G1 X137.826 Y83.096 E24.25259
G1 X138.495 Y83.225 E24.28658
G1 X139.288 Y83.488 E24.32826
G1 X141.208 Y84.284 E24.43196
G1 X141.821 Y84.581 E24.46594
G1 X142.515 Y85.039 E24.50743
G1 X144.168 Y86.306 E24.61133
G1 X144.684 Y86.751 E24.64533
G1 X145.243 Y87.38 E24.68731
G1 X146.511 Y89.034 E24.79129
G1 X146.893 Y89.598 E24.82527
G1 X147.267 Y90.344 E24.8669
G1 X148.062 Y92.264 E24.97058
G1 X148.285 Y92.907 E25.00453
G1 X148.453 Y93.723 E25.0461
G1 X148.726 Y95.789 E25.15007
G1 X148.775 Y96.468 E25.18403
G1 X148.726 Y97.308 E25.22601
G1 X148.453 Y99.375 E25.33003
G1 X148.324 Y100.044 E25.36402
G1 X148.061 Y100.836 E25.40566
G1 X147.266 Y102.755 E25.50929
G1 X146.969 Y103.368 E25.54327
G1 X146.511 Y104.064 E25.58484
G1 X145.243 Y105.718 E25.68881
G1 X144.798 Y106.233 E25.72277
G1 X144.17 Y106.791 E25.76468
G1 X142.517 Y108.059 E25.86862
G1 X141.953 Y108.441 E25.9026
G1 X141.208 Y108.815 E25.94419
G1 X139.288 Y109.611 E26.04789
G1 X138.645 Y109.834 E26.08184
G1 X137.824 Y110.003 E26.12366
G1 X135.757 Y110.275 E26.22767
G1 X135.078 Y110.324 E26.26164
G1 X134.243 Y110.275 E26.30337
G1 X132.176 Y110.003 E26.40738
G1 X131.508 Y109.875 E26.44131
G1 X130.712 Y109.611 E26.48315
G1 X128.792 Y108.815 E26.58685
G1 X128.179 Y108.518 E26.62083
G1 X127.483 Y108.059 E26.66242
G1 X125.83 Y106.791 E26.76636
G1 X125.315 Y106.346 E26.80032
G1 X124.757 Y105.718 E26.84223
G1 X123.489 Y104.064 E26.94621
G1 X123.107 Y103.5 E26.98019
G1 X122.734 Y102.755 E27.02176
G1 X121.939 Y100.836 E27.12539
G1 X121.715 Y100.193 E27.15936
G1 X121.547 Y99.375 E27.20102
G1 X121.274 Y97.308 E27.30504
G1 X121.225 Y96.629 E27.339
G1 X121.274 Y95.789 E27.38098
G1 X121.547 Y93.723 E27.48495
G1 X121.676 Y93.055 E27.51889
G1 X121.938 Y92.264 E27.56046
G1 X122.733 Y90.344 E27.66414
G1 X123.03 Y89.731 E27.69812
G1 X123.489 Y89.034 E27.73976
G0 F3600 X123.806 Y89.278
G1 F1800 X125.074 Y87.624 E27.84374
G1 X125.505 Y87.127 E27.87656
G1 X126.075 Y86.623 E27.91452
G1 X127.728 Y85.356 E28.01842
G1 X128.273 Y84.989 E28.0512
G1 X128.945 Y84.654 E28.08866
G1 X130.865 Y83.858 E28.19236
G1 X131.486 Y83.643 E28.22515
G1 X132.226 Y83.492 E28.26283
G1 X134.293 Y83.219 E28.36684
G1 X134.948 Y83.173 E28.3996
G1 X135.707 Y83.219 E28.43754
G1 X137.774 Y83.492 E28.54156
G1 X138.419 Y83.618 E28.57434
G1 X139.135 Y83.858 E28.61202
G1 X141.055 Y84.654 E28.71571
G1 X141.646 Y84.942 E28.74851
G1 X142.272 Y85.356 E28.78596
G1 X143.925 Y86.623 E28.88986
G1 X144.421 Y87.054 E28.92265
G1 X144.926 Y87.624 E28.96064
G1 X146.194 Y89.278 E29.06462
G1 X146.561 Y89.822 E29.09736
G1 X146.897 Y90.497 E29.13497
G1 X147.692 Y92.417 E29.23865
G1 X147.906 Y93.038 E29.27142
G1 X148.056 Y93.776 E29.30899
G1 X148.329 Y95.842 E29.41296
G1 X148.376 Y96.497 E29.44572
G1 X148.33 Y97.256 E29.48366
G1 X148.057 Y99.323 E29.58768
G1 X147.931 Y99.968 E29.62046
G1 X147.692 Y100.683 E29.65808
G1 X146.897 Y102.602 E29.76171
G1 X146.609 Y103.192 E29.79446
