;FLAVOR:Marlin
;TIME:172
;Filament used: 0.199133m
;Layer height: 0.2
;MINX:144.417
;MINY:114.958
;MINZ:0.3
;MAXX:175.788
;MAXY:146.329
;MAXZ:2.9
;Generated with Cura_SteamEngine 4.8.0
M140 S60
M105
M190 S60
M104 S210
M105
M109 S210
M82 ;absolute extrusion mode
G28 ;Home
G1 Z15.0 F6000 ;Move the platform down 15mm
;Prime the extruder
G92 E0
G1 F200 E3
G92 E0
G92 E0
G92 E0
G1 F2400 E-6.5
;LAYER_COUNT:14
;LAYER:0
M107
G0 F3600 X148.332 Y120.319 Z0.3
;TYPE:SKIRT
G1 F2400 E0
G1 F1800 X148.844 Y119.717 E0.03943
G1 X149.414 Y119.17 E0.07884
G1 X149.778 Y118.873 E0.10228
G1 X151.413 Y117.62 E0.20505
G1 X152.064 Y117.172 E0.24447
G1 X152.756 Y116.792 E0.28386
G1 X153.173 Y116.605 E0.30666
G1 X155.073 Y115.818 E0.40926
G1 X155.817 Y115.553 E0.44867
G1 X156.584 Y115.365 E0.48806
G1 X157.037 Y115.291 E0.51096
G1 X159.081 Y115.021 E0.61383
G1 X159.868 Y114.958 E0.65321
G1 X160.657 Y114.974 E0.69259
G1 X161.123 Y115.021 E0.71595
G1 X163.167 Y115.291 E0.81881
G1 X163.944 Y115.434 E0.85823
G1 X164.702 Y115.655 E0.89762
G1 X165.131 Y115.818 E0.92052
G1 X167.031 Y116.605 E1.02312
G1 X167.744 Y116.943 E1.06248
G1 X168.42 Y117.353 E1.10193
G1 X168.791 Y117.62 E1.12473
G1 X170.426 Y118.873 E1.2275
G1 X171.027 Y119.384 E1.26686
G1 X171.574 Y119.954 E1.30627
G1 X171.872 Y120.319 E1.32978
G1 X173.126 Y121.955 E1.43262
G1 X173.574 Y122.605 E1.47201
G1 X173.954 Y123.297 E1.51139
G1 X174.141 Y123.714 E1.53419
G1 X174.928 Y125.613 E1.63675
G1 X175.193 Y126.357 E1.67615
G1 X175.381 Y127.124 E1.71555
G1 X175.455 Y127.581 E1.73865
G1 X175.724 Y129.625 E1.8415
G1 X175.788 Y130.412 E1.88089
G1 X175.771 Y131.202 E1.92032
G1 X175.724 Y131.661 E1.94334
G1 X175.455 Y133.705 E2.04619
G1 X175.313 Y134.481 E2.08555
G1 X175.092 Y135.24 E2.12499
G1 X174.928 Y135.673 E2.14809
G1 X174.141 Y137.572 E2.25064
G1 X173.802 Y138.286 E2.29008
G1 X173.393 Y138.961 E2.32945
G1 X173.126 Y139.331 E2.35221
G1 X171.872 Y140.967 E2.45505
G1 X171.36 Y141.569 E2.49448
G1 X170.79 Y142.116 E2.53389
G1 X170.426 Y142.413 E2.55733
G1 X168.791 Y143.666 E2.6601
G1 X168.14 Y144.114 E2.69953
G1 X167.448 Y144.494 E2.73892
G1 X167.034 Y144.68 E2.76156
G1 X165.134 Y145.468 E2.86418
G1 X164.39 Y145.733 E2.90358
G1 X163.624 Y145.922 E2.94294
G1 X163.164 Y145.996 E2.96619
G1 X161.12 Y146.265 E3.06904
G1 X160.333 Y146.329 E3.10844
G1 X159.543 Y146.312 E3.14786
G1 X159.084 Y146.265 E3.17088
G1 X157.04 Y145.996 E3.27373
G1 X156.264 Y145.854 E3.31309
G1 X155.505 Y145.633 E3.35253
G1 X155.07 Y145.468 E3.37574
G1 X153.17 Y144.68 E3.47836
G1 X152.457 Y144.341 E3.51775
G1 X151.781 Y143.931 E3.55719
G1 X151.413 Y143.666 E3.57982
G1 X149.778 Y142.413 E3.68259
G1 X149.177 Y141.902 E3.72194
G1 X148.63 Y141.332 E3.76136
G1 X148.332 Y140.967 E3.78487
G1 X147.078 Y139.331 E3.8877
G1 X146.63 Y138.681 E3.92709
G1 X146.25 Y137.989 E3.96648
G1 X146.062 Y137.569 E3.98943
G1 X145.276 Y135.67 E4.09197
G1 X145.011 Y134.926 E4.13137
G1 X144.823 Y134.159 E4.17077
G1 X144.75 Y133.708 E4.19356
G1 X144.48 Y131.664 E4.29643
G1 X144.417 Y130.877 E4.33582
G1 X144.433 Y130.088 E4.37519
G1 X144.48 Y129.622 E4.39855
G1 X144.75 Y127.578 E4.50141
G1 X144.893 Y126.801 E4.54083
G1 X145.114 Y126.043 E4.58022
G1 X145.276 Y125.616 E4.60301
G1 X146.062 Y123.717 E4.70554
G1 X146.4 Y123.004 E4.74491
G1 X146.809 Y122.328 E4.78433
G1 X147.078 Y121.955 E4.80727
G1 X148.332 Y120.319 E4.91011
G0 F3600 X148.65 Y120.562
G1 F1800 X149.149 Y119.977 E4.94847
G1 X149.706 Y119.447 E4.98683
G1 X150.022 Y119.19 E5.00715
G1 X151.657 Y117.937 E5.10992
G1 X152.291 Y117.502 E5.14828
G1 X152.966 Y117.135 E5.18661
G1 X153.326 Y116.974 E5.20629
G1 X155.226 Y116.187 E5.30889
G1 X155.951 Y115.93 E5.34726
G1 X156.699 Y115.75 E5.38565
G1 X157.089 Y115.688 E5.40535
G1 X159.133 Y115.418 E5.50821
G1 X159.9 Y115.357 E5.5466
G1 X160.669 Y115.376 E5.58497
G1 X161.071 Y115.418 E5.60514
G1 X163.115 Y115.688 E5.708
G1 X163.871 Y115.828 E5.74636
G1 X164.609 Y116.046 E5.78475
G1 X164.978 Y116.187 E5.80446
G1 X166.878 Y116.974 E5.90706
G1 X167.572 Y117.305 E5.94542
G1 X168.228 Y117.706 E5.98378
G1 X168.547 Y117.937 E6.00343
G1 X170.182 Y119.19 E6.1062
G1 X170.768 Y119.689 E6.1446
G1 X171.298 Y120.246 E6.18295
G1 X171.554 Y120.562 E6.20324
G1 X172.808 Y122.198 E6.30608
G1 X173.244 Y122.832 E6.34447
G1 X173.611 Y123.508 E6.38285
G1 X173.771 Y123.867 E6.40246
G1 X174.558 Y125.766 E6.50501
G1 X174.815 Y126.491 E6.54339
G1 X174.996 Y127.238 E6.58173
G1 X175.059 Y127.633 E6.60169
G1 X175.328 Y129.677 E6.70454
G1 X175.388 Y130.444 E6.74293
G1 X175.369 Y131.213 E6.7813
G1 X175.328 Y131.609 E6.80117
G1 X175.059 Y133.653 E6.90402
G1 X174.919 Y134.409 E6.94238
G1 X174.701 Y135.147 E6.98077
G1 X174.558 Y135.52 E7.0007
G1 X173.771 Y137.419 E7.10326
G1 X173.44 Y138.113 E7.14162
G1 X173.039 Y138.77 E7.18002
G1 X172.808 Y139.088 E7.19963
G1 X171.554 Y140.724 E7.30246
G1 X171.055 Y141.309 E7.34083
G1 X170.498 Y141.839 E7.37918
G1 X170.182 Y142.096 E7.39951
G1 X168.547 Y143.349 E7.50228
G1 X167.913 Y143.784 E7.54063
G1 X167.238 Y144.151 E7.57897
G1 X166.881 Y144.31 E7.59846
G1 X164.981 Y145.098 E7.70108
G1 X164.256 Y145.356 E7.73948
G1 X163.508 Y145.536 E7.77786
G1 X163.112 Y145.6 E7.79787
G1 X161.068 Y145.869 E7.90073
G1 X160.301 Y145.929 E7.93911
G1 X159.532 Y145.91 E7.97749
G1 X159.136 Y145.869 E7.99735
G1 X157.092 Y145.6 E8.1002
G1 X156.336 Y145.46 E8.13856
G1 X155.598 Y145.242 E8.17695
G1 X155.223 Y145.098 E8.197
G1 X153.323 Y144.31 E8.29962
G1 X152.629 Y143.979 E8.33798
G1 X151.973 Y143.578 E8.37633
G1 X151.657 Y143.349 E8.3958
G1 X150.022 Y142.096 E8.49857
G1 X149.436 Y141.597 E8.53697
G1 X148.906 Y141.04 E8.57533
G1 X148.65 Y140.724 E8.59562
G1 X147.396 Y139.088 E8.69846
G1 X146.96 Y138.454 E8.73685
G1 X146.593 Y137.778 E8.77522
G1 X146.432 Y137.416 E8.79499
G1 X145.646 Y135.517 E8.89753
G1 X145.389 Y134.792 E8.9359
G1 X145.209 Y134.044 E8.97428
G1 X145.147 Y133.656 E8.99389
G1 X144.877 Y131.612 E9.09675
G1 X144.816 Y130.845 E9.13514
G1 X144.835 Y130.076 E9.17351
G1 X144.877 Y129.674 E9.19368
G1 X145.147 Y127.63 E9.29654
G1 X145.287 Y126.874 E9.3349
G1 X145.505 Y126.136 E9.37329
G1 X145.646 Y125.769 E9.3929
G1 X146.432 Y123.87 E9.49544
G1 X146.762 Y123.176 E9.53378
G1 X147.163 Y122.519 E9.57218
G1 X147.396 Y122.198 E9.59197
G1 X148.65 Y120.562 E9.69481
G0 F3600 X148.967 Y120.806
G1 F1800 X149.453 Y120.237 E9.73214
G1 X150.265 Y119.508 E9.78658
G1 X151.9 Y118.255 E9.88935
G1 X152.517 Y117.832 E9.92667
G1 X153.479 Y117.344 E9.98049
G1 X155.379 Y116.557 E10.08309
G1 X156.085 Y116.308 E10.12044
G1 X157.141 Y116.084 E10.1743
G1 X159.185 Y115.814 E10.27716
G1 X159.931 Y115.756 E10.31449
G1 X161.019 Y115.814 E10.36885
G1 X163.063 Y116.084 E10.47171
G1 X163.798 Y116.222 E10.50902
G1 X164.825 Y116.557 E10.56291
G1 X166.725 Y117.344 E10.66551
G1 X167.4 Y117.667 E10.70285
G1 X168.304 Y118.255 E10.75665
G1 X169.939 Y119.508 E10.85942
G1 X170.508 Y119.994 E10.89675
G1 X171.237 Y120.806 E10.95119
G1 X172.491 Y122.442 E11.05403
G1 X172.913 Y123.059 E11.09132
G1 X173.402 Y124.02 E11.14512
G1 X174.189 Y125.919 E11.24767
G1 X174.438 Y126.624 E11.28498
G1 X174.662 Y127.686 E11.33913
G1 X174.931 Y129.73 E11.44198
G1 X174.989 Y130.475 E11.47926
G1 X174.931 Y131.556 E11.53327
G1 X174.662 Y133.6 E11.63612
G1 X174.525 Y134.336 E11.67347
G1 X174.189 Y135.367 E11.72757
G1 X173.402 Y137.266 E11.83013
G1 X173.079 Y137.941 E11.86746
G1 X172.491 Y138.844 E11.92122
G1 X171.237 Y140.48 E12.02406
G1 X170.751 Y141.049 E12.06139
G1 X169.939 Y141.778 E12.11584
G1 X168.304 Y143.031 E12.21861
G1 X167.687 Y143.454 E12.25593
G1 X166.728 Y143.941 E12.30959
G1 X164.828 Y144.729 E12.41221
G1 X164.122 Y144.978 E12.44956
G1 X163.059 Y145.203 E12.50377
G1 X161.015 Y145.472 E12.60662
G1 X160.27 Y145.53 E12.6439
G1 X159.189 Y145.472 E12.69791
G1 X157.145 Y145.203 E12.80076
G1 X156.409 Y145.066 E12.83811
G1 X155.376 Y144.729 E12.89232
G1 X153.476 Y143.941 E12.99495
G1 X152.802 Y143.618 E13.03223
G1 X151.9 Y143.031 E13.08592
G1 X150.265 Y141.778 E13.18869
G1 X149.696 Y141.292 E13.22603
G1 X148.967 Y140.48 E13.28047
G1 X147.713 Y138.844 E13.38331
G1 X147.291 Y138.227 E13.4206
G1 X146.801 Y137.263 E13.47455
G1 X146.015 Y135.364 E13.57709
G1 X145.766 Y134.659 E13.61439
G1 X145.543 Y133.604 E13.66819
G1 X145.273 Y131.56 E13.77105
G1 X145.215 Y130.814 E13.80838
G1 X145.273 Y129.726 E13.86274
G1 X145.543 Y127.682 E13.9656
G1 X145.681 Y126.947 E14.00291
G1 X146.015 Y125.922 E14.05669
G1 X146.801 Y124.023 E14.15923
G1 X147.124 Y123.348 E14.19656
G1 X147.713 Y122.442 E14.25047
G1 X148.967 Y120.806 E14.35331
G0 F3600 X149.285 Y121.049
G1 F1800 X149.758 Y120.498 E14.38954
G1 X150.508 Y119.825 E14.43982
G1 X152.143 Y118.572 E14.54258
G1 X152.743 Y118.163 E14.57881
G1 X153.632 Y117.713 E14.62852
G1 X155.532 Y116.926 E14.73112
G1 X156.218 Y116.686 E14.76738
G1 X157.194 Y116.481 E14.81714
G1 X159.238 Y116.211 E14.92
G1 X159.962 Y116.155 E14.95623
G1 X160.966 Y116.211 E15.0064
G1 X163.01 Y116.481 E15.10926
G1 X163.724 Y116.615 E15.1455
G1 X164.672 Y116.926 E15.19528
G1 X166.572 Y117.713 E15.29788
G1 X167.226 Y118.028 E15.33409
G1 X168.061 Y118.572 E15.38381
G1 X169.696 Y119.825 E15.48658
G1 X170.247 Y120.298 E15.52281
G1 X170.919 Y121.049 E15.57309
G1 X172.173 Y122.685 E15.67593
G1 X172.583 Y123.285 E15.71218
G1 X173.032 Y124.173 E15.76183
G1 X173.819 Y126.072 E15.86438
G1 X174.06 Y126.757 E15.90061
G1 X174.266 Y127.738 E15.95062
G1 X174.535 Y129.782 E16.05348
G1 X174.59 Y130.506 E16.0897
G1 X174.535 Y131.504 E16.13957
G1 X174.266 Y133.548 E16.24242
G1 X174.131 Y134.262 E16.27867
G1 X173.819 Y135.214 E16.32865
G1 X173.032 Y137.113 E16.43121
G1 X172.718 Y137.768 E16.46745
G1 X172.173 Y138.601 E16.51711
G1 X170.919 Y140.237 E16.61995
G1 X170.446 Y140.788 E16.65618
G1 X169.696 Y141.461 E16.70645
G1 X168.061 Y142.714 E16.80922
G1 X167.461 Y143.123 E16.84545
G1 X166.574 Y143.571 E16.89503
G1 X164.674 Y144.359 E16.99765
G1 X163.989 Y144.6 E17.03388
G1 X163.007 Y144.807 E17.08394
G1 X160.963 Y145.076 E17.1868
G1 X160.239 Y145.131 E17.22302
G1 X159.241 Y145.076 E17.27289
G1 X157.197 Y144.807 E17.37574
G1 X156.483 Y144.672 E17.412
G1 X155.53 Y144.359 E17.46204
G1 X153.63 Y143.571 E17.56466
G1 X152.975 Y143.257 E17.6009
G1 X152.143 Y142.714 E17.65047
G1 X150.508 Y141.461 E17.75324
G1 X149.957 Y140.988 E17.78947
G1 X149.285 Y140.237 E17.83974
G1 X148.031 Y138.601 E17.94258
G1 X147.621 Y138.001 E17.97884
G1 X147.171 Y137.11 E18.02864
G1 X146.385 Y135.211 E18.13117
G1 X146.144 Y134.526 E18.1674
G1 X145.94 Y133.551 E18.2171
G1 X145.67 Y131.507 E18.31996
G1 X145.614 Y130.783 E18.35619
G1 X145.67 Y129.779 E18.40636
G1 X145.94 Y127.735 E18.50922
G1 X146.074 Y127.021 E18.54546
G1 X146.385 Y126.075 E18.59514
G1 X147.171 Y124.176 E18.69768
G1 X147.485 Y123.521 E18.73392
G1 X148.031 Y122.685 E18.78373
G1 X149.285 Y121.049 E18.88657
G0 F3600 X149.602 Y121.292
G1 F1800 X150.062 Y120.759 E18.9217
G1 X150.752 Y120.143 E18.96784
G1 X152.387 Y118.89 E19.07061
G1 X152.969 Y118.494 E19.10573
G1 X153.785 Y118.083 E19.15132
G1 X155.685 Y117.296 E19.25392
G1 X156.35 Y117.064 E19.28906
G1 X157.246 Y116.877 E19.33472
G1 X159.29 Y116.607 E19.43758
G1 X159.992 Y116.555 E19.4727
G1 X160.914 Y116.607 E19.51877
G1 X162.958 Y116.877 E19.62163
G1 X163.649 Y117.009 E19.65673
G1 X164.519 Y117.296 E19.70244
G1 X166.419 Y118.083 E19.80504
G1 X167.053 Y118.389 E19.84016
G1 X167.817 Y118.89 E19.88574
G1 X169.452 Y120.143 E19.98851
G1 X169.986 Y120.602 E20.02364
G1 X170.602 Y121.292 E20.06979
G1 X171.856 Y122.928 E20.17263
G1 X172.252 Y123.51 E20.20775
G1 X172.663 Y124.326 E20.25333
G1 X173.45 Y126.225 E20.35588
G1 X173.682 Y126.89 E20.39102
G1 X173.869 Y127.79 E20.43688
G1 X174.138 Y129.834 E20.53974
G1 X174.19 Y130.536 E20.57486
G1 X174.138 Y131.452 E20.62063
G1 X173.869 Y133.496 E20.72348
G1 X173.738 Y134.188 E20.75862
G1 X173.45 Y135.061 E20.80448
G1 X172.663 Y136.96 E20.90704
G1 X172.357 Y137.594 E20.94216
G1 X171.856 Y138.358 E20.98774
G1 X170.602 Y139.994 E21.09058
G1 X170.142 Y140.527 E21.12571
G1 X169.452 Y141.143 E21.17185
G1 X167.817 Y142.396 E21.27462
G1 X167.235 Y142.792 E21.30974
G1 X166.421 Y143.202 E21.35521
G1 X164.521 Y143.99 E21.45783
G1 X163.857 Y144.222 E21.49293
G1 X162.955 Y144.41 E21.53889
G1 X160.911 Y144.679 E21.64175
G1 X160.209 Y144.731 E21.67687
G1 X159.293 Y144.679 E21.72264
G1 X157.249 Y144.41 E21.8255
G1 X156.557 Y144.279 E21.86063
G1 X155.683 Y143.99 E21.90656
G1 X153.783 Y143.202 E22.00918
G1 X153.149 Y142.896 E22.0443
G1 X152.387 Y142.396 E22.08977
G1 X150.752 Y141.143 E22.19254
G1 X150.218 Y140.684 E22.22767
G1 X149.602 Y139.994 E22.27382
G1 X148.348 Y138.358 E22.37666
G1 X147.952 Y137.776 E22.41178
G1 X147.54 Y136.957 E22.45752
G1 X146.754 Y135.058 E22.56005
G1 X146.522 Y134.393 E22.59519
G1 X146.336 Y133.499 E22.64075
G1 X146.066 Y131.455 E22.74361
G1 X146.014 Y130.753 E22.77873
G1 X146.066 Y129.831 E22.8248
G1 X146.336 Y127.787 E22.92766
G1 X146.468 Y127.096 E22.96276
G1 X146.754 Y126.228 E23.00835
G1 X147.54 Y124.329 E23.11089
G1 X147.846 Y123.695 E23.14601
G1 X148.348 Y122.928 E23.19174
G1 X149.602 Y121.292 E23.29458
G0 F3600 X149.92 Y121.536
G1 F1800 X150.365 Y121.02 E23.32858
G1 X150.995 Y120.46 E23.37063
G1 X152.63 Y119.207 E23.4734
G1 X153.194 Y118.826 E23.50736
G1 X153.938 Y118.452 E23.5489
G1 X155.838 Y117.665 E23.6515
G1 X156.482 Y117.442 E23.6855
G1 X157.298 Y117.274 E23.72707
G1 X159.342 Y117.004 E23.82993
G1 X160.022 Y116.955 E23.86394
G1 X160.862 Y117.004 E23.90592
G1 X162.906 Y117.274 E24.00878
G1 X163.574 Y117.403 E24.04272
G1 X164.366 Y117.665 E24.08434
G1 X166.266 Y118.452 E24.18694
G1 X166.878 Y118.75 E24.2209
G1 X167.574 Y119.207 E24.26244
G1 X169.209 Y120.46 E24.36521
G1 X169.724 Y120.906 E24.3992
G1 X170.284 Y121.536 E24.44126
G1 X171.538 Y123.172 E24.5441
G1 X171.92 Y123.735 E24.57804
G1 X172.293 Y124.479 E24.61956
G1 X173.08 Y126.378 E24.72212
G1 X173.303 Y127.022 E24.75612
G1 X173.472 Y127.842 E24.79789
G1 X173.741 Y129.886 E24.90074
G1 X173.79 Y130.565 E24.93471
G1 X173.741 Y131.4 E24.97644
G1 X173.472 Y133.444 E25.07929
G1 X173.344 Y134.112 E25.11322
G1 X173.08 Y134.908 E25.15506
G1 X172.293 Y136.807 E25.25762
G1 X171.996 Y137.419 E25.29156
G1 X171.538 Y138.114 E25.33308
G1 X170.284 Y139.75 E25.43592
G1 X169.839 Y140.266 E25.46992
G1 X169.209 Y140.826 E25.51197
G1 X167.574 Y142.079 E25.61474
G1 X167.01 Y142.46 E25.64869
G1 X166.268 Y142.833 E25.69013
G1 X164.368 Y143.621 E25.79275
G1 X163.725 Y143.844 E25.8267
G1 X162.903 Y144.013 E25.86857
G1 X160.859 Y144.282 E25.97142
G1 X160.18 Y144.331 E26.00539
G1 X159.345 Y144.282 E26.04712
G1 X157.301 Y144.013 E26.14997
G1 X156.633 Y143.885 E26.18391
G1 X155.836 Y143.621 E26.22579
G1 X153.936 Y142.833 E26.32841
G1 X153.324 Y142.535 E26.36237
G1 X152.63 Y142.079 E26.4038
G1 X150.995 Y140.826 E26.50657
G1 X150.48 Y140.38 E26.54056
G1 X149.92 Y139.75 E26.58261
G1 X148.666 Y138.114 E26.68545
G1 X148.284 Y137.551 E26.7194
G1 X147.91 Y136.804 E26.76107
G1 X147.124 Y134.905 E26.86361
G1 X146.901 Y134.262 E26.89756
G1 X146.733 Y133.447 E26.93908
G1 X146.463 Y131.403 E27.04194
G1 X146.414 Y130.723 E27.07595
G1 X146.463 Y129.883 E27.11793
G1 X146.733 Y127.839 E27.2208
G1 X146.862 Y127.171 E27.25474
G1 X147.124 Y126.381 E27.29626
G1 X147.91 Y124.482 E27.3988
G1 X148.207 Y123.869 E27.43278
G1 X148.666 Y123.172 E27.47442
G1 X149.92 Y121.536 E27.57726
G0 F3600 X150.237 Y121.779
G1 F1800 X150.668 Y121.283 E27.61004
G1 X151.238 Y120.778 E27.64803
G1 X152.873 Y119.525 E27.7508
G1 X153.418 Y119.158 E27.78358
G1 X154.092 Y118.822 E27.82115
G1 X155.992 Y118.035 E27.92376
G1 X156.613 Y117.821 E27.95653
G1 X157.351 Y117.671 E27.9941
G1 X159.395 Y117.401 E28.09696
G1 X160.05 Y117.354 E28.12972
G1 X160.809 Y117.401 E28.16766
G1 X162.853 Y117.671 E28.27052
G1 X163.498 Y117.796 E28.3033
G1 X164.212 Y118.035 E28.34086
G1 X166.112 Y118.822 E28.44347
G1 X166.703 Y119.11 E28.47627
G1 X167.331 Y119.525 E28.51382
G1 X168.966 Y120.778 E28.61659
G1 X169.462 Y121.208 E28.64934
G1 X169.967 Y121.779 E28.68737
G1 X171.221 Y123.415 E28.79021
G1 X171.588 Y123.96 E28.82299
G1 X171.924 Y124.633 E28.86052
G1 X172.711 Y126.532 E28.96307
G1 X172.925 Y127.153 E28.99584
G1 X173.076 Y127.894 E29.03357
