;FLAVOR:Marlin
;TIME:1391
;Filament used: 1.49345m
;Layer height: 0.2
;MINX:127.643
;MINY:90.137
;MINZ:0.3
;MAXX:201.879
;MAXY:142.627
;MAXZ:4.7
;Generated with Cura_SteamEngine 4.8.0
M140 S60
M105
M190 S60
M104 S210
M105
M109 S210
M82 ;absolute extrusion mode
G28 ;Home
G1 Z15.0 F6000 ;Move the platform down 15mm
;Prime the extruder
G92 E0
G1 F200 E3
G92 E0
G92 E0
G92 E0
G1 F2400 E-6.5
;LAYER_COUNT:23
;LAYER:0
M107
G0 F3600 X130.318 Y97.258 Z0.3
;TYPE:SKIRT
G1 F2400 E0
G1 F1800 X131.587 Y95.604 E0.10401
G1 X132.098 Y95.003 E0.14336
G1 X132.668 Y94.456 E0.18278
G1 X133.028 Y94.163 E0.20594
G1 X134.681 Y92.895 E0.30987
G1 X135.331 Y92.447 E0.34926
G1 X136.023 Y92.067 E0.38864
G1 X136.441 Y91.879 E0.41151
G1 X138.361 Y91.083 E0.51521
G1 X139.105 Y90.818 E0.55461
G1 X139.871 Y90.629 E0.59397
G1 X140.33 Y90.555 E0.61717
G1 X142.397 Y90.283 E0.72118
G1 X143.185 Y90.219 E0.76062
G1 X143.974 Y90.236 E0.79999
G1 X144.433 Y90.283 E0.82301
G1 X146.499 Y90.555 E0.92698
G1 X147.276 Y90.697 E0.96638
G1 X148.034 Y90.918 E1.00577
G1 X148.467 Y91.082 E1.02887
G1 X150.388 Y91.878 E1.13261
G1 X151.101 Y92.217 E1.172
G1 X151.777 Y92.626 E1.21142
G1 X152.149 Y92.895 E1.23432
G1 X153.802 Y94.163 E1.33826
G1 X154.273 Y94.563 E1.36909
G1 X154.828 Y94.083 E1.4057
G1 X156.48 Y92.815 E1.5096
G1 X157.13 Y92.366 E1.54901
G1 X157.822 Y91.986 E1.5884
G1 X158.243 Y91.796 E1.61144
G1 X160.164 Y91 E1.71518
G1 X160.908 Y90.735 E1.75458
G1 X161.675 Y90.547 E1.79398
G1 X162.132 Y90.473 E1.81708
G1 X164.198 Y90.201 E1.92104
G1 X164.985 Y90.137 E1.96043
G1 X165.775 Y90.154 E1.99986
G1 X166.234 Y90.201 E2.02288
G1 X168.301 Y90.473 E2.12689
G1 X169.077 Y90.615 E2.16625
G1 X169.836 Y90.836 E2.20568
G1 X170.27 Y91.001 E2.22885
G1 X172.19 Y91.797 E2.33254
G1 X172.903 Y92.136 E2.37193
G1 X173.579 Y92.545 E2.41135
G1 X173.95 Y92.813 E2.43418
G1 X175.603 Y94.081 E2.53812
G1 X176.09 Y94.495 E2.57001
G1 X177.372 Y93.512 E2.65061
G1 X178.022 Y93.064 E2.68999
G1 X178.714 Y92.684 E2.72938
G1 X179.133 Y92.495 E2.75231
G1 X181.054 Y91.699 E2.85605
G1 X181.798 Y91.434 E2.89546
G1 X182.565 Y91.246 E2.93485
G1 X183.018 Y91.172 E2.95775
G1 X185.084 Y90.899 E3.06172
G1 X185.871 Y90.836 E3.10111
G1 X186.661 Y90.852 E3.14053
G1 X187.127 Y90.899 E3.1639
G1 X189.194 Y91.172 E3.26792
G1 X189.971 Y91.315 E3.30733
G1 X190.729 Y91.536 E3.34673
G1 X191.16 Y91.7 E3.36973
G1 X193.08 Y92.496 E3.47343
G1 X193.793 Y92.835 E3.51281
G1 X194.469 Y93.244 E3.55223
G1 X194.84 Y93.512 E3.57507
G1 X196.493 Y94.78 E3.679
G1 X197.095 Y95.292 E3.71843
G1 X197.641 Y95.862 E3.75781
G1 X197.933 Y96.219 E3.78082
G1 X199.202 Y97.872 E3.88479
G1 X199.651 Y98.522 E3.9242
G1 X200.031 Y99.214 E3.96359
G1 X200.222 Y99.638 E3.98679
G1 X201.017 Y101.558 E4.09046
G1 X201.281 Y102.302 E4.12985
G1 X201.47 Y103.069 E4.16926
G1 X201.543 Y103.524 E4.19225
G1 X201.815 Y105.59 E4.29621
G1 X201.879 Y106.377 E4.33561
G1 X201.862 Y107.167 E4.37503
G1 X201.815 Y107.626 E4.39805
G1 X201.543 Y109.693 E4.50206
G1 X201.401 Y110.469 E4.54142
G1 X201.18 Y111.228 E4.58086
G1 X201.016 Y111.66 E4.60391
G1 X200.221 Y113.579 E4.70754
G1 X199.882 Y114.293 E4.74697
G1 X199.473 Y114.968 E4.78635
G1 X199.203 Y115.342 E4.80936
G1 X197.934 Y116.996 E4.91337
G1 X197.423 Y117.597 E4.95273
G1 X197.374 Y117.644 E4.95611
G1 X197.74 Y118.12 E4.98607
G1 X198.189 Y118.77 E5.02548
G1 X198.569 Y119.462 E5.06487
G1 X198.759 Y119.884 E5.08796
G1 X199.554 Y121.804 E5.19164
G1 X199.818 Y122.548 E5.23102
G1 X200.007 Y123.315 E5.27043
G1 X200.08 Y123.77 E5.29342
G1 X200.352 Y125.836 E5.39738
G1 X200.416 Y126.623 E5.43678
G1 X200.399 Y127.413 E5.4762
G1 X200.352 Y127.872 E5.49922
G1 X200.08 Y129.939 E5.60323
G1 X199.938 Y130.715 E5.64259
G1 X199.717 Y131.474 E5.68203
G1 X199.553 Y131.906 E5.70508
G1 X198.758 Y133.825 E5.80871
G1 X198.419 Y134.539 E5.84814
G1 X198.01 Y135.214 E5.88752
G1 X197.74 Y135.588 E5.91053
G1 X196.471 Y137.242 E6.01454
G1 X195.96 Y137.843 E6.0539
G1 X195.39 Y138.39 E6.09331
G1 X195.03 Y138.683 E6.11647
G1 X193.377 Y139.951 E6.22041
G1 X192.727 Y140.399 E6.25979
G1 X192.035 Y140.779 E6.29918
G1 X191.617 Y140.967 E6.32204
G1 X189.697 Y141.763 E6.42574
G1 X188.953 Y142.028 E6.46514
G1 X188.187 Y142.217 E6.5045
G1 X187.728 Y142.291 E6.5277
G1 X185.661 Y142.563 E6.63171
G1 X184.873 Y142.627 E6.67115
G1 X184.084 Y142.61 E6.71053
G1 X183.625 Y142.563 E6.73355
G1 X181.559 Y142.291 E6.83751
G1 X180.782 Y142.149 E6.87692
G1 X180.024 Y141.928 E6.91631
G1 X179.591 Y141.764 E6.93941
G1 X177.67 Y140.968 E7.04315
G1 X176.957 Y140.629 E7.08254
G1 X176.281 Y140.22 E7.12195
G1 X175.909 Y139.951 E7.14486
G1 X174.309 Y138.724 E7.24545
G1 X173.485 Y139.356 E7.29726
G1 X172.835 Y139.804 E7.33664
G1 X172.143 Y140.184 E7.37603
G1 X171.724 Y140.373 E7.39896
G1 X169.803 Y141.169 E7.50271
G1 X169.059 Y141.434 E7.54211
G1 X168.292 Y141.622 E7.58151
G1 X167.835 Y141.696 E7.6046
G1 X165.769 Y141.968 E7.70857
G1 X164.982 Y142.032 E7.74796
G1 X164.192 Y142.015 E7.78738
G1 X163.733 Y141.968 E7.8104
G1 X161.666 Y141.696 E7.91441
G1 X160.89 Y141.554 E7.95377
G1 X160.131 Y141.333 E7.99321
G1 X159.697 Y141.168 E8.01637
G1 X157.777 Y140.372 E8.12007
G1 X157.064 Y140.033 E8.15946
G1 X156.388 Y139.624 E8.19887
G1 X156.017 Y139.356 E8.22171
G1 X154.364 Y138.088 E8.32565
G1 X153.762 Y137.576 E8.36507
G1 X153.72 Y137.532 E8.36811
G1 X152.666 Y138.341 E8.4344
G1 X152.016 Y138.79 E8.47381
G1 X151.324 Y139.17 E8.5132
G1 X150.905 Y139.358 E8.53611
G1 X148.984 Y140.154 E8.63985
G1 X148.24 Y140.419 E8.67925
G1 X147.473 Y140.607 E8.71865
G1 X147.02 Y140.681 E8.74155
G1 X144.954 Y140.954 E8.84552
G1 X144.167 Y141.017 E8.88491
G1 X143.377 Y141.001 E8.92433
G1 X142.911 Y140.954 E8.9477
G1 X140.844 Y140.681 E9.05171
G1 X140.067 Y140.538 E9.09113
G1 X139.309 Y140.317 E9.13052
G1 X138.878 Y140.153 E9.15353
G1 X136.958 Y139.357 E9.25722
G1 X136.245 Y139.018 E9.29661
G1 X135.569 Y138.609 E9.33603
G1 X135.2 Y138.343 E9.35872
G1 X133.547 Y137.076 E9.46263
G1 X132.945 Y136.564 E9.50206
G1 X132.398 Y135.994 E9.54147
G1 X132.104 Y135.633 E9.5647
G1 X130.835 Y133.979 E9.66871
G1 X130.386 Y133.329 E9.70812
G1 X130.006 Y132.637 E9.74751
G1 X129.816 Y132.215 E9.7706
G1 X129.021 Y130.295 E9.87427
G1 X128.757 Y129.551 E9.91366
G1 X128.568 Y128.784 E9.95307
G1 X128.495 Y128.329 E9.97606
G1 X128.223 Y126.263 E10.08002
G1 X128.159 Y125.476 E10.11941
G1 X128.176 Y124.686 E10.15884
G1 X128.223 Y124.227 E10.18186
G1 X128.495 Y122.16 E10.28587
G1 X128.637 Y121.384 E10.32523
G1 X128.858 Y120.625 E10.36466
G1 X129.022 Y120.193 E10.38772
G1 X129.817 Y118.274 E10.49135
G1 X130.156 Y117.56 E10.53078
G1 X130.565 Y116.885 E10.57016
G1 X130.835 Y116.511 E10.59317
G1 X131.261 Y115.955 E10.62811
G1 X130.318 Y114.726 E10.7054
G1 X129.869 Y114.076 E10.74481
G1 X129.489 Y113.384 E10.7842
G1 X129.298 Y112.959 E10.80745
G1 X128.504 Y111.039 E10.9111
G1 X128.24 Y110.295 E10.95049
G1 X128.052 Y109.528 E10.98989
G1 X127.979 Y109.08 E11.01253
G1 X127.706 Y107.014 E11.1165
G1 X127.643 Y106.227 E11.15589
G1 X127.659 Y105.437 E11.19531
G1 X127.706 Y104.971 E11.21868
G1 X127.979 Y102.904 E11.3227
G1 X128.122 Y102.127 E11.36211
G1 X128.343 Y101.369 E11.4015
G1 X128.505 Y100.943 E11.42424
G1 X129.299 Y99.024 E11.52785
G1 X129.637 Y98.31 E11.56726
G1 X130.046 Y97.635 E11.60664
G1 X130.318 Y97.258 E11.62983
G0 F3600 X130.635 Y97.502
G1 F1800 X131.904 Y95.848 E11.73384
G1 X132.403 Y95.262 E11.77224
G1 X132.961 Y94.732 E11.81063
G1 X133.271 Y94.481 E11.83053
G1 X134.924 Y93.213 E11.93447
G1 X135.558 Y92.777 E11.97286
G1 X136.233 Y92.409 E12.01122
G1 X136.594 Y92.248 E12.03094
G1 X138.514 Y91.452 E12.13463
G1 X139.239 Y91.195 E12.17301
G1 X139.986 Y91.014 E12.21135
G1 X140.383 Y90.951 E12.23141
G1 X142.45 Y90.679 E12.33542
G1 X143.216 Y90.619 E12.37375
G1 X143.985 Y90.638 E12.41213
G1 X144.381 Y90.679 E12.43199
G1 X146.447 Y90.951 E12.53595
G1 X147.203 Y91.091 E12.57431
G1 X147.941 Y91.309 E12.6127
G1 X148.314 Y91.452 E12.63263
G1 X150.235 Y92.248 E12.73637
G1 X150.929 Y92.579 E12.77473
G1 X151.585 Y92.98 E12.81309
G1 X151.906 Y93.213 E12.83288
G1 X153.559 Y94.481 E12.93682
G1 X154.144 Y94.98 E12.97518
G1 X154.273 Y95.115 E12.9845
G1 X154.763 Y94.65 E13.0182
G1 X155.071 Y94.4 E13.03799
G1 X156.723 Y93.132 E13.14189
G1 X157.357 Y92.696 E13.18027
G1 X158.032 Y92.328 E13.21863
G1 X158.396 Y92.166 E13.23851
G1 X160.317 Y91.37 E13.34225
G1 X161.042 Y91.113 E13.38062
G1 X161.79 Y90.932 E13.41902
G1 X162.184 Y90.869 E13.43893
G1 X164.25 Y90.597 E13.54289
G1 X165.017 Y90.537 E13.58127
G1 X165.786 Y90.556 E13.61965
G1 X166.181 Y90.597 E13.63946
G1 X168.248 Y90.869 E13.74347
G1 X169.005 Y91.009 E13.78188
G1 X169.743 Y91.227 E13.82027
G1 X170.117 Y91.37 E13.84025
G1 X172.037 Y92.166 E13.94394
G1 X172.731 Y92.497 E13.9823
G1 X173.387 Y92.899 E14.02069
G1 X173.707 Y93.131 E14.04041
G1 X175.36 Y94.399 E14.14434
G1 X175.945 Y94.898 E14.18271
G1 X176.062 Y95.021 E14.19118
G1 X177.615 Y93.83 E14.28882
G1 X178.249 Y93.394 E14.3272
G1 X178.924 Y93.026 E14.36556
G1 X179.286 Y92.865 E14.38533
G1 X181.207 Y92.069 E14.48907
G1 X181.932 Y91.812 E14.52744
G1 X182.68 Y91.631 E14.56584
G1 X183.071 Y91.569 E14.58559
G1 X185.137 Y91.296 E14.68956
G1 X185.903 Y91.235 E14.72789
G1 X186.672 Y91.254 E14.76627
G1 X187.075 Y91.296 E14.78649
G1 X189.142 Y91.569 E14.8905
G1 X189.898 Y91.709 E14.92886
G1 X190.636 Y91.927 E14.96725
G1 X191.007 Y92.069 E14.98707
G1 X192.927 Y92.865 E15.09077
G1 X193.621 Y93.196 E15.12913
G1 X194.277 Y93.598 E15.16751
G1 X194.597 Y93.83 E15.18723
G1 X196.25 Y95.098 E15.29117
G1 X196.835 Y95.597 E15.32953
G1 X197.365 Y96.154 E15.36789
G1 X197.616 Y96.463 E15.38775
G1 X198.885 Y98.116 E15.49172
G1 X199.321 Y98.749 E15.53006
G1 X199.689 Y99.425 E15.56846
G1 X199.852 Y99.791 E15.58845
G1 X200.647 Y101.711 E15.69213
G1 X200.904 Y102.436 E15.7305
G1 X201.084 Y103.184 E15.76889
G1 X201.147 Y103.576 E15.7887
G1 X201.419 Y105.642 E15.89266
G1 X201.479 Y106.409 E15.93104
G1 X201.46 Y107.178 E15.96942
G1 X201.419 Y107.573 E15.98923
G1 X201.147 Y109.64 E16.09324
G1 X201.007 Y110.397 E16.13165
G1 X200.789 Y111.135 E16.17004
G1 X200.647 Y111.507 E16.18991
G1 X199.852 Y113.426 E16.29354
G1 X199.521 Y114.121 E16.33194
G1 X199.119 Y114.777 E16.37033
G1 X198.886 Y115.098 E16.39012
G1 X197.617 Y116.752 E16.49412
G1 X197.118 Y117.338 E16.53252
G1 X196.839 Y117.603 E16.55172
G1 X197.423 Y118.364 E16.59958
G1 X197.859 Y118.997 E16.63792
G1 X198.227 Y119.673 E16.67632
G1 X198.389 Y120.037 E16.6962
G1 X199.184 Y121.957 E16.79988
G1 X199.441 Y122.682 E16.83825
G1 X199.621 Y123.43 E16.87664
G1 X199.684 Y123.822 E16.89644
G1 X199.956 Y125.888 E17.00041
G1 X200.016 Y126.655 E17.03879
G1 X199.997 Y127.424 E17.07717
G1 X199.956 Y127.819 E17.09698
G1 X199.684 Y129.886 E17.20099
G1 X199.544 Y130.643 E17.2394
G1 X199.326 Y131.381 E17.27779
G1 X199.184 Y131.753 E17.29765
G1 X198.389 Y133.672 E17.40128
G1 X198.058 Y134.367 E17.43969
G1 X197.656 Y135.023 E17.47807
G1 X197.423 Y135.344 E17.49786
G1 X196.154 Y136.998 E17.60187
G1 X195.655 Y137.584 E17.64027
G1 X195.097 Y138.114 E17.67866
G1 X194.787 Y138.365 E17.69856
G1 X193.134 Y139.633 E17.8025
G1 X192.5 Y140.069 E17.84089
G1 X191.825 Y140.437 E17.87925
G1 X191.464 Y140.598 E17.89897
G1 X189.544 Y141.394 E18.00266
G1 X188.819 Y141.651 E18.04104
G1 X188.072 Y141.832 E18.07938
G1 X187.675 Y141.895 E18.09944
G1 X185.608 Y142.167 E18.20345
G1 X184.842 Y142.227 E18.24178
G1 X184.073 Y142.208 E18.28016
G1 X183.677 Y142.167 E18.30002
G1 X181.611 Y141.895 E18.40398
G1 X180.855 Y141.755 E18.44234
G1 X180.117 Y141.537 E18.48073
G1 X179.744 Y141.394 E18.50066
G1 X177.823 Y140.598 E18.6044
G1 X177.129 Y140.267 E18.64277
G1 X176.473 Y139.866 E18.68112
G1 X176.152 Y139.633 E18.70091
G1 X174.499 Y138.365 E18.80485
G1 X174.319 Y138.212 E18.81664
G1 X173.242 Y139.038 E18.88435
G1 X172.608 Y139.474 E18.92274
G1 X171.933 Y139.842 E18.96109
G1 X171.571 Y140.003 E18.98086
G1 X169.65 Y140.799 E19.0846
G1 X168.925 Y141.056 E19.12298
G1 X168.177 Y141.237 E19.16137
G1 X167.783 Y141.3 E19.18128
G1 X165.717 Y141.572 E19.28524
G1 X164.95 Y141.632 E19.32362
G1 X164.181 Y141.613 E19.362
G1 X163.786 Y141.572 E19.38181
G1 X161.719 Y141.3 E19.48583
G1 X160.962 Y141.16 E19.52423
G1 X160.224 Y140.942 E19.56262
G1 X159.85 Y140.799 E19.5826
G1 X157.93 Y140.003 E19.6863
G1 X157.236 Y139.672 E19.72466
G1 X156.58 Y139.27 E19.76304
G1 X156.26 Y139.038 E19.78276
G1 X154.607 Y137.77 E19.8867
G1 X154.022 Y137.271 E19.92506
G1 X153.761 Y136.997 E19.94394
G1 X152.422 Y138.024 E20.02813
G1 X151.789 Y138.46 E20.06647
G1 X151.113 Y138.827 E20.10485
G1 X150.752 Y138.988 E20.12457
G1 X148.831 Y139.784 E20.22831
G1 X148.106 Y140.041 E20.26669
G1 X147.358 Y140.222 E20.30508
G1 X146.967 Y140.284 E20.32483
G1 X144.901 Y140.557 E20.4288
G1 X144.135 Y140.618 E20.46714
G1 X143.366 Y140.599 E20.50552
G1 X142.963 Y140.557 E20.52573
G1 X140.896 Y140.284 E20.62975
G1 X140.14 Y140.144 E20.66811
G1 X139.402 Y139.926 E20.7065
G1 X139.031 Y139.784 E20.72632
G1 X137.111 Y138.988 E20.83001
G1 X136.417 Y138.657 E20.86837
G1 X135.761 Y138.255 E20.90676
G1 X135.443 Y138.025 E20.92634
G1 X133.79 Y136.758 E21.03024
G1 X133.205 Y136.259 E21.0686
G1 X132.675 Y135.702 E21.10696
G1 X132.421 Y135.389 E21.12707
G1 X131.152 Y133.735 E21.23108
G1 X130.716 Y133.102 E21.26943
G1 X130.348 Y132.426 E21.30783
G1 X130.186 Y132.062 E21.3277
G1 X129.391 Y130.142 E21.43138
G1 X129.134 Y129.417 E21.46976
G1 X128.954 Y128.669 E21.50814
G1 X128.891 Y128.277 E21.52795
G1 X128.619 Y126.211 E21.63191
G1 X128.559 Y125.444 E21.67029
G1 X128.578 Y124.675 E21.70867
G1 X128.619 Y124.28 E21.72848
G1 X128.891 Y122.213 E21.83249
G1 X129.031 Y121.456 E21.8709
G1 X129.249 Y120.718 E21.90929
G1 X129.391 Y120.346 E21.92916
G1 X130.186 Y118.427 E22.03279
G1 X130.517 Y117.732 E22.07119
G1 X130.919 Y117.076 E22.10958
G1 X131.152 Y116.755 E22.12937
G1 X131.765 Y115.955 E22.17965
G1 X130.635 Y114.482 E22.27227
G1 X130.199 Y113.849 E22.31062
G1 X129.831 Y113.173 E22.34902
G1 X129.668 Y112.806 E22.36905
G1 X128.874 Y110.886 E22.47271
G1 X128.617 Y110.161 E22.51108
G1 X128.437 Y109.413 E22.54947
G1 X128.376 Y109.027 E22.56896
G1 X128.103 Y106.961 E22.67293
G1 X128.042 Y106.195 E22.71127
G1 X128.061 Y105.426 E22.74965
G1 X128.103 Y105.023 E22.76986
G1 X128.376 Y102.956 E22.87388
G1 X128.516 Y102.2 E22.91224
G1 X128.734 Y101.462 E22.95063
G1 X128.874 Y101.096 E22.97018
G1 X129.668 Y99.177 E23.07379
G1 X129.999 Y98.482 E23.1122
G1 X130.4 Y97.826 E23.15055
G1 X130.635 Y97.502 E23.17052
G0 F3600 X130.952 Y97.745
G1 F1800 X132.221 Y96.091 E23.27453
G1 X132.708 Y95.523 E23.31186
G1 X133.514 Y94.798 E23.36594
G1 X135.167 Y93.53 E23.46988
G1 X135.785 Y93.107 E23.50724
G1 X136.747 Y92.618 E23.56108
G1 X138.667 Y91.822 E23.66478
G1 X139.373 Y91.573 E23.70213
G1 X140.435 Y91.348 E23.75629
G1 X142.502 Y91.076 E23.8603
G1 X143.248 Y91.018 E23.89763
G1 X144.329 Y91.076 E23.95164
G1 X146.395 Y91.348 E24.0556
G1 X147.13 Y91.485 E24.0929
G1 X148.161 Y91.821 E24.147
G1 X150.082 Y92.617 E24.25074
G1 X150.756 Y92.94 E24.28803
G1 X151.663 Y93.53 E24.34201
G1 X153.316 Y94.798 E24.44595
G1 X153.884 Y95.284 E24.48324
G1 X154.273 Y95.717 E24.51228
G1 X154.51 Y95.441 E24.53043
G1 X155.315 Y94.717 E24.58445
G1 X156.967 Y93.449 E24.68835
G1 X157.584 Y93.026 E24.72567
G1 X158.549 Y92.535 E24.77969
G1 X160.47 Y91.739 E24.88343
G1 X161.176 Y91.49 E24.92078
G1 X162.236 Y91.266 E24.97483
G1 X164.302 Y90.994 E25.07879
G1 X165.048 Y90.936 E25.11612
G1 X166.129 Y90.994 E25.17013
G1 X168.196 Y91.266 E25.27414
G1 X168.932 Y91.403 E25.31149
G1 X169.964 Y91.74 E25.36565
G1 X171.884 Y92.536 E25.46935
G1 X172.559 Y92.859 E25.50668
G1 X173.464 Y93.448 E25.56055
G1 X175.117 Y94.716 E25.66449
G1 X175.685 Y95.202 E25.70179
G1 X176.023 Y95.578 E25.72701
G1 X176.205 Y95.415 E25.7392
G1 X177.858 Y94.147 E25.84314
G1 X178.476 Y93.724 E25.8805
G1 X179.439 Y93.234 E25.9344
G1 X181.36 Y92.438 E26.03815
G1 X182.066 Y92.189 E26.07549
G1 X183.123 Y91.965 E26.1294
G1 X185.189 Y91.692 E26.23337
G1 X185.935 Y91.634 E26.2707
G1 X187.023 Y91.692 E26.32506
G1 X189.09 Y91.965 E26.42908
G1 X189.825 Y92.103 E26.46639
G1 X190.854 Y92.439 E26.52039
G1 X192.774 Y93.235 E26.62409
