;FLAVOR:Marlin
;TIME:2682
;Filament used: 3.08724m
;Layer height: 0.2
;MINX:121.142
;MINY:86.86
;MINZ:0.3
;MAXX:147.696
;MAXY:131.969
;MAXZ:38.9
;Generated with Cura_SteamEngine 4.8.0
M140 S60
M105
M190 S60
M104 S210
M105
M109 S210
M82 ;absolute extrusion mode
G28 ;Home
G1 Z15.0 F6000 ;Move the platform down 15mm
;Prime the extruder
G92 E0
G1 F200 E3
G92 E0
G92 E0
G92 E0
G1 F2400 E-6.5
;LAYER_COUNT:194
;LAYER:0
M107
G0 F3600 X124.566 Y92.361 Z0.3
;TYPE:SKIRT
G1 F2400 E0
G1 F1800 X125.346 Y91.344 E0.06394
G1 X125.857 Y90.743 E0.1033
G1 X126.427 Y90.196 E0.14271
G1 X126.793 Y89.898 E0.16626
G1 X127.809 Y89.12 E0.2301
G1 X128.459 Y88.672 E0.26949
G1 X129.152 Y88.293 E0.30889
G1 X129.563 Y88.108 E0.33138
G1 X130.742 Y87.619 E0.39506
G1 X131.486 Y87.354 E0.43446
G1 X132.252 Y87.165 E0.47382
G1 X132.707 Y87.091 E0.49682
G1 X133.977 Y86.923 E0.56074
G1 X134.764 Y86.86 E0.60012
G1 X135.554 Y86.876 E0.63955
G1 X136.023 Y86.923 E0.66306
G1 X137.293 Y87.091 E0.72697
G1 X138.07 Y87.234 E0.76639
G1 X138.828 Y87.455 E0.80578
G1 X139.258 Y87.619 E0.82874
G1 X140.437 Y88.108 E0.89242
G1 X141.15 Y88.447 E0.93181
G1 X141.826 Y88.857 E0.97125
G1 X142.191 Y89.12 E0.9937
G1 X143.207 Y89.898 E1.05754
G1 X143.809 Y90.409 E1.09694
G1 X144.356 Y90.979 E1.13635
G1 X144.654 Y91.344 E1.15986
G1 X145.434 Y92.361 E1.2238
G1 X145.882 Y93.011 E1.26318
G1 X146.263 Y93.703 E1.3026
G1 X146.453 Y94.128 E1.32582
G1 X146.94 Y95.306 E1.38942
G1 X147.205 Y96.05 E1.42882
G1 X147.392 Y96.817 E1.46821
G1 X147.465 Y97.263 E1.49075
G1 X147.633 Y98.533 E1.55467
G1 X147.696 Y99.32 E1.59405
G1 X147.68 Y100.11 E1.63348
G1 X147.633 Y100.579 E1.65699
G1 X147.465 Y101.849 E1.7209
G1 X147.322 Y102.626 E1.76032
G1 X147.101 Y103.384 E1.79971
G1 X146.94 Y103.806 E1.82224
G1 X146.453 Y104.984 E1.88584
G1 X146.115 Y105.698 E1.92525
G1 X145.706 Y106.373 E1.96463
G1 X145.434 Y106.751 E1.98786
G1 X144.654 Y107.768 E2.0518
G1 X144.143 Y108.369 E2.09116
G1 X143.573 Y108.916 E2.13057
G1 X143.211 Y109.211 E2.15387
G1 X142.348 Y109.873 E2.20814
G1 X142.651 Y110.13 E2.22796
G1 X143.197 Y110.699 E2.2673
G1 X143.492 Y111.061 E2.2906
G1 X144.272 Y112.078 E2.35454
G1 X144.72 Y112.728 E2.39393
G1 X145.101 Y113.42 E2.43334
G1 X145.29 Y113.843 E2.45645
G1 X145.777 Y115.02 E2.52
G1 X146.042 Y115.764 E2.5594
G1 X146.23 Y116.531 E2.5988
G1 X146.303 Y116.98 E2.6215
G1 X146.471 Y118.251 E2.68546
G1 X146.534 Y119.038 E2.72485
G1 X146.518 Y119.828 E2.76427
G1 X146.471 Y120.296 E2.78773
G1 X146.303 Y121.566 E2.85165
G1 X146.16 Y122.343 E2.89106
G1 X145.939 Y123.101 E2.93045
G1 X145.778 Y123.523 E2.95299
G1 X145.291 Y124.701 E3.01658
G1 X144.953 Y125.415 E3.05599
G1 X144.544 Y126.09 E3.09537
G1 X144.272 Y126.468 E3.1186
G1 X143.492 Y127.485 E3.18255
G1 X142.981 Y128.086 E3.2219
G1 X142.411 Y128.633 E3.26132
G1 X142.045 Y128.931 E3.28486
G1 X141.029 Y129.709 E3.34871
G1 X140.379 Y130.157 E3.38809
G1 X139.686 Y130.536 E3.4275
G1 X139.275 Y130.721 E3.44998
G1 X138.096 Y131.21 E3.51366
G1 X137.352 Y131.475 E3.55307
G1 X136.586 Y131.664 E3.59243
G1 X136.131 Y131.738 E3.61543
G1 X134.861 Y131.906 E3.67934
G1 X134.074 Y131.969 E3.71873
G1 X133.284 Y131.953 E3.75815
G1 X132.815 Y131.906 E3.78166
G1 X131.545 Y131.738 E3.84558
G1 X130.768 Y131.595 E3.88499
G1 X130.01 Y131.374 E3.92438
G1 X129.58 Y131.21 E3.94734
G1 X128.401 Y130.721 E4.01102
G1 X127.688 Y130.382 E4.05041
G1 X127.012 Y129.972 E4.08986
G1 X126.647 Y129.709 E4.1123
G1 X125.631 Y128.931 E4.17614
G1 X125.029 Y128.42 E4.21554
G1 X124.482 Y127.85 E4.25495
G1 X124.184 Y127.485 E4.27846
G1 X123.404 Y126.468 E4.3424
G1 X122.956 Y125.818 E4.38179
G1 X122.575 Y125.126 E4.4212
G1 X122.385 Y124.701 E4.44442
G1 X121.898 Y123.523 E4.50802
G1 X121.633 Y122.779 E4.54742
G1 X121.446 Y122.012 E4.58681
G1 X121.373 Y121.566 E4.60936
G1 X121.205 Y120.296 E4.67327
G1 X121.142 Y119.509 E4.71266
G1 X121.158 Y118.719 E4.75208
G1 X121.205 Y118.251 E4.77554
G1 X121.373 Y116.98 E4.83951
G1 X121.516 Y116.203 E4.87892
G1 X121.737 Y115.445 E4.91831
G1 X121.899 Y115.02 E4.94101
G1 X122.386 Y113.843 E5.00455
G1 X122.724 Y113.129 E5.04397
G1 X123.133 Y112.454 E5.08334
G1 X123.404 Y112.078 E5.10646
G1 X124.184 Y111.061 E5.17041
G1 X124.695 Y110.46 E5.20976
G1 X125.265 Y109.913 E5.24918
G1 X125.627 Y109.618 E5.27248
G1 X126.49 Y108.956 E5.32674
G1 X126.187 Y108.699 E5.34656
G1 X125.641 Y108.13 E5.3859
G1 X125.346 Y107.768 E5.4092
G1 X124.566 Y106.751 E5.47314
G1 X124.118 Y106.101 E5.51253
G1 X123.737 Y105.409 E5.55194
G1 X123.547 Y104.984 E5.57517
G1 X123.06 Y103.806 E5.63876
G1 X122.795 Y103.062 E5.67816
G1 X122.608 Y102.295 E5.71755
G1 X122.535 Y101.849 E5.7401
G1 X122.367 Y100.579 E5.80401
G1 X122.304 Y99.792 E5.8434
G1 X122.32 Y99.002 E5.88282
G1 X122.367 Y98.533 E5.90634
G1 X122.535 Y97.263 E5.97025
G1 X122.678 Y96.486 E6.00966
G1 X122.899 Y95.728 E6.04906
G1 X123.06 Y95.306 E6.07159
G1 X123.547 Y94.128 E6.13518
G1 X123.885 Y93.414 E6.1746
G1 X124.294 Y92.739 E6.21397
G1 X124.566 Y92.361 E6.23721
G0 F3600 X124.883 Y92.605
G1 F1800 X125.663 Y91.588 E6.30115
G1 X126.162 Y91.002 E6.33955
G1 X126.72 Y90.472 E6.37794
G1 X127.036 Y90.216 E6.39823
G1 X128.052 Y89.438 E6.46207
G1 X128.686 Y89.002 E6.50046
G1 X129.362 Y88.635 E6.53884
G1 X129.716 Y88.478 E6.55816
G1 X130.895 Y87.989 E6.62184
G1 X131.62 Y87.731 E6.66023
G1 X132.367 Y87.551 E6.69856
G1 X132.76 Y87.488 E6.71842
G1 X134.03 Y87.32 E6.78233
G1 X134.796 Y87.259 E6.82067
G1 X135.565 Y87.278 E6.85905
G1 X135.97 Y87.32 E6.87936
G1 X137.24 Y87.488 E6.94327
G1 X137.997 Y87.628 E6.98168
G1 X138.734 Y87.846 E7.02003
G1 X139.105 Y87.989 E7.03986
G1 X140.284 Y88.478 E7.10354
G1 X140.978 Y88.809 E7.1419
G1 X141.634 Y89.21 E7.18026
G1 X141.948 Y89.438 E7.19962
G1 X142.964 Y90.216 E7.26346
G1 X143.55 Y90.714 E7.30183
G1 X144.08 Y91.271 E7.34019
G1 X144.337 Y91.588 E7.36055
G1 X145.117 Y92.605 E7.42449
G1 X145.553 Y93.238 E7.46284
G1 X145.92 Y93.914 E7.50121
G1 X146.084 Y94.281 E7.52127
G1 X146.571 Y95.459 E7.58486
G1 X146.827 Y96.184 E7.62322
G1 X147.007 Y96.932 E7.6616
G1 X147.068 Y97.316 E7.681
G1 X147.236 Y98.586 E7.74492
G1 X147.297 Y99.352 E7.78325
G1 X147.278 Y100.121 E7.82163
G1 X147.236 Y100.526 E7.84194
G1 X147.068 Y101.796 E7.90586
G1 X146.928 Y102.553 E7.94426
G1 X146.71 Y103.29 E7.98261
G1 X146.571 Y103.653 E8.002
G1 X146.084 Y104.831 E8.06559
G1 X145.753 Y105.526 E8.104
G1 X145.353 Y106.182 E8.14233
G1 X145.117 Y106.507 E8.16237
G1 X144.337 Y107.524 E8.22631
G1 X143.838 Y108.11 E8.26471
G1 X143.28 Y108.64 E8.30311
G1 X142.968 Y108.894 E8.32318
G1 X141.952 Y109.673 E8.38705
G1 X141.695 Y109.85 E8.40262
G1 X141.806 Y109.935 E8.4096
G1 X142.391 Y110.435 E8.44799
G1 X142.921 Y110.992 E8.48635
G1 X143.175 Y111.305 E8.50646
G1 X143.955 Y112.322 E8.5704
G1 X144.391 Y112.955 E8.60875
G1 X144.758 Y113.631 E8.64712
G1 X144.921 Y113.996 E8.66707
G1 X145.408 Y115.173 E8.73062
G1 X145.665 Y115.898 E8.76899
G1 X145.845 Y116.646 E8.80737
G1 X145.906 Y117.032 E8.82687
G1 X146.074 Y118.303 E8.89083
G1 X146.135 Y119.07 E8.92922
G1 X146.116 Y119.839 E8.9676
G1 X146.074 Y120.243 E8.98786
G1 X145.906 Y121.513 E9.05177
G1 X145.766 Y122.27 E9.09018
G1 X145.548 Y123.007 E9.12853
G1 X145.409 Y123.37 E9.14792
G1 X144.922 Y124.548 E9.21151
G1 X144.591 Y125.243 E9.24992
G1 X144.191 Y125.899 E9.28825
G1 X143.955 Y126.224 E9.30829
G1 X143.175 Y127.241 E9.37223
G1 X142.676 Y127.827 E9.41063
G1 X142.118 Y128.357 E9.44903
G1 X141.802 Y128.613 E9.46931
G1 X140.786 Y129.391 E9.53316
G1 X140.152 Y129.827 E9.57155
G1 X139.476 Y130.194 E9.60992
G1 X139.122 Y130.351 E9.62924
G1 X137.943 Y130.84 E9.69292
G1 X137.218 Y131.098 E9.73131
G1 X136.471 Y131.278 E9.76965
G1 X136.078 Y131.341 E9.7895
G1 X134.808 Y131.509 E9.85342
G1 X134.042 Y131.57 E9.89175
G1 X133.273 Y131.551 E9.93013
G1 X132.868 Y131.509 E9.95045
G1 X131.598 Y131.341 E10.01436
G1 X130.841 Y131.201 E10.05276
G1 X130.104 Y130.983 E10.09111
G1 X129.733 Y130.84 E10.11095
G1 X128.554 Y130.351 E10.17462
G1 X127.86 Y130.02 E10.21298
G1 X127.204 Y129.619 E10.25134
G1 X126.89 Y129.391 E10.2707
G1 X125.874 Y128.613 E10.33455
G1 X125.288 Y128.115 E10.37291
G1 X124.758 Y127.558 E10.41127
G1 X124.501 Y127.241 E10.43163
G1 X123.721 Y126.224 E10.49557
G1 X123.285 Y125.591 E10.53392
G1 X122.918 Y124.915 E10.5723
G1 X122.754 Y124.548 E10.59235
G1 X122.267 Y123.37 E10.65595
G1 X122.011 Y122.645 E10.6943
G1 X121.831 Y121.897 E10.73269
G1 X121.77 Y121.513 E10.75209
G1 X121.602 Y120.243 E10.816
G1 X121.541 Y119.477 E10.85434
G1 X121.56 Y118.708 E10.89271
G1 X121.602 Y118.303 E10.91303
G1 X121.77 Y117.032 E10.97699
G1 X121.91 Y116.276 E11.01535
G1 X122.128 Y115.538 E11.05374
G1 X122.268 Y115.173 E11.07324
G1 X122.755 Y113.996 E11.13679
G1 X123.086 Y113.301 E11.1752
G1 X123.487 Y112.645 E11.21355
G1 X123.721 Y112.322 E11.23345
G1 X124.501 Y111.305 E11.2974
G1 X125 Y110.719 E11.3358
G1 X125.558 Y110.189 E11.37419
G1 X125.87 Y109.935 E11.39426
G1 X126.886 Y109.156 E11.45814
G1 X127.143 Y108.979 E11.4737
G1 X127.032 Y108.894 E11.48068
G1 X126.447 Y108.394 E11.51907
G1 X125.917 Y107.837 E11.55743
G1 X125.663 Y107.524 E11.57754
G1 X124.883 Y106.507 E11.64148
G1 X124.447 Y105.874 E11.67983
G1 X124.08 Y105.198 E11.71821
G1 X123.916 Y104.831 E11.73826
G1 X123.429 Y103.653 E11.80186
G1 X123.173 Y102.928 E11.84022
G1 X122.993 Y102.18 E11.8786
G1 X122.932 Y101.796 E11.898
G1 X122.764 Y100.526 E11.96191
G1 X122.703 Y99.76 E12.00025
G1 X122.722 Y98.991 E12.03862
G1 X122.764 Y98.586 E12.05894
G1 X122.932 Y97.316 E12.12285
G1 X123.072 Y96.559 E12.16126
G1 X123.29 Y95.822 E12.1996
G1 X123.429 Y95.459 E12.21899
G1 X123.916 Y94.281 E12.28259
G1 X124.247 Y93.586 E12.32099
G1 X124.647 Y92.93 E12.35933
G1 X124.883 Y92.605 E12.37936
G0 F3600 X125.201 Y92.848
G1 F1800 X125.981 Y91.831 E12.44331
G1 X126.467 Y91.263 E12.4806
G1 X127.279 Y90.533 E12.53508
G1 X128.295 Y89.755 E12.59892
G1 X128.913 Y89.333 E12.63625
G1 X129.869 Y88.847 E12.68976
G1 X131.048 Y88.358 E12.75344
G1 X131.754 Y88.109 E12.79079
G1 X132.812 Y87.884 E12.84475
G1 X134.082 Y87.716 E12.90866
G1 X134.828 Y87.658 E12.94599
G1 X135.918 Y87.716 E13.00045
G1 X137.188 Y87.884 E13.06436
G1 X137.923 Y88.022 E13.10167
G1 X138.952 Y88.358 E13.15568
G1 X140.131 Y88.847 E13.21936
G1 X140.805 Y89.17 E13.25665
G1 X141.705 Y89.755 E13.3102
G1 X142.721 Y90.533 E13.37404
G1 X143.29 Y91.019 E13.41137
G1 X144.019 Y91.831 E13.46582
G1 X144.799 Y92.848 E13.52976
G1 X145.222 Y93.465 E13.56708
G1 X145.714 Y94.434 E13.6213
G1 X146.201 Y95.612 E13.68489
G1 X146.449 Y96.317 E13.72218
G1 X146.672 Y97.368 E13.77578
G1 X146.84 Y98.638 E13.83969
G1 X146.898 Y99.384 E13.87702
G1 X146.84 Y100.474 E13.93148
G1 X146.672 Y101.744 E13.99539
G1 X146.534 Y102.479 E14.0327
G1 X146.201 Y103.5 E14.08628
G1 X145.714 Y104.678 E14.14988
G1 X145.392 Y105.353 E14.18719
G1 X144.799 Y106.264 E14.24142
G1 X144.019 Y107.281 E14.30536
G1 X143.533 Y107.849 E14.34266
G1 X142.724 Y108.576 E14.39692
G1 X141.708 Y109.355 E14.46079
G1 X141.091 Y109.778 E14.49812
G1 X141.002 Y109.823 E14.50309
G1 X141.562 Y110.253 E14.53832
G1 X142.131 Y110.739 E14.57565
G1 X142.857 Y111.548 E14.62988
G1 X143.637 Y112.565 E14.69382
G1 X144.06 Y113.182 E14.73114
G1 X144.551 Y114.149 E14.78525
G1 X145.038 Y115.326 E14.8488
G1 X145.287 Y116.031 E14.8861
G1 X145.51 Y117.085 E14.93985
G1 X145.678 Y118.356 E15.00381
G1 X145.736 Y119.102 E15.04114
G1 X145.678 Y120.191 E15.09555
G1 X145.51 Y121.461 E15.15946
G1 X145.372 Y122.196 E15.19677
G1 X145.039 Y123.217 E15.25035
G1 X144.552 Y124.395 E15.31395
G1 X144.23 Y125.07 E15.35126
G1 X143.637 Y125.981 E15.40549
G1 X142.857 Y126.998 E15.46943
G1 X142.371 Y127.566 E15.50673
G1 X141.559 Y128.296 E15.5612
G1 X140.543 Y129.074 E15.62504
G1 X139.925 Y129.496 E15.66238
G1 X138.969 Y129.982 E15.71588
G1 X137.79 Y130.471 E15.77956
G1 X137.084 Y130.72 E15.81691
G1 X136.026 Y130.945 E15.87088
G1 X134.756 Y131.113 E15.93479
G1 X134.01 Y131.171 E15.97212
G1 X132.92 Y131.113 E16.02658
G1 X131.65 Y130.945 E16.09049
G1 X130.915 Y130.807 E16.1278
G1 X129.886 Y130.471 E16.1818
G1 X128.707 Y129.982 E16.24548
G1 X128.033 Y129.659 E16.28277
G1 X127.133 Y129.074 E16.33632
G1 X126.117 Y128.296 E16.40017
G1 X125.548 Y127.81 E16.4375
G1 X124.819 Y126.998 E16.49194
G1 X124.039 Y125.981 E16.55588
G1 X123.616 Y125.364 E16.5932
G1 X123.124 Y124.395 E16.64742
G1 X122.637 Y123.217 E16.71102
G1 X122.389 Y122.512 E16.7483
G1 X122.166 Y121.461 E16.8019
G1 X121.998 Y120.191 E16.86582
G1 X121.94 Y119.445 E16.90315
G1 X121.998 Y118.356 E16.95756
G1 X122.166 Y117.085 E17.02152
G1 X122.304 Y116.349 E17.05888
G1 X122.638 Y115.326 E17.11257
G1 X123.125 Y114.149 E17.17611
G1 X123.447 Y113.474 E17.21343
G1 X124.039 Y112.565 E17.26755
G1 X124.819 Y111.548 E17.33149
G1 X125.305 Y110.98 E17.36878
G1 X126.114 Y110.253 E17.42305
G1 X127.13 Y109.474 E17.48692
G1 X127.747 Y109.051 E17.52424
G1 X127.836 Y109.006 E17.52922
G1 X127.276 Y108.576 E17.56444
G1 X126.707 Y108.09 E17.60177
G1 X125.981 Y107.281 E17.65601
G1 X125.201 Y106.264 E17.71995
G1 X124.778 Y105.647 E17.75727
G1 X124.286 Y104.678 E17.81149
G1 X123.799 Y103.5 E17.87508
G1 X123.551 Y102.795 E17.91237
G1 X123.328 Y101.744 E17.96597
G1 X123.16 Y100.474 E18.02988
G1 X123.102 Y99.728 E18.06721
G1 X123.16 Y98.638 E18.12167
G1 X123.328 Y97.368 E18.18558
G1 X123.466 Y96.633 E18.22289
G1 X123.799 Y95.612 E18.27647
G1 X124.286 Y94.434 E18.34007
G1 X124.608 Y93.759 E18.37738
G1 X125.201 Y92.848 E18.43161
G0 F3600 X125.518 Y93.091
G1 F1800 X126.298 Y92.074 E18.49555
G1 X126.771 Y91.523 E18.53178
G1 X127.522 Y90.851 E18.58206
G1 X128.538 Y90.073 E18.6459
G1 X129.139 Y89.664 E18.68217
G1 X130.022 Y89.217 E18.73155
G1 X131.201 Y88.728 E18.79522
G1 X131.887 Y88.487 E18.8315
G1 X132.864 Y88.281 E18.88131
G1 X134.134 Y88.113 E18.94523
G1 X134.859 Y88.058 E18.9815
G1 X135.866 Y88.113 E19.03182
G1 X137.136 Y88.281 E19.09573
G1 X137.849 Y88.416 E19.13193
G1 X138.799 Y88.728 E19.18182
G1 X139.978 Y89.217 E19.2455
G1 X140.632 Y89.531 E19.28169
G1 X141.462 Y90.073 E19.33115
G1 X142.478 Y90.851 E19.39499
G1 X143.029 Y91.324 E19.43122
G1 X143.702 Y92.074 E19.48149
G1 X144.482 Y93.091 E19.54544
G1 X144.892 Y93.691 E19.58169
G1 X145.344 Y94.586 E19.63171
G1 X145.831 Y95.764 E19.69531
G1 X146.071 Y96.45 E19.73157
G1 X146.275 Y97.42 E19.78102
G1 X146.443 Y98.69 E19.84493
G1 X146.498 Y99.415 E19.88121
G1 X146.443 Y100.422 E19.93152
G1 X146.275 Y101.692 E19.99543
G1 X146.14 Y102.405 E20.03164
G1 X145.831 Y103.348 E20.08114
G1 X145.344 Y104.526 E20.14474
G1 X145.03 Y105.181 E20.18098
G1 X144.482 Y106.021 E20.23102
G1 X143.702 Y107.038 E20.29496
G1 X143.229 Y107.589 E20.33119
G1 X142.481 Y108.259 E20.38129
G1 X141.465 Y109.038 E20.44516
G1 X140.865 Y109.447 E20.48139
G1 X140.251 Y109.757 E20.5157
G1 X140.303 Y109.791 E20.5188
G1 X141.319 Y110.57 E20.58268
G1 X141.87 Y111.043 E20.61891
G1 X142.54 Y111.791 E20.669
G1 X143.32 Y112.808 E20.73295
G1 X143.73 Y113.408 E20.7692
G1 X144.182 Y114.302 E20.81918
G1 X144.669 Y115.479 E20.88273
G1 X144.909 Y116.164 E20.91894
G1 X145.113 Y117.137 E20.96854
G1 X145.281 Y118.408 E21.0325
G1 X145.337 Y119.132 E21.06873
G1 X145.281 Y120.139 E21.11905
G1 X145.113 Y121.409 E21.18296
G1 X144.978 Y122.122 E21.21916
G1 X144.669 Y123.065 E21.26867
G1 X144.182 Y124.243 E21.33227
G1 X143.868 Y124.898 E21.36851
G1 X143.32 Y125.738 E21.41854
G1 X142.54 Y126.755 E21.48249
G1 X142.067 Y127.306 E21.51872
G1 X141.316 Y127.978 E21.56899
G1 X140.3 Y128.756 E21.63284
G1 X139.699 Y129.165 E21.6691
G1 X138.816 Y129.612 E21.71848
G1 X137.637 Y130.101 E21.78216
G1 X136.951 Y130.342 E21.81843
G1 X135.974 Y130.548 E21.86825
G1 X134.704 Y130.716 E21.93216
G1 X133.979 Y130.771 E21.96844
G1 X132.972 Y130.716 E22.01875
G1 X131.702 Y130.548 E22.08266
G1 X130.989 Y130.413 E22.11887
G1 X130.039 Y130.101 E22.16875
G1 X128.86 Y129.612 E22.23243
G1 X128.206 Y129.298 E22.26863
G1 X127.376 Y128.756 E22.31808
G1 X126.36 Y127.978 E22.38192
G1 X125.809 Y127.505 E22.41815
G1 X125.136 Y126.755 E22.46843
G1 X124.356 Y125.738 E22.53237
G1 X123.946 Y125.138 E22.56863
G1 X123.494 Y124.243 E22.61865
G1 X123.007 Y123.065 E22.68224
G1 X122.767 Y122.379 E22.7185
G1 X122.563 Y121.409 E22.76795
