;FLAVOR:Marlin
;TIME:1065
;Filament used: 0.844957m
;Layer height: 0.2
;MINX:120.204
;MINY:85.933
;MINZ:0.3
;MAXX:149.796
;MAXY:115.526
;MAXZ:36.5
;Generated with Cura_SteamEngine 4.8.0
M140 S60
M105
M190 S60
M104 S210
M105
M109 S210
M82 ;absolute extrusion mode
G28 ;Home
G1 Z15.0 F6000 ;Move the platform down 15mm
;Prime the extruder
G92 E0
G1 F200 E3
G92 E0
G92 E0
G92 E0
G1 F2400 E-6.5
;LAYER_COUNT:182
;LAYER:0
M107
G0 F3600 X122.748 Y92.484 Z0.3
;TYPE:SKIRT
G1 F2400 E0
G1 F1800 X123.861 Y91.033 E0.09123
G1 X124.373 Y90.431 E0.13066
G1 X124.943 Y89.885 E0.17004
G1 X125.303 Y89.591 E0.19323
G1 X126.754 Y88.478 E0.28446
G1 X127.404 Y88.03 E0.32385
G1 X128.096 Y87.649 E0.36326
G1 X128.516 Y87.461 E0.38622
G1 X130.201 Y86.763 E0.47721
G1 X130.945 Y86.498 E0.51661
G1 X131.712 Y86.31 E0.55601
G1 X132.163 Y86.236 E0.57881
G1 X133.977 Y85.996 E0.6701
G1 X134.764 Y85.933 E0.70949
G1 X135.554 Y85.949 E0.74891
G1 X136.023 Y85.996 E0.77243
G1 X137.837 Y86.236 E0.86372
G1 X138.614 Y86.379 E0.90313
G1 X139.372 Y86.6 E0.94252
G1 X139.799 Y86.763 E0.96533
G1 X141.484 Y87.461 E1.05632
G1 X142.197 Y87.8 E1.09571
G1 X142.873 Y88.209 E1.13513
G1 X143.246 Y88.478 E1.15807
G1 X144.697 Y89.591 E1.2493
G1 X145.299 Y90.103 E1.28873
G1 X145.845 Y90.673 E1.32811
G1 X146.139 Y91.033 E1.3513
G1 X147.252 Y92.484 E1.44253
G1 X147.7 Y93.134 E1.48192
G1 X148.081 Y93.826 E1.52133
G1 X148.271 Y94.25 E1.54451
G1 X148.968 Y95.935 E1.63548
G1 X149.232 Y96.679 E1.67487
G1 X149.42 Y97.446 E1.71427
G1 X149.493 Y97.892 E1.73681
G1 X149.733 Y99.705 E1.82805
G1 X149.796 Y100.492 E1.86744
G1 X149.78 Y101.282 E1.90686
G1 X149.733 Y101.752 E1.93043
G1 X149.493 Y103.566 E2.02172
G1 X149.35 Y104.343 E2.06113
G1 X149.129 Y105.101 E2.10053
G1 X148.967 Y105.526 E2.12322
G1 X148.27 Y107.21 E2.21414
G1 X147.932 Y107.923 E2.25351
G1 X147.523 Y108.599 E2.29293
G1 X147.254 Y108.972 E2.31587
G1 X146.141 Y110.424 E2.40715
G1 X145.629 Y111.026 E2.44657
G1 X145.059 Y111.573 E2.48599
G1 X144.697 Y111.868 E2.50929
G1 X143.246 Y112.981 E2.60052
G1 X142.596 Y113.429 E2.6399
G1 X141.904 Y113.81 E2.67932
G1 X141.484 Y113.998 E2.70227
G1 X139.799 Y114.696 E2.79327
G1 X139.055 Y114.961 E2.83267
G1 X138.288 Y115.149 E2.87207
G1 X137.833 Y115.223 E2.89506
G1 X136.019 Y115.462 E2.98635
G1 X135.232 Y115.526 E3.02574
G1 X134.442 Y115.509 E3.06516
G1 X133.981 Y115.462 E3.08828
G1 X132.167 Y115.223 E3.17956
G1 X131.39 Y115.081 E3.21897
G1 X130.632 Y114.86 E3.25836
G1 X130.201 Y114.696 E3.28137
G1 X128.516 Y113.998 E3.37236
G1 X127.803 Y113.659 E3.41175
G1 X127.127 Y113.25 E3.45117
G1 X126.754 Y112.981 E3.47411
G1 X125.303 Y111.868 E3.56535
G1 X124.701 Y111.356 E3.60477
G1 X124.155 Y110.786 E3.64415
G1 X123.859 Y110.424 E3.66748
G1 X122.746 Y108.972 E3.75876
G1 X122.298 Y108.322 E3.79814
G1 X121.918 Y107.63 E3.83753
G1 X121.73 Y107.21 E3.86048
G1 X121.033 Y105.526 E3.95141
G1 X120.768 Y104.782 E3.99081
G1 X120.58 Y104.015 E4.03021
G1 X120.507 Y103.566 E4.05291
G1 X120.267 Y101.752 E4.1442
G1 X120.204 Y100.965 E4.18359
G1 X120.22 Y100.175 E4.22301
G1 X120.267 Y99.705 E4.24657
G1 X120.507 Y97.892 E4.33781
G1 X120.651 Y97.116 E4.37719
G1 X120.872 Y96.358 E4.41658
G1 X121.032 Y95.935 E4.43914
G1 X121.729 Y94.25 E4.53012
G1 X122.068 Y93.536 E4.56955
G1 X122.477 Y92.86 E4.60897
G1 X122.748 Y92.484 E4.63209
G0 F3600 X123.065 Y92.727
G1 F1800 X124.178 Y91.276 E4.72332
G1 X124.678 Y90.691 E4.76172
G1 X125.235 Y90.161 E4.80008
G1 X125.546 Y89.908 E4.82008
G1 X126.997 Y88.795 E4.91131
G1 X127.631 Y88.36 E4.94967
G1 X128.307 Y87.992 E4.98807
G1 X128.669 Y87.83 E5.00786
G1 X130.354 Y87.132 E5.09885
G1 X131.079 Y86.875 E5.13723
G1 X131.827 Y86.695 E5.17561
G1 X132.215 Y86.633 E5.19521
G1 X134.029 Y86.393 E5.2865
G1 X134.796 Y86.332 E5.32489
G1 X135.565 Y86.351 E5.36327
G1 X135.971 Y86.393 E5.38363
G1 X137.785 Y86.633 E5.47492
G1 X138.541 Y86.773 E5.51328
G1 X139.278 Y86.991 E5.55162
G1 X139.646 Y87.132 E5.57128
G1 X141.331 Y87.83 E5.66227
G1 X142.025 Y88.161 E5.70063
G1 X142.682 Y88.562 E5.73904
G1 X143.003 Y88.795 E5.75882
G1 X144.454 Y89.908 E5.85006
G1 X145.039 Y90.408 E5.88845
G1 X145.569 Y90.965 E5.92681
G1 X145.822 Y91.276 E5.94681
G1 X146.935 Y92.727 E6.03805
G1 X147.37 Y93.361 E6.07641
G1 X147.738 Y94.037 E6.11481
G1 X147.901 Y94.402 E6.13475
G1 X148.598 Y96.087 E6.22572
G1 X148.855 Y96.813 E6.26415
G1 X149.035 Y97.56 E6.30248
G1 X149.096 Y97.945 E6.32193
G1 X149.336 Y99.758 E6.41317
G1 X149.397 Y100.525 E6.45155
G1 X149.378 Y101.294 E6.48993
G1 X149.336 Y101.7 E6.51029
G1 X149.096 Y103.514 E6.60158
G1 X148.956 Y104.27 E6.63994
G1 X148.738 Y105.007 E6.67829
G1 X148.597 Y105.373 E6.69785
G1 X147.9 Y107.057 E6.78878
G1 X147.57 Y107.751 E6.82712
G1 X147.169 Y108.408 E6.86552
G1 X146.936 Y108.729 E6.88531
G1 X145.823 Y110.181 E6.97658
G1 X145.324 Y110.766 E7.01495
G1 X144.767 Y111.297 E7.05334
G1 X144.454 Y111.551 E7.07345
G1 X143.003 Y112.664 E7.16468
G1 X142.369 Y113.099 E7.20304
G1 X141.693 Y113.467 E7.24144
G1 X141.331 Y113.629 E7.26123
G1 X139.646 Y114.327 E7.35222
G1 X138.921 Y114.584 E7.3906
G1 X138.173 Y114.764 E7.42898
G1 X137.781 Y114.827 E7.44879
G1 X135.967 Y115.066 E7.54007
G1 X135.2 Y115.126 E7.57845
G1 X134.431 Y115.107 E7.61683
G1 X134.033 Y115.066 E7.63679
G1 X132.219 Y114.827 E7.72808
G1 X131.463 Y114.687 E7.76643
G1 X130.725 Y114.469 E7.80483
G1 X130.354 Y114.327 E7.82464
G1 X128.669 Y113.629 E7.91564
G1 X127.975 Y113.298 E7.954
G1 X127.318 Y112.897 E7.9924
G1 X126.997 Y112.664 E8.01219
G1 X125.546 Y111.551 E8.10342
G1 X124.961 Y111.051 E8.14181
G1 X124.431 Y110.494 E8.18017
G1 X124.177 Y110.181 E8.20028
G1 X123.064 Y108.729 E8.29156
G1 X122.628 Y108.095 E8.32995
G1 X122.261 Y107.419 E8.36832
G1 X122.1 Y107.057 E8.38809
G1 X121.403 Y105.373 E8.47901
G1 X121.146 Y104.648 E8.51739
G1 X120.966 Y103.9 E8.55577
G1 X120.904 Y103.514 E8.57528
G1 X120.664 Y101.7 E8.66657
G1 X120.603 Y100.933 E8.70495
G1 X120.622 Y100.164 E8.74333
G1 X120.664 Y99.758 E8.76369
G1 X120.904 Y97.945 E8.85493
G1 X121.044 Y97.189 E8.89329
G1 X121.263 Y96.451 E8.9317
G1 X121.402 Y96.087 E8.95114
G1 X122.099 Y94.402 E9.04211
G1 X122.429 Y93.708 E9.08045
G1 X122.83 Y93.051 E9.11885
G1 X123.065 Y92.727 E9.13882
G0 F3600 X123.383 Y92.971
G1 F1800 X124.496 Y91.52 E9.23005
G1 X124.982 Y90.951 E9.26739
G1 X125.79 Y90.226 E9.32155
G1 X127.241 Y89.113 E9.41278
G1 X127.858 Y88.69 E9.4501
G1 X128.822 Y88.2 E9.50405
G1 X130.507 Y87.502 E9.59505
G1 X131.212 Y87.253 E9.63235
G1 X132.268 Y87.029 E9.6862
G1 X134.082 Y86.789 E9.77749
G1 X134.828 Y86.731 E9.81482
G1 X135.918 Y86.789 E9.86928
G1 X137.732 Y87.029 E9.96057
G1 X138.467 Y87.167 E9.99788
G1 X139.493 Y87.502 E10.05173
G1 X141.178 Y88.2 E10.14272
G1 X141.853 Y88.523 E10.18005
G1 X142.759 Y89.113 E10.23399
G1 X144.21 Y90.226 E10.32523
G1 X144.779 Y90.712 E10.36256
G1 X145.504 Y91.52 E10.41672
G1 X146.617 Y92.971 E10.50795
G1 X147.04 Y93.588 E10.54528
G1 X147.531 Y94.555 E10.59938
G1 X148.228 Y96.24 E10.69036
G1 X148.477 Y96.946 E10.7277
G1 X148.699 Y97.997 E10.7813
G1 X148.939 Y99.81 E10.87254
G1 X148.998 Y100.556 E10.90987
G1 X148.94 Y101.647 E10.96438
G1 X148.7 Y103.461 E11.05567
G1 X148.562 Y104.196 E11.09298
G1 X148.228 Y105.22 E11.14671
G1 X147.531 Y106.904 E11.23764
G1 X147.208 Y107.579 E11.27497
G1 X146.619 Y108.486 E11.32893
G1 X145.506 Y109.938 E11.4202
G1 X145.019 Y110.506 E11.45753
G1 X144.21 Y111.233 E11.51179
G1 X142.759 Y112.346 E11.60303
G1 X142.142 Y112.769 E11.64035
G1 X141.178 Y113.259 E11.6943
G1 X139.493 Y113.957 E11.78529
G1 X138.788 Y114.206 E11.82259
G1 X137.728 Y114.43 E11.87665
G1 X135.914 Y114.669 E11.96793
G1 X135.169 Y114.727 E12.00521
G1 X134.086 Y114.669 E12.05932
G1 X132.272 Y114.43 E12.1506
G1 X131.536 Y114.293 E12.18795
G1 X130.507 Y113.957 E12.24196
G1 X128.822 Y113.259 E12.33295
G1 X128.147 Y112.936 E12.37028
G1 X127.241 Y112.346 E12.42422
G1 X125.79 Y111.233 E12.51546
G1 X125.221 Y110.747 E12.55279
G1 X124.494 Y109.938 E12.60705
G1 X123.381 Y108.486 E12.69833
G1 X122.959 Y107.868 E12.73566
G1 X122.469 Y106.904 E12.78961
G1 X121.772 Y105.22 E12.88054
G1 X121.523 Y104.515 E12.91784
G1 X121.3 Y103.461 E12.97159
G1 X121.06 Y101.647 E13.06288
G1 X121.002 Y100.901 E13.10021
G1 X121.061 Y99.81 E13.15472
G1 X121.301 Y97.997 E13.24596
G1 X121.438 Y97.262 E13.28326
G1 X121.772 Y96.24 E13.3369
G1 X122.469 Y94.555 E13.42787
G1 X122.791 Y93.88 E13.46519
G1 X123.383 Y92.971 E13.5193
G0 F3600 X123.7 Y93.214
G1 F1800 X124.813 Y91.763 E13.61054
G1 X125.286 Y91.212 E13.64677
G1 X126.033 Y90.543 E13.6968
G1 X127.484 Y89.43 E13.78803
G1 X128.084 Y89.02 E13.82429
G1 X128.975 Y88.569 E13.87411
G1 X130.66 Y87.871 E13.9651
G1 X131.345 Y87.631 E14.00131
G1 X132.32 Y87.426 E14.05102
G1 X134.134 Y87.186 E14.14231
G1 X134.859 Y87.131 E14.17858
G1 X135.866 Y87.186 E14.2289
G1 X137.68 Y87.426 E14.32019
G1 X138.393 Y87.561 E14.35639
G1 X139.34 Y87.871 E14.4061
G1 X141.025 Y88.569 E14.4971
G1 X141.68 Y88.884 E14.53336
G1 X142.516 Y89.43 E14.58317
G1 X143.967 Y90.543 E14.67441
G1 X144.518 Y91.016 E14.71064
G1 X145.187 Y91.763 E14.76067
G1 X146.3 Y93.214 E14.8519
G1 X146.71 Y93.814 E14.88816
G1 X147.162 Y94.708 E14.93813
G1 X147.859 Y96.393 E15.02911
G1 X148.099 Y97.079 E15.06537
G1 X148.303 Y98.05 E15.11487
G1 X148.543 Y99.863 E15.20611
G1 X148.598 Y100.587 E15.24233
G1 X148.543 Y101.595 E15.2927
G1 X148.303 Y103.409 E15.38399
G1 X148.168 Y104.122 E15.42019
G1 X147.858 Y105.067 E15.46981
G1 X147.161 Y106.751 E15.56073
G1 X146.847 Y107.406 E15.59697
G1 X146.301 Y108.242 E15.64679
G1 X145.188 Y109.694 E15.73806
G1 X144.715 Y110.245 E15.77429
G1 X143.967 Y110.916 E15.82442
G1 X142.516 Y112.029 E15.91566
G1 X141.916 Y112.439 E15.95191
G1 X141.025 Y112.89 E16.00174
G1 X139.34 Y113.588 E16.09273
G1 X138.655 Y113.828 E16.12894
G1 X137.676 Y114.033 E16.17884
G1 X135.862 Y114.272 E16.27013
G1 X135.138 Y114.328 E16.30635
G1 X134.138 Y114.272 E16.35632
G1 X132.324 Y114.033 E16.44761
G1 X131.61 Y113.899 E16.48385
G1 X130.66 Y113.588 E16.53372
G1 X128.975 Y112.89 E16.62471
G1 X128.32 Y112.575 E16.66097
G1 X127.484 Y112.029 E16.71079
G1 X126.033 Y110.916 E16.80202
G1 X125.482 Y110.443 E16.83825
G1 X124.812 Y109.694 E16.88839
G1 X123.699 Y108.242 E16.97966
G1 X123.289 Y107.642 E17.01592
G1 X122.839 Y106.751 E17.06572
G1 X122.142 Y105.067 E17.15664
G1 X121.901 Y104.382 E17.19287
G1 X121.697 Y103.409 E17.24247
G1 X121.457 Y101.595 E17.33376
G1 X121.402 Y100.87 E17.37004
G1 X121.457 Y99.863 E17.42035
G1 X121.697 Y98.05 E17.51159
G1 X121.832 Y97.336 E17.54784
G1 X122.141 Y96.393 E17.59735
G1 X122.838 Y94.708 E17.68832
G1 X123.152 Y94.053 E17.72456
G1 X123.7 Y93.214 E17.77456
G0 F3600 X124.018 Y93.458
G1 F1800 X125.131 Y92.007 E17.86579
G1 X125.59 Y91.473 E17.90092
G1 X126.277 Y90.861 E17.94683
G1 X127.728 Y89.748 E18.03806
G1 X128.31 Y89.352 E18.07318
G1 X129.128 Y88.939 E18.1189
G1 X130.813 Y88.241 E18.20989
G1 X131.478 Y88.009 E18.24503
G1 X132.373 Y87.823 E18.29063
G1 X134.187 Y87.583 E18.38192
G1 X134.889 Y87.53 E18.41704
G1 X135.813 Y87.583 E18.46322
G1 X137.627 Y87.823 E18.55451
G1 X138.319 Y87.954 E18.58965
G1 X139.187 Y88.241 E18.63526
G1 X140.872 Y88.939 E18.72625
G1 X141.506 Y89.245 E18.76137
G1 X142.272 Y89.748 E18.80709
G1 X143.723 Y90.861 E18.89832
G1 X144.257 Y91.32 E18.93345
G1 X144.869 Y92.007 E18.97936
G1 X145.982 Y93.458 E19.07059
G1 X146.378 Y94.04 E19.10571
G1 X146.792 Y94.861 E19.15158
G1 X147.489 Y96.546 E19.24256
G1 X147.721 Y97.211 E19.27769
G1 X147.906 Y98.102 E19.3231
G1 X148.146 Y99.915 E19.41434
G1 X148.199 Y100.617 E19.44946
G1 X148.146 Y101.542 E19.49568
G1 X147.906 Y103.356 E19.58697
G1 X147.775 Y104.048 E19.62211
G1 X147.489 Y104.914 E19.66761
G1 X146.792 Y106.598 E19.75854
G1 X146.486 Y107.232 E19.79366
G1 X145.984 Y107.999 E19.83939
G1 X144.871 Y109.451 E19.93066
G1 X144.411 Y109.984 E19.96579
G1 X143.723 Y110.598 E20.0118
G1 X142.272 Y111.711 E20.10303
G1 X141.69 Y112.107 E20.13815
G1 X140.872 Y112.52 E20.18387
G1 X139.187 Y113.218 E20.27486
G1 X138.522 Y113.45 E20.31
G1 X137.624 Y113.637 E20.35576
G1 X135.81 Y113.876 E20.44704
G1 X135.108 Y113.928 E20.48216
G1 X134.19 Y113.876 E20.52803
G1 X132.376 Y113.637 E20.61932
G1 X131.685 Y113.505 E20.65441
G1 X130.813 Y113.218 E20.70021
G1 X129.128 Y112.52 E20.79121
G1 X128.494 Y112.214 E20.82633
G1 X127.728 Y111.711 E20.87205
G1 X126.277 Y110.598 E20.96328
G1 X125.743 Y110.139 E20.99841
G1 X125.129 Y109.451 E21.04442
G1 X124.016 Y107.999 E21.13569
G1 X123.62 Y107.417 E21.17081
G1 X123.208 Y106.598 E21.21655
G1 X122.511 Y104.914 E21.30748
G1 X122.279 Y104.249 E21.34262
G1 X122.094 Y103.356 E21.38811
G1 X121.854 Y101.542 E21.4794
G1 X121.801 Y100.84 E21.51453
G1 X121.854 Y99.915 E21.56075
G1 X122.094 Y98.102 E21.65199
G1 X122.225 Y97.411 E21.68708
G1 X122.511 Y96.546 E21.73253
G1 X123.208 Y94.861 E21.8235
G1 X123.513 Y94.227 E21.8586
G1 X124.018 Y93.458 E21.9045
G0 F3600 X124.335 Y93.701
G1 F1800 X125.448 Y92.25 E21.99574
G1 X125.893 Y91.735 E22.02969
G1 X126.52 Y91.178 E22.07154
G1 X127.971 Y90.065 E22.16277
G1 X128.535 Y89.683 E22.19676
G1 X129.281 Y89.309 E22.23839
G1 X130.966 Y88.611 E22.32938
G1 X131.61 Y88.387 E22.3634
G1 X132.425 Y88.219 E22.40491
G1 X134.239 Y87.979 E22.4962
G1 X134.918 Y87.93 E22.53017
G1 X135.761 Y87.979 E22.5723
G1 X137.575 Y88.219 E22.66358
G1 X138.243 Y88.348 E22.69753
G1 X139.034 Y88.611 E22.73911
G1 X140.719 Y89.309 E22.83011
G1 X141.331 Y89.606 E22.86405
G1 X142.029 Y90.065 E22.90572
G1 X143.48 Y91.178 E22.99696
G1 X143.995 Y91.623 E23.03091
G1 X144.552 Y92.25 E23.07276
G1 X145.665 Y93.701 E23.16399
G1 X146.047 Y94.265 E23.19798
G1 X146.423 Y95.014 E23.23979
G1 X147.12 Y96.699 E23.33076
G1 X147.342 Y97.342 E23.3647
G1 X147.51 Y98.155 E23.40612
G1 X147.75 Y99.968 E23.49736
G1 X147.799 Y100.647 E23.53132
G1 X147.75 Y101.49 E23.57345
G1 X147.51 Y103.304 E23.66474
G1 X147.381 Y103.972 E23.69868
G1 X147.119 Y104.761 E23.74016
G1 X146.422 Y106.445 E23.83108
G1 X146.125 Y107.058 E23.86507
G1 X145.666 Y107.756 E23.90674
G1 X144.553 Y109.208 E23.99802
G1 X144.108 Y109.723 E24.03198
G1 X143.48 Y110.281 E24.07389
G1 X142.029 Y111.394 E24.16512
G1 X141.465 Y111.776 E24.19911
G1 X140.719 Y112.15 E24.24074
G1 X139.034 Y112.848 E24.33173
G1 X138.39 Y113.072 E24.36575
G1 X137.572 Y113.24 E24.40741
G1 X135.758 Y113.479 E24.49869
G1 X135.079 Y113.528 E24.53266
G1 X134.242 Y113.479 E24.57449
G1 X132.428 Y113.24 E24.66577
G1 X131.76 Y113.112 E24.6997
G1 X130.966 Y112.848 E24.74145
G1 X129.281 Y112.15 E24.83244
G1 X128.669 Y111.853 E24.86638
G1 X127.971 Y111.394 E24.90806
G1 X126.52 Y110.281 E24.99929
G1 X126.005 Y109.836 E25.03325
G1 X125.447 Y109.208 E25.07516
G1 X124.334 Y107.756 E25.16643
G1 X123.952 Y107.192 E25.20042
G1 X123.578 Y106.445 E25.2421
G1 X122.881 Y104.761 E25.33302
G1 X122.658 Y104.118 E25.36698
G1 X122.49 Y103.304 E25.40845
G1 X122.25 Y101.49 E25.49973
G1 X122.201 Y100.811 E25.5337
G1 X122.25 Y99.968 E25.57583
G1 X122.49 Y98.155 E25.66707
G1 X122.619 Y97.486 E25.70106
G1 X122.88 Y96.699 E25.74242
G1 X123.577 Y95.014 E25.8334
G1 X123.874 Y94.401 E25.86738
G1 X124.335 Y93.701 E25.9092
G0 F3600 X124.652 Y93.944
G1 F1800 X125.765 Y92.493 E26.00043
G1 X126.196 Y91.997 E26.03321
G1 X126.763 Y91.495 E26.071
G1 X128.214 Y90.382 E26.16223
G1 X128.759 Y90.015 E26.19501
G1 X129.434 Y89.678 E26.23265
G1 X131.119 Y88.98 E26.32364
G1 X131.741 Y88.766 E26.35646
G1 X132.478 Y88.616 E26.39398
G1 X134.292 Y88.376 E26.48527
G1 X134.947 Y88.329 E26.51803
G1 X135.708 Y88.376 E26.55607
G1 X137.522 Y88.616 E26.64736
G1 X138.167 Y88.741 E26.68014
G1 X138.881 Y88.98 E26.7177
G1 X140.566 Y89.678 E26.8087
G1 X141.156 Y89.966 E26.84145
G1 X141.786 Y90.382 E26.87912
G1 X143.237 Y91.495 E26.97035
G1 X143.733 Y91.926 E27.00313
G1 X144.235 Y92.493 E27.04092
G1 X145.348 Y93.944 E27.13215
G1 X145.715 Y94.489 E27.16493
G1 X146.053 Y95.167 E27.20273
G1 X146.75 Y96.852 E27.2937
G1 X146.964 Y97.473 E27.32647
G1 X147.113 Y98.207 E27.36384
G1 X147.353 Y100.02 E27.45508
G1 X147.4 Y100.676 E27.48789
G1 X147.353 Y101.437 E27.52593
G1 X147.113 Y103.251 E27.61722
G1 X146.988 Y103.896 E27.64999
G1 X146.75 Y104.608 E27.68745
G1 X146.053 Y106.292 E27.77837
G1 X145.765 Y106.883 E27.81117
