;FLAVOR:Marlin
;TIME:11885
;Filament used: 19.2216m
;Layer height: 0.3
;MINX:52.2
;MINY:41.7
;MINZ:0.3
;MAXX:217.8
;MAXY:163.3
;MAXZ:34.8
;Generated with Cura_SteamEngine 4.8.0
M140 S60
M105
M190 S60
M104 S210
M105
M109 S210
M82 ;absolute extrusion mode
G28 ;Home
G1 Z15.0 F6000 ;Move the platform down 15mm
;Prime the extruder
G92 E0
G1 F200 E3
G92 E0
G92 E0
G92 E0
G1 F2400 E-6.5
;LAYER_COUNT:116
;LAYER:0
M107
G0 F3600 X54.08 Y44.422 Z0.3
;TYPE:SKIRT
G1 F2400 E0
G1 F1800 X54.623 Y43.849 E0.03938
G1 X55.222 Y43.334 E0.0788
G1 X55.87 Y42.883 E0.11818
G1 X56.561 Y42.499 E0.15762
G1 X57.286 Y42.187 E0.197
G1 X58.039 Y41.95 E0.23638
G1 X58.813 Y41.791 E0.27581
G1 X59.598 Y41.71 E0.31518
G1 X60 Y41.7 E0.33524
G1 X210 Y41.7 E7.81877
G1 X210.789 Y41.74 E7.85818
G1 X211.569 Y41.859 E7.89755
G1 X212.334 Y42.057 E7.93697
G1 X213.074 Y42.331 E7.97634
G1 X213.783 Y42.679 E8.01574
G1 X214.454 Y43.097 E8.05518
G1 X215.078 Y43.58 E8.09455
G1 X215.651 Y44.123 E8.13394
G1 X216.166 Y44.722 E8.17335
G1 X216.617 Y45.37 E8.21274
G1 X217.001 Y46.061 E8.25218
G1 X217.313 Y46.786 E8.29155
G1 X217.55 Y47.539 E8.33094
G1 X217.709 Y48.313 E8.37036
G1 X217.79 Y49.098 E8.40973
G1 X217.8 Y49.5 E8.42979
G1 X217.8 Y155.5 E13.71815
G1 X217.76 Y156.289 E13.75757
G1 X217.641 Y157.069 E13.79693
G1 X217.443 Y157.834 E13.83636
G1 X217.169 Y158.574 E13.87572
G1 X216.821 Y159.283 E13.91513
G1 X216.403 Y159.954 E13.95457
G1 X215.92 Y160.578 E13.99394
G1 X215.377 Y161.151 E14.03332
G1 X214.778 Y161.666 E14.07273
G1 X214.13 Y162.117 E14.11212
G1 X213.439 Y162.501 E14.15156
G1 X212.714 Y162.813 E14.19094
G1 X211.961 Y163.05 E14.23032
G1 X211.187 Y163.209 E14.26974
G1 X210.402 Y163.29 E14.30911
G1 X210 Y163.3 E14.32918
G1 X60 Y163.3 E21.81271
G1 X59.211 Y163.26 E21.85212
G1 X58.431 Y163.141 E21.89148
G1 X57.666 Y162.943 E21.93091
G1 X56.926 Y162.669 E21.97028
G1 X56.217 Y162.321 E22.00968
G1 X55.546 Y161.903 E22.04912
G1 X54.922 Y161.42 E22.08849
G1 X54.349 Y160.877 E22.12787
G1 X53.834 Y160.278 E22.16728
G1 X53.383 Y159.63 E22.20667
G1 X52.999 Y158.939 E22.24611
G1 X52.687 Y158.214 E22.28549
G1 X52.45 Y157.461 E22.32487
G1 X52.291 Y156.687 E22.36429
G1 X52.21 Y155.902 E22.40367
G1 X52.2 Y155.5 E22.42373
G1 X52.2 Y49.5 E27.71209
G1 X52.24 Y48.711 E27.7515
G1 X52.359 Y47.931 E27.79087
G1 X52.557 Y47.166 E27.83029
G1 X52.831 Y46.426 E27.86966
G1 X53.179 Y45.717 E27.90906
G1 X53.597 Y45.046 E27.9485
G1 X54.08 Y44.422 E27.98787
G0 F3600 X54.475 Y44.577
G1 F1800 X55.016 Y44.03 E28.02625
G1 X55.611 Y43.542 E28.06465
G1 X56.253 Y43.119 E28.103
G1 X56.936 Y42.764 E28.14141
G1 X57.651 Y42.483 E28.17973
G1 X58.393 Y42.277 E28.21815
G1 X59.151 Y42.149 E28.2565
G1 X60 Y42.1 E28.29893
G1 X210 Y42.1 E35.78246
G1 X210.768 Y42.14 E35.82083
G1 X211.528 Y42.259 E35.85921
G1 X212.271 Y42.457 E35.89757
G1 X212.99 Y42.731 E35.93596
G1 X213.676 Y43.078 E35.97431
G1 X214.323 Y43.494 E36.01269
G1 X214.923 Y43.975 E36.05105
G1 X215.47 Y44.516 E36.08944
G1 X215.958 Y45.111 E36.12783
G1 X216.381 Y45.753 E36.16618
G1 X216.736 Y46.436 E36.20459
G1 X217.017 Y47.151 E36.24291
G1 X217.223 Y47.893 E36.28133
G1 X217.351 Y48.651 E36.31969
G1 X217.4 Y49.5 E36.36211
G1 X217.4 Y155.5 E41.65047
G1 X217.36 Y156.268 E41.68884
G1 X217.241 Y157.028 E41.72722
G1 X217.043 Y157.771 E41.76558
G1 X216.769 Y158.49 E41.80397
G1 X216.422 Y159.176 E41.84232
G1 X216.006 Y159.823 E41.8807
G1 X215.525 Y160.423 E41.91906
G1 X214.984 Y160.97 E41.95745
G1 X214.389 Y161.458 E41.99584
G1 X213.747 Y161.881 E42.0342
G1 X213.064 Y162.236 E42.0726
G1 X212.349 Y162.517 E42.11093
G1 X211.607 Y162.723 E42.14935
G1 X210.849 Y162.851 E42.1877
G1 X210 Y162.9 E42.23012
G1 X60 Y162.9 E49.71366
G1 X59.232 Y162.86 E49.75202
G1 X58.472 Y162.741 E49.7904
G1 X57.729 Y162.543 E49.82876
G1 X57.01 Y162.269 E49.86715
G1 X56.324 Y161.922 E49.9055
G1 X55.677 Y161.506 E49.94388
G1 X55.077 Y161.025 E49.98225
G1 X54.53 Y160.484 E50.02063
G1 X54.042 Y159.889 E50.05902
G1 X53.619 Y159.247 E50.09738
G1 X53.264 Y158.564 E50.13578
G1 X52.983 Y157.849 E50.17411
G1 X52.777 Y157.107 E50.21253
G1 X52.649 Y156.349 E50.25088
G1 X52.6 Y155.5 E50.29331
G1 X52.6 Y49.5 E55.58167
G1 X52.64 Y48.732 E55.62003
G1 X52.759 Y47.972 E55.65841
G1 X52.957 Y47.229 E55.69678
G1 X53.231 Y46.51 E55.73516
G1 X53.578 Y45.824 E55.77352
G1 X53.994 Y45.177 E55.81189
G1 X54.475 Y44.577 E55.85026
G0 F3600 X54.871 Y44.737
G1 F1800 X55.408 Y44.216 E55.88759
G1 X55.998 Y43.757 E55.92488
G1 X56.634 Y43.362 E55.96223
G1 X57.308 Y43.038 E55.99954
G1 X58.013 Y42.788 E56.03686
G1 X58.741 Y42.614 E56.0742
G1 X59.483 Y42.519 E56.11152
G1 X60 Y42.5 E56.13733
G1 X210 Y42.5 E63.62086
G1 X210.747 Y42.54 E63.65819
G1 X211.485 Y42.659 E63.69548
G1 X212.207 Y42.857 E63.73283
G1 X212.903 Y43.13 E63.77013
G1 X213.566 Y43.477 E63.80746
G1 X214.189 Y43.892 E63.84481
G1 X214.763 Y44.371 E63.88211
G1 X215.284 Y44.908 E63.91944
G1 X215.743 Y45.498 E63.95673
G1 X216.138 Y46.134 E63.99408
G1 X216.462 Y46.808 E64.03139
G1 X216.712 Y47.513 E64.06871
G1 X216.886 Y48.241 E64.10605
G1 X216.981 Y48.983 E64.14337
G1 X217 Y49.5 E64.16918
G1 X217 Y155.5 E69.45755
G1 X216.96 Y156.247 E69.49487
G1 X216.841 Y156.985 E69.53216
G1 X216.643 Y157.707 E69.56951
G1 X216.37 Y158.403 E69.60681
G1 X216.023 Y159.066 E69.64415
G1 X215.608 Y159.689 E69.68149
G1 X215.129 Y160.263 E69.71879
G1 X214.592 Y160.784 E69.75612
G1 X214.002 Y161.243 E69.79341
G1 X213.366 Y161.638 E69.83076
G1 X212.692 Y161.962 E69.86807
G1 X211.987 Y162.212 E69.90539
G1 X211.259 Y162.386 E69.94273
G1 X210.517 Y162.481 E69.98006
G1 X210 Y162.5 E70.00587
G1 X60 Y162.5 E77.4894
G1 X59.253 Y162.46 E77.52672
G1 X58.515 Y162.341 E77.56401
G1 X57.793 Y162.143 E77.60136
G1 X57.097 Y161.87 E77.63866
G1 X56.434 Y161.523 E77.676
G1 X55.811 Y161.108 E77.71334
G1 X55.237 Y160.629 E77.75064
G1 X54.716 Y160.092 E77.78797
G1 X54.257 Y159.502 E77.82526
G1 X53.862 Y158.866 E77.86261
G1 X53.538 Y158.192 E77.89992
G1 X53.288 Y157.487 E77.93724
G1 X53.114 Y156.759 E77.97458
G1 X53.019 Y156.017 E78.01191
G1 X53 Y155.5 E78.03772
G1 X53 Y49.5 E83.32608
G1 X53.04 Y48.753 E83.3634
G1 X53.159 Y48.015 E83.40069
G1 X53.357 Y47.293 E83.43804
G1 X53.63 Y46.597 E83.47534
G1 X53.977 Y45.934 E83.51268
G1 X54.392 Y45.311 E83.55002
G1 X54.871 Y44.737 E83.58732
G0 F3600 X54.789 Y45.45
G1 F1800 X55.265 Y44.902 E83.62354
G1 X55.799 Y44.409 E83.65979
G1 X56.384 Y43.979 E83.69602
G1 X57.013 Y43.615 E83.73227
G1 X57.678 Y43.322 E83.76853
G1 X58.371 Y43.104 E83.80477
G1 X59.083 Y42.964 E83.84097
G1 X60 Y42.9 E83.88683
G1 X210 Y42.9 E91.37036
G1 X210.725 Y42.94 E91.40659
G1 X211.442 Y43.059 E91.44285
G1 X212.141 Y43.257 E91.4791
G1 X212.814 Y43.53 E91.51533
G1 X213.453 Y43.875 E91.55156
G1 X214.05 Y44.289 E91.5878
G1 X214.598 Y44.765 E91.62402
G1 X215.091 Y45.299 E91.66028
G1 X215.521 Y45.884 E91.6965
G1 X215.885 Y46.513 E91.73276
G1 X216.178 Y47.178 E91.76901
G1 X216.396 Y47.871 E91.80525
G1 X216.536 Y48.583 E91.84146
G1 X216.6 Y49.5 E91.88732
G1 X216.6 Y155.5 E97.17568
G1 X216.56 Y156.225 E97.2119
G1 X216.441 Y156.942 E97.24816
G1 X216.243 Y157.641 E97.28441
G1 X215.97 Y158.314 E97.32064
G1 X215.625 Y158.953 E97.35687
G1 X215.211 Y159.55 E97.39312
G1 X214.735 Y160.098 E97.42933
G1 X214.201 Y160.591 E97.46559
G1 X213.616 Y161.021 E97.50181
G1 X212.987 Y161.385 E97.53807
G1 X212.322 Y161.678 E97.57432
G1 X211.629 Y161.896 E97.61057
G1 X210.917 Y162.036 E97.64677
G1 X210 Y162.1 E97.69263
G1 X60 Y162.1 E105.17616
G1 X59.275 Y162.06 E105.21239
G1 X58.558 Y161.941 E105.24865
G1 X57.859 Y161.743 E105.28489
G1 X57.186 Y161.47 E105.32113
G1 X56.547 Y161.125 E105.35736
G1 X55.95 Y160.711 E105.3936
G1 X55.402 Y160.235 E105.42981
G1 X54.909 Y159.701 E105.46607
G1 X54.479 Y159.116 E105.5023
G1 X54.115 Y158.487 E105.53855
G1 X53.822 Y157.822 E105.57481
G1 X53.604 Y157.129 E105.61105
G1 X53.464 Y156.417 E105.64725
G1 X53.4 Y155.5 E105.69311
G1 X53.4 Y49.5 E110.98148
G1 X53.44 Y48.775 E111.0177
G1 X53.559 Y48.058 E111.05396
G1 X53.757 Y47.359 E111.09021
G1 X54.03 Y46.686 E111.12644
G1 X54.375 Y46.047 E111.16267
G1 X54.789 Y45.45 E111.19891
G0 F3600 X55.185 Y45.594
G1 F1800 X55.659 Y45.073 E111.23406
G1 X56.189 Y44.609 E111.2692
G1 X56.768 Y44.209 E111.30431
G1 X57.389 Y43.877 E111.33944
G1 X58.043 Y43.617 E111.37455
G1 X58.723 Y43.433 E111.4097
G1 X59.419 Y43.327 E111.44482
G1 X60 Y43.3 E111.47384
G1 X210 Y43.3 E118.95737
G1 X210.703 Y43.34 E118.9925
G1 X211.397 Y43.459 E119.02763
G1 X212.072 Y43.657 E119.06272
G1 X212.721 Y43.929 E119.09783
G1 X213.335 Y44.274 E119.13297
G1 X213.906 Y44.685 E119.16807
G1 X214.427 Y45.159 E119.20321
G1 X214.891 Y45.689 E119.23835
G1 X215.291 Y46.268 E119.27346
G1 X215.623 Y46.889 E119.30859
G1 X215.883 Y47.543 E119.3437
G1 X216.067 Y48.223 E119.37885
G1 X216.173 Y48.919 E119.41397
G1 X216.2 Y49.5 E119.44299
G1 X216.2 Y155.5 E124.73135
G1 X216.16 Y156.203 E124.76648
G1 X216.041 Y156.897 E124.80161
G1 X215.843 Y157.572 E124.8367
G1 X215.571 Y158.221 E124.87181
G1 X215.226 Y158.835 E124.90695
G1 X214.815 Y159.406 E124.94205
G1 X214.341 Y159.927 E124.97719
G1 X213.811 Y160.391 E125.01233
G1 X213.232 Y160.791 E125.04744
G1 X212.611 Y161.123 E125.08257
G1 X211.957 Y161.383 E125.11769
G1 X211.277 Y161.567 E125.15283
G1 X210.581 Y161.673 E125.18795
G1 X210 Y161.7 E125.21697
G1 X60 Y161.7 E132.7005
G1 X59.297 Y161.66 E132.73563
G1 X58.603 Y161.541 E132.77076
G1 X57.928 Y161.343 E132.80586
G1 X57.279 Y161.071 E132.84096
G1 X56.665 Y160.726 E132.8761
G1 X56.094 Y160.315 E132.9112
G1 X55.573 Y159.841 E132.94634
G1 X55.109 Y159.311 E132.98148
G1 X54.709 Y158.732 E133.01659
G1 X54.377 Y158.111 E133.05172
G1 X54.117 Y157.457 E133.08684
G1 X53.933 Y156.777 E133.12198
G1 X53.827 Y156.081 E133.15711
G1 X53.8 Y155.5 E133.18612
G1 X53.8 Y49.5 E138.47449
G1 X53.84 Y48.797 E138.50961
G1 X53.959 Y48.103 E138.54474
G1 X54.157 Y47.428 E138.57984
G1 X54.429 Y46.779 E138.61495
G1 X54.774 Y46.165 E138.65008
G1 X55.185 Y45.594 E138.68518
G0 F3600 X55.582 Y45.742
G1 F1800 X56.053 Y45.251 E138.71913
G1 X56.578 Y44.817 E138.75311
G1 X57.15 Y44.448 E138.78707
G1 X57.762 Y44.149 E138.82105
G1 X58.404 Y43.924 E138.85499
G1 X59.069 Y43.775 E138.88899
G1 X60 Y43.7 E138.93559
G1 X210 Y43.7 E146.41912
G1 X210.68 Y43.74 E146.4531
G1 X211.35 Y43.859 E146.48705
G1 X212.002 Y44.056 E146.52103
G1 X212.626 Y44.328 E146.555
G1 X213.214 Y44.672 E146.58898
G1 X213.758 Y45.082 E146.62297
G1 X214.249 Y45.553 E146.65691
G1 X214.683 Y46.078 E146.69089
G1 X215.052 Y46.65 E146.72485
G1 X215.351 Y47.262 E146.75884
G1 X215.576 Y47.904 E146.79278
G1 X215.725 Y48.569 E146.82678
G1 X215.8 Y49.5 E146.87337
G1 X215.8 Y155.5 E152.16174
G1 X215.76 Y156.18 E152.19572
G1 X215.641 Y156.85 E152.22967
G1 X215.444 Y157.502 E152.26365
G1 X215.172 Y158.126 E152.29761
G1 X214.828 Y158.714 E152.3316
G1 X214.418 Y159.258 E152.36558
G1 X213.947 Y159.749 E152.39953
G1 X213.422 Y160.183 E152.43351
G1 X212.85 Y160.552 E152.46747
G1 X212.238 Y160.851 E152.50145
G1 X211.596 Y161.076 E152.53539
G1 X210.931 Y161.225 E152.56939
G1 X210 Y161.3 E152.61599
G1 X60 Y161.3 E160.09952
G1 X59.32 Y161.26 E160.1335
G1 X58.65 Y161.141 E160.16745
G1 X57.998 Y160.944 E160.20143
G1 X57.374 Y160.672 E160.2354
G1 X56.786 Y160.328 E160.26938
G1 X56.242 Y159.918 E160.30337
G1 X55.751 Y159.447 E160.33731
G1 X55.317 Y158.922 E160.3713
G1 X54.948 Y158.35 E160.40526
G1 X54.649 Y157.738 E160.43924
G1 X54.424 Y157.096 E160.47318
G1 X54.275 Y156.431 E160.50718
G1 X54.2 Y155.5 E160.55377
G1 X54.2 Y49.5 E165.84214
G1 X54.24 Y48.82 E165.87612
G1 X54.359 Y48.15 E165.91007
G1 X54.556 Y47.498 E165.94405
G1 X54.828 Y46.874 E165.97801
G1 X55.172 Y46.286 E166.012
G1 X55.582 Y45.742 E166.04598
G0 F3600 X55.978 Y45.897
G1 F1800 X56.445 Y45.435 E166.07876
G1 X56.965 Y45.034 E166.11152
G1 X57.529 Y44.698 E166.14427
G1 X58.131 Y44.434 E166.17707
G1 X58.76 Y44.244 E166.20985
G1 X59.407 Y44.133 E166.2426
G1 X60 Y44.1 E166.27223
G1 X210 Y44.1 E173.75576
G1 X210.656 Y44.14 E173.78855
G1 X211.302 Y44.259 E173.82132
G1 X211.929 Y44.456 E173.85411
G1 X212.527 Y44.728 E173.88688
G1 X213.088 Y45.07 E173.91966
G1 X213.603 Y45.478 E173.95244
G1 X214.065 Y45.945 E173.98522
G1 X214.466 Y46.465 E174.01798
G1 X214.802 Y47.029 E174.05073
G1 X215.066 Y47.631 E174.08352
G1 X215.256 Y48.26 E174.11631
G1 X215.367 Y48.907 E174.14906
G1 X215.4 Y49.5 E174.17869
G1 X215.4 Y155.5 E179.46705
G1 X215.36 Y156.156 E179.49984
G1 X215.241 Y156.802 E179.53261
G1 X215.044 Y157.429 E179.5654
G1 X214.772 Y158.027 E179.59817
G1 X214.43 Y158.588 E179.63095
G1 X214.022 Y159.103 E179.66373
G1 X213.555 Y159.565 E179.6965
G1 X213.035 Y159.966 E179.72927
G1 X212.471 Y160.302 E179.76202
G1 X211.869 Y160.566 E179.79481
G1 X211.24 Y160.756 E179.82759
G1 X210.593 Y160.867 E179.86034
G1 X210 Y160.9 E179.88998
G1 X60 Y160.9 E187.37351
G1 X59.344 Y160.86 E187.40629
G1 X58.698 Y160.741 E187.43907
G1 X58.071 Y160.544 E187.47185
G1 X57.473 Y160.272 E187.50463
G1 X56.912 Y159.93 E187.53741
G1 X56.397 Y159.522 E187.57019
G1 X55.935 Y159.055 E187.60296
G1 X55.534 Y158.535 E187.63572
G1 X55.198 Y157.971 E187.66848
G1 X54.934 Y157.369 E187.70127
G1 X54.744 Y156.74 E187.73405
G1 X54.633 Y156.093 E187.7668
G1 X54.6 Y155.5 E187.79643
G1 X54.6 Y49.5 E193.0848
G1 X54.64 Y48.844 E193.11758
G1 X54.759 Y48.198 E193.15036
G1 X54.956 Y47.571 E193.18314
G1 X55.228 Y46.973 E193.21592
G1 X55.57 Y46.412 E193.2487
G1 X55.978 Y45.897 E193.28148
G0 F3600 X56.373 Y46.059
G1 F1800 X56.836 Y45.629 E193.313
G1 X57.35 Y45.26 E193.34457
G1 X57.906 Y44.96 E193.37609
G1 X58.495 Y44.732 E193.4076
G1 X59.109 Y44.58 E193.43916
G1 X60 Y44.5 E193.48379
G1 X210 Y44.5 E200.96732
G1 X210.631 Y44.54 E200.99886
G1 X211.252 Y44.659 E201.03041
G1 X211.852 Y44.856 E201.06191
G1 X212.424 Y45.127 E201.09349
G1 X212.956 Y45.467 E201.12499
G1 X213.441 Y45.873 E201.15655
G1 X213.871 Y46.336 E201.18807
G1 X214.24 Y46.85 E201.21964
G1 X214.54 Y47.406 E201.25116
G1 X214.768 Y47.995 E201.28267
G1 X214.92 Y48.609 E201.31423
G1 X215 Y49.5 E201.35886
G1 X215 Y155.5 E206.64722
G1 X214.96 Y156.131 E206.67876
G1 X214.841 Y156.752 E206.71031
G1 X214.644 Y157.352 E206.74181
G1 X214.373 Y157.924 E206.77339
G1 X214.033 Y158.456 E206.80489
G1 X213.627 Y158.941 E206.83645
G1 X213.164 Y159.371 E206.86797
G1 X212.65 Y159.74 E206.89954
G1 X212.094 Y160.04 E206.93106
G1 X211.505 Y160.268 E206.96257
G1 X210.891 Y160.42 E206.99412
G1 X210 Y160.5 E207.03876
G1 X60 Y160.5 E214.52229
G1 X59.369 Y160.46 E214.55383
G1 X58.748 Y160.341 E214.58538
G1 X58.148 Y160.144 E214.61688
G1 X57.576 Y159.873 E214.64846
G1 X57.044 Y159.533 E214.67996
G1 X56.559 Y159.127 E214.71151
G1 X56.129 Y158.664 E214.74304
G1 X55.76 Y158.15 E214.77461
G1 X55.46 Y157.594 E214.80613
G1 X55.232 Y157.005 E214.83764
G1 X55.08 Y156.391 E214.86919
G1 X55 Y155.5 E214.91382
G1 X55 Y49.5 E220.20219
G1 X55.04 Y48.869 E220.23373
G1 X55.159 Y48.248 E220.26528
G1 X55.356 Y47.648 E220.29678
G1 X55.627 Y47.076 E220.32836
G1 X55.967 Y46.544 E220.35986
G1 X56.373 Y46.059 E220.39141
G0 F3600 X56.365 Y46.681
G1 F1800 X56.767 Y46.228 E220.42163
G1 X57.225 Y45.831 E220.45187
G1 X57.732 Y45.498 E220.48213
G1 X58.278 Y45.234 E220.51239
G1 X58.854 Y45.045 E220.54263
G1 X59.45 Y44.933 E220.57289
G1 X60 Y44.9 E220.60038
G1 X210 Y44.9 E228.08391
G1 X210.605 Y44.94 E228.11416
G1 X211.199 Y45.059 E228.14438
G1 X211.773 Y45.255 E228.17464
G1 X212.316 Y45.526 E228.20492
G1 X212.819 Y45.865 E228.23518
G1 X213.272 Y46.267 E228.2654
G1 X213.669 Y46.725 E228.29563
G1 X214.002 Y47.232 E228.3259
G1 X214.266 Y47.778 E228.35615
G1 X214.455 Y48.354 E228.3864
G1 X214.567 Y48.95 E228.41665
G1 X214.6 Y49.5 E228.44414
G1 X214.6 Y155.5 E233.7325
G1 X214.56 Y156.105 E233.76275
G1 X214.441 Y156.699 E233.79298
G1 X214.245 Y157.273 E233.82324
G1 X213.974 Y157.816 E233.85351
G1 X213.635 Y158.319 E233.88378
G1 X213.233 Y158.772 E233.91399
G1 X212.775 Y159.169 E233.94423
G1 X212.268 Y159.502 E233.97449
G1 X211.722 Y159.766 E234.00475
G1 X211.146 Y159.955 E234.035
G1 X210.55 Y160.067 E234.06525
G1 X210 Y160.1 E234.09274
G1 X60 Y160.1 E241.57627
G1 X59.395 Y160.06 E241.60652
G1 X58.801 Y159.941 E241.63674
G1 X58.227 Y159.745 E241.667
G1 X57.684 Y159.474 E241.69728
