;FLAVOR:Marlin
;TIME:2161
;Filament used: 2.18525m
;Layer height: 0.2
;MINX:93.464
;MINY:48.575
;MINZ:0.3
;MAXX:163.047
;MAXY:149.526
;MAXZ:6.9
;Generated with Cura_SteamEngine 4.8.0
M140 S60
M105
M190 S60
M104 S210
M105
M109 S210
M82 ;absolute extrusion mode
G28 ;Home
G1 Z15.0 F6000 ;Move the platform down 15mm
;Prime the extruder
G92 E0
G1 F200 E3
G92 E0
G92 E0
G92 E0
G1 F2400 E-6.5
;LAYER_COUNT:34
;LAYER:0
M107
G0 F3600 X95.735 Y66.899 Z0.3
;TYPE:SKIRT
G1 F2400 E0
G1 F1800 X96.005 Y66.525 E0.02301
G1 X97.115 Y65.077 E0.11404
G1 X97.626 Y64.475 E0.15343
G1 X98.196 Y63.928 E0.19285
G1 X98.558 Y63.633 E0.21614
G1 X100.005 Y62.523 E0.30713
G1 X100.655 Y62.075 E0.34651
G1 X101.347 Y61.695 E0.3859
G1 X101.768 Y61.505 E0.40894
G1 X103.449 Y60.809 E0.49971
G1 X104.193 Y60.545 E0.5391
G1 X104.96 Y60.356 E0.57851
G1 X105.412 Y60.283 E0.60135
G1 X107.222 Y60.044 E0.69244
G1 X107.288 Y60.039 E0.69574
G1 X107.343 Y59.742 E0.71081
G1 X107.564 Y58.984 E0.7502
G1 X107.724 Y58.562 E0.77272
G1 X108.419 Y56.882 E0.86342
G1 X108.758 Y56.169 E0.90281
G1 X109.167 Y55.493 E0.94223
G1 X109.437 Y55.119 E0.96524
G1 X110.547 Y53.671 E1.05627
G1 X111.058 Y53.069 E1.09566
G1 X111.628 Y52.522 E1.13507
G1 X111.992 Y52.225 E1.15851
G1 X113.439 Y51.116 E1.24947
G1 X114.09 Y50.668 E1.28889
G1 X114.782 Y50.288 E1.32828
G1 X115.202 Y50.1 E1.35124
G1 X116.884 Y49.404 E1.44205
G1 X117.628 Y49.139 E1.48146
G1 X118.395 Y48.951 E1.52085
G1 X118.84 Y48.879 E1.54334
G1 X120.649 Y48.639 E1.63439
G1 X121.436 Y48.575 E1.67378
G1 X122.226 Y48.59 E1.7132
G1 X122.7 Y48.639 E1.73697
G1 X124.51 Y48.879 E1.82807
G1 X125.287 Y49.022 E1.86748
G1 X126.045 Y49.243 E1.90687
G1 X126.469 Y49.404 E1.9295
G1 X128.15 Y50.1 E2.02027
G1 X128.863 Y50.439 E2.05966
G1 X129.539 Y50.848 E2.09908
G1 X129.911 Y51.116 E2.12195
G1 X131.358 Y52.225 E2.2129
G1 X131.959 Y52.737 E2.25229
G1 X132.506 Y53.306 E2.29167
G1 X132.801 Y53.668 E2.31497
G1 X133.912 Y55.116 E2.40602
G1 X134.361 Y55.766 E2.44544
G1 X134.741 Y56.458 E2.48482
G1 X134.932 Y56.882 E2.50802
G1 X135.616 Y58.536 E2.59732
G1 X136.03 Y57.925 E2.63414
G1 X137.14 Y56.477 E2.72517
G1 X137.651 Y55.875 E2.76456
G1 X138.221 Y55.328 E2.80398
G1 X138.583 Y55.033 E2.82727
G1 X140.03 Y53.923 E2.91826
G1 X140.68 Y53.475 E2.95764
G1 X141.372 Y53.095 E2.99703
G1 X141.793 Y52.905 E3.02007
G1 X143.474 Y52.209 E3.11084
G1 X144.218 Y51.945 E3.15023
G1 X144.985 Y51.756 E3.18964
G1 X145.437 Y51.683 E3.21248
G1 X147.247 Y51.444 E3.30357
G1 X148.034 Y51.381 E3.34296
G1 X148.824 Y51.397 E3.38238
G1 X149.289 Y51.444 E3.40569
G1 X151.099 Y51.683 E3.49678
G1 X151.876 Y51.826 E3.5362
G1 X152.634 Y52.047 E3.57559
G1 X153.062 Y52.209 E3.59842
G1 X154.743 Y52.905 E3.68919
G1 X155.456 Y53.244 E3.72858
G1 X156.132 Y53.653 E3.76799
G1 X156.506 Y53.923 E3.79101
G1 X157.953 Y55.033 E3.88199
G1 X158.555 Y55.545 E3.92142
G1 X159.102 Y56.115 E3.96083
G1 X159.396 Y56.477 E3.9841
G1 X160.506 Y57.925 E4.07512
G1 X160.954 Y58.575 E4.11451
G1 X161.335 Y59.267 E4.15392
G1 X161.524 Y59.688 E4.17694
G1 X162.219 Y61.368 E4.26765
G1 X162.483 Y62.112 E4.30703
G1 X162.671 Y62.879 E4.34643
G1 X162.743 Y63.325 E4.36897
G1 X162.983 Y65.135 E4.46006
G1 X163.047 Y65.922 E4.49946
G1 X163.031 Y66.711 E4.53883
G1 X162.983 Y67.186 E4.56265
G1 X162.743 Y68.995 E4.65369
G1 X162.6 Y69.771 E4.69305
G1 X162.379 Y70.529 E4.73245
G1 X162.219 Y70.949 E4.75487
G1 X161.524 Y72.63 E4.84562
G1 X161.186 Y73.344 E4.88503
G1 X160.777 Y74.019 E4.92441
G1 X160.506 Y74.395 E4.94753
G1 X159.396 Y75.843 E5.03855
G1 X158.885 Y76.445 E5.07795
G1 X158.315 Y76.992 E5.11736
G1 X158.05 Y77.208 E5.13442
G1 X158.058 Y98.246 E6.18401
G1 X158.057 Y112.832 E6.91171
G1 X158.464 Y113.228 E6.94004
G1 X159.586 Y114.484 E7.02406
G1 X160.082 Y115.098 E7.06344
G1 X160.513 Y115.76 E7.10285
G1 X160.874 Y116.462 E7.14223
G1 X161.163 Y117.197 E7.18164
G1 X161.376 Y117.957 E7.22101
G1 X161.512 Y118.735 E7.26042
G1 X161.567 Y119.523 E7.29983
G1 X161.543 Y120.312 E7.33921
G1 X161.44 Y121.095 E7.37861
G1 X161.257 Y121.864 E7.41805
G1 X160.998 Y122.61 E7.45744
G1 X160.665 Y123.325 E7.49679
G1 X160.467 Y123.657 E7.51608
G1 X160.77 Y124.202 E7.54719
G1 X161.082 Y124.927 E7.58657
G1 X161.319 Y125.68 E7.62595
G1 X161.478 Y126.454 E7.66537
G1 X161.559 Y127.239 E7.70474
G1 X161.559 Y128.029 E7.74416
G1 X161.48 Y128.815 E7.78357
G1 X161.322 Y129.588 E7.82293
G1 X161.086 Y130.342 E7.86235
G1 X160.776 Y131.068 E7.90173
G1 X160.393 Y131.759 E7.94115
G1 X159.943 Y132.408 E7.98055
G1 X159.584 Y132.839 E8.00853
G1 X158.463 Y134.093 E8.09245
G1 X157.908 Y134.655 E8.13185
G1 X157.06 Y135.327 E8.18583
G1 X155.678 Y136.275 E8.26944
G1 X155.005 Y136.688 E8.30884
G1 X154.02 Y137.141 E8.36293
G1 X152.446 Y137.735 E8.44686
G1 X151.694 Y137.976 E8.48626
G1 X150.629 Y138.18 E8.54036
G1 X148.96 Y138.382 E8.62423
G1 X148.291 Y138.43 E8.65769
G1 X148.291 Y139.117 E8.69197
G1 X148.212 Y139.903 E8.73138
G1 X148.054 Y140.676 E8.77074
G1 X147.818 Y141.43 E8.81016
G1 X147.508 Y142.156 E8.84954
G1 X147.125 Y142.847 E8.88896
G1 X146.675 Y143.496 E8.92836
G1 X146.316 Y143.927 E8.95634
G1 X145.195 Y145.181 E9.04026
G1 X144.64 Y145.743 E9.07967
G1 X143.792 Y146.415 E9.13365
G1 X142.41 Y147.363 E9.21726
G1 X141.737 Y147.776 E9.25665
G1 X140.756 Y148.227 E9.31052
G1 X139.182 Y148.822 E9.39447
G1 X138.43 Y149.064 E9.43388
G1 X137.357 Y149.27 E9.48839
G1 X135.688 Y149.471 E9.57226
G1 X134.9 Y149.526 E9.61167
G1 X133.822 Y149.471 E9.66552
G1 X132.154 Y149.27 E9.74934
G1 X131.376 Y149.136 E9.78873
G1 X130.33 Y148.822 E9.84321
G1 X128.758 Y148.228 E9.92705
G1 X128.034 Y147.912 E9.96646
G1 X127.159 Y147.402 E10.01699
G1 X126.941 Y147.255 E10.03011
G1 X125.707 Y146.406 E10.10484
G1 X125.08 Y145.926 E10.14423
G1 X124.31 Y145.175 E10.19789
G1 X123.192 Y143.923 E10.28163
G1 X122.697 Y143.308 E10.32102
G1 X122.266 Y142.647 E10.36039
G1 X121.904 Y141.945 E10.39979
G1 X121.615 Y141.21 E10.4392
G1 X121.402 Y140.449 E10.47862
G1 X121.267 Y139.671 E10.51802
G1 X121.212 Y138.883 E10.55743
G1 X121.226 Y138.413 E10.58088
G1 X121.061 Y138.941 E10.60848
G1 X120.751 Y139.667 E10.64787
G1 X120.368 Y140.358 E10.68728
G1 X119.918 Y141.007 E10.72668
G1 X119.559 Y141.438 E10.75467
G1 X118.438 Y142.692 E10.83858
G1 X117.883 Y143.254 E10.87799
G1 X117.038 Y143.924 E10.93179
G1 X115.656 Y144.873 E11.01543
G1 X114.984 Y145.286 E11.05478
G1 X113.995 Y145.741 E11.10909
G1 X112.421 Y146.335 E11.19303
G1 X111.669 Y146.576 E11.23242
G1 X110.605 Y146.78 E11.28647
G1 X108.937 Y146.982 E11.3703
G1 X108.149 Y147.038 E11.40971
G1 X107.062 Y146.982 E11.46401
G1 X105.393 Y146.78 E11.54789
G1 X104.615 Y146.646 E11.58727
G1 X103.576 Y146.335 E11.64138
G1 X102.002 Y145.741 E11.72532
G1 X101.278 Y145.425 E11.76473
G1 X100.341 Y144.873 E11.81898
G1 X98.959 Y143.924 E11.90262
G1 X98.331 Y143.445 E11.94203
G1 X97.557 Y142.69 E11.99597
G1 X96.436 Y141.435 E12.07992
G1 X95.94 Y140.82 E12.11934
G1 X95.509 Y140.159 E12.15871
G1 X95.148 Y139.457 E12.19809
G1 X94.859 Y138.722 E12.23749
G1 X94.646 Y137.961 E12.27692
G1 X94.51 Y137.183 E12.31632
G1 X94.455 Y136.396 E12.35568
G1 X94.479 Y135.606 E12.39511
G1 X94.583 Y134.823 E12.43452
G1 X94.765 Y134.055 E12.4739
G1 X95.024 Y133.309 E12.51329
G1 X95.357 Y132.593 E12.55269
G1 X95.554 Y132.262 E12.57191
G1 X95.252 Y131.718 E12.60295
G1 X94.94 Y130.993 E12.64233
G1 X94.703 Y130.24 E12.68171
G1 X94.544 Y129.466 E12.72113
G1 X94.463 Y128.681 E12.7605
G1 X94.463 Y127.891 E12.79992
G1 X94.542 Y127.105 E12.83933
G1 X94.7 Y126.332 E12.87869
G1 X94.936 Y125.578 E12.91811
G1 X95.246 Y124.852 E12.95749
G1 X95.629 Y124.161 E12.99691
G1 X96.079 Y123.512 E13.03631
G1 X96.438 Y123.08 E13.06433
G1 X97.56 Y121.825 E13.14832
G1 X98.116 Y121.264 E13.18772
G1 X98.457 Y120.993 E13.20945
G1 X98.462 Y112.737 E13.62135
G1 X98.463 Y85.806 E14.96494
G1 X97.954 Y85.372 E14.99831
G1 X97.407 Y84.802 E15.03773
G1 X97.115 Y84.442 E15.06085
G1 X96.005 Y82.994 E15.15188
G1 X95.557 Y82.344 E15.19126
G1 X95.176 Y81.652 E15.23067
G1 X94.987 Y81.231 E15.2537
G1 X94.292 Y79.551 E15.3444
G1 X94.028 Y78.807 E15.38379
G1 X93.84 Y78.04 E15.42318
G1 X93.768 Y77.595 E15.44567
G1 X93.528 Y75.786 E15.53672
G1 X93.464 Y74.999 E15.57611
G1 X93.479 Y74.209 E15.61553
G1 X93.528 Y73.735 E15.6393
G1 X93.768 Y71.925 E15.7304
G1 X93.911 Y71.148 E15.76981
G1 X94.132 Y70.39 E15.8092
G1 X94.292 Y69.968 E15.83172
G1 X94.987 Y68.288 E15.92242
G1 X95.326 Y67.575 E15.96181
G1 X95.735 Y66.899 E16.00123
G0 F3600 X96.088 Y67.09
G1 F1800 X96.322 Y66.768 E16.02109
G1 X97.432 Y65.32 E16.11211
G1 X97.931 Y64.735 E16.15047
G1 X98.488 Y64.204 E16.18887
G1 X98.801 Y63.951 E16.20895
G1 X100.248 Y62.841 E16.29993
G1 X100.882 Y62.405 E16.33832
G1 X101.557 Y62.037 E16.37667
G1 X101.921 Y61.875 E16.39655
G1 X103.602 Y61.179 E16.48732
G1 X104.327 Y60.922 E16.5257
G1 X105.075 Y60.742 E16.56408
G1 X105.464 Y60.68 E16.58373
G1 X107.274 Y60.441 E16.67482
G1 X107.625 Y60.413 E16.69239
G1 X107.737 Y59.815 E16.72274
G1 X107.955 Y59.078 E16.76108
G1 X108.094 Y58.715 E16.78047
G1 X108.789 Y57.035 E16.87118
G1 X109.12 Y56.341 E16.90954
G1 X109.52 Y55.684 E16.94791
G1 X109.754 Y55.362 E16.96777
G1 X110.864 Y53.914 E17.0588
G1 X111.363 Y53.329 E17.09716
G1 X111.92 Y52.798 E17.13555
G1 X112.236 Y52.543 E17.15581
G1 X113.683 Y51.434 E17.24676
G1 X114.317 Y50.998 E17.28515
G1 X114.992 Y50.631 E17.32348
G1 X115.355 Y50.469 E17.34332
G1 X117.037 Y49.773 E17.43413
G1 X117.762 Y49.517 E17.47249
G1 X118.509 Y49.336 E17.51084
G1 X118.893 Y49.275 E17.53024
G1 X120.702 Y49.035 E17.62128
G1 X121.468 Y48.974 E17.65961
G1 X122.237 Y48.992 E17.69799
G1 X122.648 Y49.035 E17.71861
G1 X124.458 Y49.275 E17.8097
G1 X125.214 Y49.416 E17.84807
G1 X125.951 Y49.634 E17.88641
G1 X126.316 Y49.774 E17.90591
G1 X127.997 Y50.47 E17.99668
G1 X128.691 Y50.801 E18.03504
G1 X129.348 Y51.202 E18.07344
G1 X129.667 Y51.434 E18.09312
G1 X131.114 Y52.543 E18.18408
G1 X131.7 Y53.042 E18.22248
G1 X132.23 Y53.599 E18.26084
G1 X132.484 Y53.911 E18.28091
G1 X133.595 Y55.359 E18.37196
G1 X134.031 Y55.993 E18.41035
G1 X134.399 Y56.669 E18.44875
G1 X134.562 Y57.035 E18.46874
G1 X135.257 Y58.715 E18.55944
G1 X135.514 Y59.44 E18.59782
G1 X135.534 Y59.523 E18.60208
G1 X135.713 Y59.147 E18.62285
G1 X136.113 Y58.49 E18.66123
G1 X136.347 Y58.168 E18.68109
G1 X137.457 Y56.72 E18.77211
G1 X137.956 Y56.135 E18.81047
G1 X138.513 Y55.604 E18.84887
G1 X138.826 Y55.351 E18.86895
G1 X140.273 Y54.241 E18.95993
G1 X140.907 Y53.805 E18.99832
G1 X141.582 Y53.437 E19.03667
G1 X141.946 Y53.275 E19.05655
G1 X143.627 Y52.579 E19.14732
G1 X144.352 Y52.322 E19.1857
G1 X145.1 Y52.142 E19.22408
G1 X145.489 Y52.08 E19.24373
G1 X147.299 Y51.841 E19.33482
G1 X148.066 Y51.78 E19.3732
G1 X148.835 Y51.799 E19.41158
G1 X149.237 Y51.841 E19.43175
G1 X151.047 Y52.08 E19.52283
G1 X151.803 Y52.22 E19.56119
G1 X152.541 Y52.438 E19.59958
G1 X152.909 Y52.579 E19.61924
G1 X154.59 Y53.275 E19.71001
G1 X155.284 Y53.606 E19.74837
G1 X155.941 Y54.007 E19.78677
G1 X156.263 Y54.241 E19.80663
G1 X157.71 Y55.351 E19.89762
G1 X158.295 Y55.85 E19.93598
G1 X158.825 Y56.407 E19.97434
G1 X159.079 Y56.72 E19.99445
G1 X160.189 Y58.168 E20.08547
G1 X160.625 Y58.802 E20.12386
G1 X160.992 Y59.478 E20.16224
G1 X161.154 Y59.841 E20.18207
G1 X161.849 Y61.521 E20.27277
G1 X162.106 Y62.246 E20.31115
G1 X162.286 Y62.994 E20.34953
G1 X162.347 Y63.377 E20.36888
G1 X162.587 Y65.187 E20.45997
G1 X162.648 Y65.954 E20.49836
G1 X162.63 Y66.723 E20.53673
G1 X162.587 Y67.133 E20.5573
G1 X162.347 Y68.942 E20.64834
G1 X162.206 Y69.698 E20.68671
G1 X161.988 Y70.436 E20.7251
G1 X161.85 Y70.796 E20.74434
G1 X161.155 Y72.477 E20.83509
G1 X160.824 Y73.172 E20.87349
G1 X160.423 Y73.828 E20.91185
G1 X160.189 Y74.152 E20.93179
G1 X159.079 Y75.6 E21.02282
G1 X158.58 Y76.185 E21.06118
G1 X158.023 Y76.716 E21.09957
G1 X157.65 Y77.015 E21.12342
G1 X157.658 Y98.246 E22.18264
G1 X157.657 Y112.997 E22.91857
G1 X158.166 Y113.494 E22.95406
G1 X159.288 Y114.75 E23.03808
G1 X159.77 Y115.35 E23.07648
G1 X160.187 Y115.996 E23.11484
G1 X160.534 Y116.682 E23.1532
G1 X160.809 Y117.4 E23.19155
G1 X161.008 Y118.143 E23.22993
G1 X161.128 Y118.903 E23.26832
G1 X161.169 Y119.671 E23.30669
G1 X161.13 Y120.439 E23.34505
G1 X161.011 Y121.199 E23.38343
G1 X160.815 Y121.943 E23.42181
G1 X160.542 Y122.662 E23.46018
G1 X160.196 Y123.349 E23.49856
G1 X159.996 Y123.66 E23.51701
G1 X160.15 Y123.894 E23.53098
G1 X160.505 Y124.577 E23.56939
G1 X160.786 Y125.292 E23.60771
G1 X160.992 Y126.034 E23.64613
G1 X161.12 Y126.792 E23.68448
G1 X161.169 Y127.56 E23.72288
G1 X161.137 Y128.328 E23.76123
G1 X161.026 Y129.089 E23.7996
G1 X160.836 Y129.835 E23.838
G1 X160.57 Y130.556 E23.87634
G1 X160.231 Y131.247 E23.91474
G1 X159.822 Y131.898 E23.9531
G1 X159.286 Y132.573 E23.9961
G1 X158.165 Y133.827 E24.08002
G1 X157.623 Y134.373 E24.1184
G1 X156.834 Y134.997 E24.16858
G1 X155.452 Y135.945 E24.2522
G1 X154.796 Y136.347 E24.29058
G1 X153.879 Y136.766 E24.34088
G1 X152.305 Y137.36 E24.42481
G1 X151.572 Y137.594 E24.4632
G1 X150.581 Y137.783 E24.51353
G1 X148.912 Y137.985 E24.59741
G1 X148.145 Y138.038 E24.63576
G1 X147.861 Y138.023 E24.64995
G1 X147.901 Y138.648 E24.6812
G1 X147.869 Y139.416 E24.71955
G1 X147.758 Y140.177 E24.75791
G1 X147.568 Y140.923 E24.79632
G1 X147.302 Y141.644 E24.83466
G1 X146.963 Y142.335 E24.87306
G1 X146.554 Y142.986 E24.91142
G1 X146.018 Y143.661 E24.95442
G1 X144.897 Y144.915 E25.03833
G1 X144.355 Y145.461 E25.07672
G1 X143.566 Y146.085 E25.1269
G1 X142.184 Y147.033 E25.21051
G1 X141.528 Y147.435 E25.2489
G1 X140.615 Y147.853 E25.29899
G1 X139.041 Y148.448 E25.38294
G1 X138.308 Y148.682 E25.42133
G1 X137.309 Y148.873 E25.47208
G1 X135.64 Y149.074 E25.55594
G1 X134.872 Y149.126 E25.59435
G1 X133.87 Y149.074 E25.6444
G1 X132.202 Y148.873 E25.72822
G1 X131.444 Y148.741 E25.76661
G1 X130.471 Y148.448 E25.81731
G1 X128.899 Y147.854 E25.90115
G1 X128.195 Y147.545 E25.9395
G1 X127.382 Y147.071 E25.98645
G1 X125.934 Y146.076 E26.07411
G1 X125.323 Y145.608 E26.1125
G1 X124.608 Y144.909 E26.16239
G1 X123.49 Y143.657 E26.24613
G1 X123.009 Y143.057 E26.2845
G1 X122.592 Y142.411 E26.32286
G1 X122.244 Y141.725 E26.36123
G1 X121.969 Y141.006 E26.39964
G1 X121.771 Y140.263 E26.438
G1 X121.651 Y139.504 E26.47634
G1 X121.61 Y138.735 E26.51476
G1 X121.649 Y137.967 E26.55312
G1 X121.768 Y137.207 E26.5915
G1 X121.965 Y136.464 E26.62985
G1 X122.238 Y135.745 E26.66822
G1 X122.536 Y135.154 E26.70124
G1 X122.316 Y135.18 E26.71229
G1 X121.549 Y135.232 E26.75065
G1 X121.064 Y135.207 E26.77488
G1 X121.095 Y135.391 E26.78419
G1 X121.144 Y136.159 E26.82258
G1 X121.112 Y136.927 E26.86093
G1 X121.001 Y137.688 E26.8993
G1 X120.811 Y138.434 E26.9377
G1 X120.545 Y139.155 E26.97604
G1 X120.206 Y139.846 E27.01444
G1 X119.797 Y140.497 E27.0528
G1 X119.261 Y141.172 E27.0958
G1 X118.14 Y142.426 E27.17972
G1 X117.598 Y142.972 E27.2181
G1 X116.812 Y143.594 E27.26811
G1 X115.43 Y144.543 E27.35175
G1 X114.774 Y144.945 E27.39013
G1 X113.854 Y145.366 E27.44061
G1 X112.28 Y145.96 E27.52454
G1 X111.547 Y146.194 E27.56293
G1 X110.557 Y146.383 E27.61321
G1 X108.889 Y146.585 E27.69703
G1 X108.121 Y146.638 E27.73544
G1 X107.11 Y146.585 E27.78595
G1 X105.441 Y146.383 E27.86982
G1 X104.683 Y146.251 E27.90821
G1 X103.717 Y145.96 E27.95854
G1 X102.143 Y145.366 E28.04248
G1 X101.439 Y145.058 E28.08081
G1 X100.567 Y144.543 E28.13134
G1 X99.185 Y143.594 E28.21498
G1 X98.574 Y143.126 E28.25337
G1 X97.855 Y142.424 E28.30351
G1 X96.734 Y141.169 E28.38746
G1 X96.252 Y140.569 E28.42586
G1 X95.835 Y139.923 E28.46422
G1 X95.487 Y139.237 E28.50259
G1 X95.213 Y138.518 E28.54098
G1 X95.014 Y137.775 E28.57936
G1 X94.894 Y137.016 E28.61769
G1 X94.853 Y136.248 E28.65606
G1 X94.892 Y135.479 E28.69448
G1 X95.011 Y134.719 E28.73286
G1 X95.208 Y133.976 E28.77121
G1 X95.481 Y133.257 E28.80958
G1 X95.827 Y132.57 E28.84795
G1 X96.026 Y132.26 E28.86633
G1 X95.872 Y132.026 E28.88031
G1 X95.517 Y131.343 E28.91871
G1 X95.236 Y130.628 E28.95704
G1 X95.03 Y129.886 E28.99546
G1 X94.902 Y129.128 E29.03381
G1 X94.853 Y128.36 E29.0722
G1 X94.885 Y127.592 E29.11055
G1 X94.996 Y126.831 E29.14892
G1 X95.186 Y126.085 E29.18733
G1 X95.452 Y125.364 E29.22567
