;FLAVOR:Marlin
;TIME:4546
;Filament used: 4.88882m
;Layer height: 0.2
;MINX:103.202
;MINY:50.568
;MINZ:0.3
;MAXX:150.577
;MAXY:116.545
;MAXZ:36.5
;Generated with Cura_SteamEngine 4.8.0
M140 S60
M105
M190 S60
M104 S210
M105
M109 S210
M82 ;absolute extrusion mode
G28 ;Home
G1 Z15.0 F6000 ;Move the platform down 15mm
;Prime the extruder
G92 E0
G1 F200 E3
G92 E0
G92 E0
G92 E0
G1 F2400 E-6.5
;LAYER_COUNT:182
;LAYER:0
M107
G0 F3600 X106.338 Y58.171 Z0.3
;TYPE:SKIRT
G1 F2400 E0
G1 F1800 X106.747 Y57.495 E0.03942
G1 X107.02 Y57.116 E0.06272
G1 X108.134 Y55.665 E0.15399
G1 X108.646 Y55.064 E0.19338
G1 X109.216 Y54.517 E0.23279
G1 X109.574 Y54.226 E0.25581
G1 X111.025 Y53.113 E0.34704
G1 X111.675 Y52.665 E0.38643
G1 X112.367 Y52.284 E0.42584
G1 X112.787 Y52.096 E0.44879
G1 X114.472 Y51.398 E0.53979
G1 X115.216 Y51.133 E0.57919
G1 X115.983 Y50.945 E0.61859
G1 X116.434 Y50.871 E0.64139
G1 X118.248 Y50.631 E0.73268
G1 X119.035 Y50.568 E0.77207
G1 X119.825 Y50.584 E0.81149
G1 X120.295 Y50.631 E0.83505
G1 X122.108 Y50.871 E0.92629
G1 X122.884 Y51.015 E0.96567
G1 X123.642 Y51.236 E1.00506
G1 X124.068 Y51.397 E1.02778
G1 X125.754 Y52.095 E1.11882
G1 X126.467 Y52.434 E1.15821
G1 X127.143 Y52.843 E1.19763
G1 X127.537 Y53.129 E1.22192
G1 X128.004 Y52.807 E1.25022
G1 X128.696 Y52.426 E1.28963
G1 X129.116 Y52.238 E1.31258
G1 X130.801 Y51.54 E1.40358
G1 X131.545 Y51.275 E1.44298
G1 X132.312 Y51.087 E1.48238
G1 X132.763 Y51.013 E1.50518
G1 X134.577 Y50.773 E1.59647
G1 X135.364 Y50.71 E1.63586
G1 X136.154 Y50.726 E1.67528
G1 X136.623 Y50.773 E1.69879
G1 X138.437 Y51.013 E1.79008
G1 X139.214 Y51.156 E1.8295
G1 X139.972 Y51.377 E1.86889
G1 X140.399 Y51.54 E1.89169
G1 X142.084 Y52.238 E1.98269
G1 X142.797 Y52.577 E2.02207
G1 X143.473 Y52.986 E2.06149
G1 X143.846 Y53.255 E2.08443
G1 X145.297 Y54.368 E2.17567
G1 X145.899 Y54.88 E2.2151
G1 X146.445 Y55.45 E2.25448
G1 X146.739 Y55.81 E2.27766
G1 X147.852 Y57.261 E2.3689
G1 X148.3 Y57.911 E2.40828
G1 X148.681 Y58.603 E2.44769
G1 X148.871 Y59.027 E2.47087
G1 X149.568 Y60.712 E2.56185
G1 X149.832 Y61.456 E2.60123
G1 X150.02 Y62.223 E2.64063
G1 X150.093 Y62.669 E2.66318
G1 X150.333 Y64.482 E2.75442
G1 X150.396 Y65.269 E2.79381
G1 X150.38 Y66.059 E2.83323
G1 X150.333 Y66.529 E2.8568
G1 X150.093 Y68.343 E2.94808
G1 X149.95 Y69.12 E2.9875
G1 X149.729 Y69.878 E3.02689
G1 X149.567 Y70.303 E3.04958
G1 X148.87 Y71.987 E3.14051
G1 X148.532 Y72.7 E3.17988
G1 X148.123 Y73.376 E3.2193
G1 X147.632 Y74.039 E3.26046
G1 X148.034 Y74.563 E3.2934
G1 X148.482 Y75.213 E3.33279
G1 X148.862 Y75.905 E3.37218
G1 X149.049 Y76.321 E3.39493
G1 X149.747 Y78.005 E3.48588
G1 X150.012 Y78.749 E3.52528
G1 X150.2 Y79.516 E3.56468
G1 X150.274 Y79.973 E3.58778
G1 X150.513 Y81.787 E3.67906
G1 X150.577 Y82.574 E3.71845
G1 X150.56 Y83.364 E3.75787
G1 X150.513 Y83.825 E3.78099
G1 X150.274 Y85.638 E3.87223
G1 X150.131 Y86.415 E3.91164
G1 X149.911 Y87.173 E3.95102
G1 X149.747 Y87.604 E3.97403
G1 X149.049 Y89.289 E4.06502
G1 X148.71 Y90.002 E4.10441
G1 X148.301 Y90.678 E4.14382
G1 X148.032 Y91.051 E4.16677
G1 X147.382 Y91.899 E4.22007
G1 X148.019 Y92.73 E4.27231
G1 X148.467 Y93.38 E4.3117
G1 X148.847 Y94.072 E4.35108
G1 X149.035 Y94.492 E4.37404
G1 X149.732 Y96.176 E4.46497
G1 X149.997 Y96.92 E4.50437
G1 X150.185 Y97.687 E4.54377
G1 X150.258 Y98.136 E4.56646
G1 X150.498 Y99.95 E4.65775
G1 X150.561 Y100.737 E4.69714
G1 X150.545 Y101.527 E4.73656
G1 X150.498 Y101.997 E4.76013
G1 X150.258 Y103.81 E4.85137
G1 X150.114 Y104.586 E4.89074
G1 X149.893 Y105.344 E4.93014
G1 X149.733 Y105.767 E4.9527
G1 X149.036 Y107.452 E5.04367
G1 X148.697 Y108.166 E5.0831
G1 X148.288 Y108.842 E5.12252
G1 X148.017 Y109.218 E5.14565
G1 X146.904 Y110.669 E5.23688
G1 X146.392 Y111.271 E5.27631
G1 X145.822 Y111.817 E5.31569
G1 X145.462 Y112.111 E5.33888
G1 X144.011 Y113.224 E5.43011
G1 X143.361 Y113.672 E5.46949
G1 X142.669 Y114.053 E5.50891
G1 X142.249 Y114.241 E5.53186
G1 X140.564 Y114.939 E5.62286
G1 X139.82 Y115.204 E5.66226
G1 X139.053 Y115.392 E5.70166
G1 X138.602 Y115.466 E5.72446
G1 X136.788 Y115.706 E5.81575
G1 X136.001 Y115.769 E5.85514
G1 X135.211 Y115.753 E5.89456
G1 X134.742 Y115.706 E5.91807
G1 X132.928 Y115.466 E6.00936
G1 X132.151 Y115.323 E6.04878
G1 X131.393 Y115.102 E6.08817
G1 X130.966 Y114.939 E6.11097
G1 X129.281 Y114.241 E6.20196
G1 X128.568 Y113.902 E6.24135
G1 X127.892 Y113.493 E6.28077
G1 X127.387 Y113.123 E6.312
G1 X126.242 Y114.001 E6.38399
G1 X125.591 Y114.449 E6.42342
G1 X124.899 Y114.829 E6.4628
G1 X124.486 Y115.015 E6.4854
G1 X122.801 Y115.714 E6.57641
G1 X122.057 Y115.979 E6.61581
G1 X121.29 Y116.168 E6.65522
G1 X120.831 Y116.242 E6.67842
G1 X119.017 Y116.481 E6.7697
G1 X118.23 Y116.545 E6.8091
G1 X117.44 Y116.528 E6.84852
G1 X116.979 Y116.481 E6.87164
G1 X115.166 Y116.242 E6.96287
G1 X114.389 Y116.099 E7.00229
G1 X113.631 Y115.879 E7.04166
G1 X113.198 Y115.714 E7.06478
G1 X111.512 Y115.015 E7.15584
G1 X110.799 Y114.676 E7.19523
G1 X110.123 Y114.267 E7.23464
G1 X109.752 Y113.999 E7.25748
G1 X108.302 Y112.887 E7.34864
G1 X107.701 Y112.376 E7.388
G1 X107.154 Y111.806 E7.42741
G1 X106.861 Y111.446 E7.45057
G1 X105.747 Y109.994 E7.54188
G1 X105.298 Y109.344 E7.58129
G1 X104.918 Y108.652 E7.62068
G1 X104.728 Y108.229 E7.64381
G1 X104.031 Y106.545 E7.73474
G1 X103.766 Y105.801 E7.77414
G1 X103.578 Y105.034 E7.81354
G1 X103.505 Y104.585 E7.83623
G1 X103.265 Y102.771 E7.92752
G1 X103.202 Y101.984 E7.96691
G1 X103.218 Y101.194 E8.00633
G1 X103.265 Y100.724 E8.0299
G1 X103.505 Y98.911 E8.12114
G1 X103.649 Y98.135 E8.16051
G1 X103.87 Y97.377 E8.19991
G1 X104.03 Y96.954 E8.22247
G1 X104.727 Y95.269 E8.31344
G1 X105.066 Y94.555 E8.35287
G1 X105.475 Y93.879 E8.39229
G1 X105.748 Y93.5 E8.4156
G1 X106.731 Y92.22 E8.49611
G1 X106.173 Y91.492 E8.54188
G1 X105.725 Y90.842 E8.58126
G1 X105.345 Y90.15 E8.62065
G1 X105.157 Y89.73 E8.6436
G1 X104.46 Y88.046 E8.73453
G1 X104.195 Y87.302 E8.77393
G1 X104.007 Y86.535 E8.81333
G1 X103.934 Y86.086 E8.83603
G1 X103.694 Y84.272 E8.92732
G1 X103.631 Y83.485 E8.96671
G1 X103.647 Y82.695 E9.00613
G1 X103.694 Y82.226 E9.02964
G1 X103.934 Y80.412 E9.12093
G1 X104.077 Y79.635 E9.16035
G1 X104.298 Y78.877 E9.19974
G1 X104.46 Y78.452 E9.22243
G1 X105.157 Y76.768 E9.31336
G1 X105.495 Y76.055 E9.35272
G1 X105.904 Y75.379 E9.39214
G1 X106.173 Y75.006 E9.41509
G1 X107.131 Y73.756 E9.49366
G1 X107.019 Y73.61 E9.50284
G1 X106.57 Y72.96 E9.54225
G1 X106.19 Y72.268 E9.58164
G1 X106 Y71.845 E9.60477
G1 X105.303 Y70.161 E9.6957
G1 X105.038 Y69.417 E9.7351
G1 X104.85 Y68.65 E9.7745
G1 X104.777 Y68.197 E9.79739
G1 X104.538 Y66.383 E9.88868
G1 X104.474 Y65.596 E9.92807
G1 X104.491 Y64.806 E9.96749
G1 X104.538 Y64.345 E9.99061
G1 X104.777 Y62.532 E10.08184
G1 X104.92 Y61.755 E10.12126
G1 X105.14 Y60.997 E10.16064
G1 X105.302 Y60.57 E10.18342
G1 X105.999 Y58.885 E10.27439
G1 X106.338 Y58.171 E10.31383
G0 F3600 X106.699 Y58.343
G1 F1800 X107.1 Y57.686 E10.35223
G1 X107.337 Y57.36 E10.37234
G1 X108.451 Y55.909 E10.4636
G1 X108.951 Y55.324 E10.50199
G1 X109.508 Y54.794 E10.54035
G1 X109.817 Y54.543 E10.56021
G1 X111.268 Y53.43 E10.65145
G1 X111.902 Y52.995 E10.68981
G1 X112.578 Y52.627 E10.72821
G1 X112.94 Y52.465 E10.74799
G1 X114.625 Y51.767 E10.83899
G1 X115.35 Y51.51 E10.87736
G1 X116.098 Y51.33 E10.91575
G1 X116.486 Y51.268 E10.93535
G1 X118.3 Y51.028 E11.02664
G1 X119.067 Y50.967 E11.06502
G1 X119.836 Y50.986 E11.1034
G1 X120.242 Y51.028 E11.12376
G1 X122.055 Y51.268 E11.21501
G1 X122.811 Y51.408 E11.25336
G1 X123.549 Y51.627 E11.29177
G1 X123.915 Y51.767 E11.31132
G1 X125.601 Y52.465 E11.40236
G1 X126.295 Y52.796 E11.44072
G1 X126.951 Y53.197 E11.47908
G1 X127.528 Y53.625 E11.51492
G1 X127.597 Y53.572 E11.51926
G1 X128.231 Y53.137 E11.55762
G1 X128.907 Y52.769 E11.59602
G1 X129.269 Y52.607 E11.6158
G1 X130.954 Y51.909 E11.7068
G1 X131.679 Y51.652 E11.74517
G1 X132.427 Y51.472 E11.78355
G1 X132.815 Y51.41 E11.80316
G1 X134.629 Y51.17 E11.89445
G1 X135.396 Y51.109 E11.93283
G1 X136.165 Y51.128 E11.97121
G1 X136.571 Y51.17 E11.99157
G1 X138.385 Y51.41 E12.08286
G1 X139.141 Y51.55 E12.12122
G1 X139.878 Y51.768 E12.15957
G1 X140.246 Y51.909 E12.17923
G1 X141.931 Y52.607 E12.27022
G1 X142.625 Y52.938 E12.30858
G1 X143.282 Y53.339 E12.34698
G1 X143.603 Y53.572 E12.36677
G1 X145.054 Y54.685 E12.458
G1 X145.639 Y55.185 E12.4964
G1 X146.169 Y55.742 E12.53476
G1 X146.422 Y56.053 E12.55476
G1 X147.535 Y57.504 E12.64599
G1 X147.97 Y58.138 E12.68435
G1 X148.338 Y58.814 E12.72275
G1 X148.501 Y59.179 E12.74269
G1 X149.198 Y60.864 E12.83367
G1 X149.455 Y61.59 E12.87209
G1 X149.635 Y62.337 E12.91043
G1 X149.696 Y62.722 E12.92987
G1 X149.936 Y64.535 E13.02111
G1 X149.997 Y65.302 E13.0595
G1 X149.978 Y66.071 E13.09788
G1 X149.936 Y66.477 E13.11824
G1 X149.696 Y68.291 E13.20953
G1 X149.556 Y69.047 E13.24789
G1 X149.338 Y69.784 E13.28623
G1 X149.197 Y70.15 E13.3058
G1 X148.5 Y71.834 E13.39673
G1 X148.17 Y72.528 E13.43507
G1 X147.769 Y73.185 E13.47347
G1 X147.536 Y73.506 E13.49326
G1 X147.128 Y74.039 E13.52674
G1 X147.716 Y74.806 E13.57496
G1 X148.152 Y75.44 E13.61335
G1 X148.519 Y76.116 E13.65172
G1 X148.679 Y76.475 E13.67133
G1 X149.377 Y78.159 E13.76228
G1 X149.634 Y78.883 E13.80061
G1 X149.815 Y79.631 E13.839
G1 X149.878 Y80.025 E13.85891
G1 X150.117 Y81.839 E13.95019
G1 X150.177 Y82.606 E13.98857
G1 X150.158 Y83.375 E14.02695
G1 X150.117 Y83.773 E14.04691
G1 X149.878 Y85.586 E14.13815
G1 X149.738 Y86.342 E14.1765
G1 X149.52 Y87.08 E14.2149
G1 X149.378 Y87.451 E14.23471
G1 X148.68 Y89.136 E14.32571
G1 X148.349 Y89.83 E14.36407
G1 X147.948 Y90.487 E14.40247
G1 X147.715 Y90.808 E14.42226
G1 X146.878 Y91.899 E14.49086
G1 X147.701 Y92.973 E14.55837
G1 X148.137 Y93.607 E14.59675
G1 X148.504 Y94.283 E14.63513
G1 X148.665 Y94.645 E14.65489
G1 X149.362 Y96.329 E14.74582
G1 X149.619 Y97.054 E14.7842
G1 X149.799 Y97.802 E14.82258
G1 X149.861 Y98.188 E14.84208
G1 X150.101 Y100.002 E14.93337
G1 X150.162 Y100.769 E14.97176
G1 X150.143 Y101.538 E15.01014
G1 X150.101 Y101.944 E15.0305
G1 X149.861 Y103.757 E15.12174
G1 X149.721 Y104.513 E15.1601
G1 X149.502 Y105.251 E15.19851
G1 X149.363 Y105.615 E15.21795
G1 X148.666 Y107.3 E15.30892
G1 X148.336 Y107.994 E15.34726
G1 X147.935 Y108.651 E15.38566
G1 X147.7 Y108.975 E15.40563
G1 X146.587 Y110.426 E15.49686
G1 X146.087 Y111.011 E15.53525
G1 X145.53 Y111.541 E15.57361
G1 X145.219 Y111.794 E15.59361
G1 X143.768 Y112.907 E15.68485
G1 X143.134 Y113.342 E15.72321
G1 X142.458 Y113.71 E15.76161
G1 X142.096 Y113.872 E15.78139
G1 X140.411 Y114.57 E15.87239
G1 X139.686 Y114.827 E15.91076
G1 X138.938 Y115.007 E15.94915
G1 X138.55 Y115.069 E15.96875
G1 X136.736 Y115.309 E16.06004
G1 X135.969 Y115.37 E16.09842
G1 X135.2 Y115.351 E16.1368
G1 X134.794 Y115.309 E16.15717
G1 X132.98 Y115.069 E16.24846
G1 X132.224 Y114.929 E16.28681
G1 X131.487 Y114.711 E16.32516
G1 X131.119 Y114.57 E16.34482
G1 X129.434 Y113.872 E16.43581
G1 X128.74 Y113.541 E16.47417
G1 X128.083 Y113.14 E16.51257
G1 X127.387 Y112.619 E16.55595
G1 X125.998 Y113.684 E16.64327
G1 X125.364 Y114.119 E16.68163
G1 X124.689 Y114.486 E16.71996
G1 X124.332 Y114.645 E16.73946
G1 X122.647 Y115.344 E16.83047
G1 X121.923 Y115.602 E16.86881
G1 X121.175 Y115.782 E16.9072
G1 X120.779 Y115.846 E16.92721
G1 X118.965 Y116.085 E17.01849
G1 X118.198 Y116.145 E17.05688
G1 X117.429 Y116.126 E17.09525
G1 X117.031 Y116.085 E17.11522
G1 X115.218 Y115.846 E17.20645
G1 X114.462 Y115.706 E17.24481
G1 X113.724 Y115.488 E17.2832
G1 X113.351 Y115.345 E17.30313
G1 X111.665 Y114.646 E17.39419
G1 X110.971 Y114.315 E17.43255
G1 X110.315 Y113.913 E17.47093
G1 X109.996 Y113.682 E17.49058
G1 X108.546 Y112.57 E17.58174
G1 X107.961 Y112.071 E17.62011
G1 X107.43 Y111.514 E17.6585
G1 X107.178 Y111.202 E17.67851
G1 X106.064 Y109.75 E17.76981
G1 X105.628 Y109.117 E17.80816
G1 X105.26 Y108.441 E17.84656
G1 X105.098 Y108.076 E17.86648
G1 X104.401 Y106.392 E17.95741
G1 X104.144 Y105.667 E17.99578
G1 X103.964 Y104.919 E18.03417
G1 X103.902 Y104.533 E18.05367
G1 X103.662 Y102.719 E18.14496
G1 X103.601 Y101.952 E18.18335
G1 X103.62 Y101.183 E18.22172
G1 X103.662 Y100.777 E18.24209
G1 X103.902 Y98.964 E18.33333
G1 X104.042 Y98.208 E18.37169
G1 X104.261 Y97.47 E18.41009
G1 X104.4 Y97.106 E18.42953
G1 X105.097 Y95.421 E18.5205
G1 X105.427 Y94.727 E18.55884
G1 X105.828 Y94.07 E18.59724
G1 X106.065 Y93.744 E18.61735
G1 X107.179 Y92.293 E18.70862
G1 X107.238 Y92.224 E18.71315
G1 X106.491 Y91.249 E18.77443
G1 X106.055 Y90.615 E18.81281
G1 X105.688 Y89.939 E18.85119
G1 X105.527 Y89.577 E18.87095
G1 X104.83 Y87.893 E18.96188
G1 X104.573 Y87.168 E19.00026
G1 X104.393 Y86.42 E19.03864
G1 X104.331 Y86.034 E19.05814
G1 X104.091 Y84.22 E19.14943
G1 X104.03 Y83.453 E19.18782
G1 X104.049 Y82.684 E19.2262
G1 X104.091 Y82.278 E19.24656
G1 X104.331 Y80.464 E19.33785
G1 X104.471 Y79.708 E19.37621
G1 X104.689 Y78.971 E19.41455
G1 X104.83 Y78.605 E19.43412
G1 X105.527 Y76.921 E19.52505
G1 X105.857 Y76.227 E19.56339
G1 X106.258 Y75.57 E19.60179
G1 X106.491 Y75.249 E19.62158
G1 X107.604 Y73.797 E19.71285
G1 X107.637 Y73.758 E19.7154
G1 X107.336 Y73.366 E19.74006
G1 X106.9 Y72.733 E19.7784
G1 X106.532 Y72.057 E19.8168
G1 X106.37 Y71.692 E19.83673
G1 X105.673 Y70.008 E19.92765
G1 X105.416 Y69.283 E19.96603
G1 X105.236 Y68.535 E20.00441
G1 X105.173 Y68.145 E20.02412
G1 X104.934 Y66.331 E20.1154
G1 X104.874 Y65.564 E20.15379
G1 X104.893 Y64.795 E20.19216
G1 X104.934 Y64.397 E20.21213
G1 X105.173 Y62.584 E20.30336
G1 X105.313 Y61.828 E20.34172
G1 X105.531 Y61.09 E20.38011
G1 X105.672 Y60.722 E20.39977
G1 X106.369 Y59.037 E20.49074
G1 X106.699 Y58.343 E20.52908
G0 F3600 X107.061 Y58.515
G1 F1800 X107.655 Y57.603 E20.58338
G1 X108.769 Y56.152 E20.67465
G1 X109.255 Y55.584 E20.71194
G1 X110.061 Y54.861 E20.76596
G1 X111.512 Y53.748 E20.8572
G1 X112.129 Y53.325 E20.89452
G1 X113.093 Y52.835 E20.94847
G1 X114.778 Y52.137 E21.03946
G1 X115.483 Y51.888 E21.07676
G1 X116.539 Y51.664 E21.13062
G1 X118.353 Y51.424 E21.22191
G1 X119.099 Y51.366 E21.25924
G1 X120.19 Y51.425 E21.31375
G1 X122.003 Y51.665 E21.40499
G1 X122.738 Y51.802 E21.44229
G1 X123.762 Y52.136 E21.49603
G1 X125.448 Y52.834 E21.58706
G1 X126.122 Y53.157 E21.62435
G1 X127.032 Y53.749 E21.67851
G1 X127.528 Y54.13 E21.70972
G1 X127.841 Y53.89 E21.72939
G1 X128.458 Y53.467 E21.76672
G1 X129.422 Y52.977 E21.82067
G1 X131.107 Y52.279 E21.91166
G1 X131.812 Y52.03 E21.94896
G1 X132.868 Y51.806 E22.00282
G1 X134.682 Y51.566 E22.09411
G1 X135.428 Y51.508 E22.13144
G1 X136.518 Y51.566 E22.18589
G1 X138.332 Y51.806 E22.27718
G1 X139.067 Y51.944 E22.31449
G1 X140.093 Y52.279 E22.36834
G1 X141.778 Y52.977 E22.45933
G1 X142.453 Y53.3 E22.49667
G1 X143.359 Y53.89 E22.55061
G1 X144.81 Y55.003 E22.64184
G1 X145.379 Y55.489 E22.67917
G1 X146.104 Y56.297 E22.73333
G1 X147.217 Y57.748 E22.82457
G1 X147.64 Y58.365 E22.86189
G1 X148.131 Y59.332 E22.916
G1 X148.828 Y61.017 E23.00697
G1 X149.077 Y61.723 E23.04432
G1 X149.299 Y62.774 E23.09791
G1 X149.539 Y64.587 E23.18915
G1 X149.598 Y65.333 E23.22648
G1 X149.54 Y66.424 E23.28099
G1 X149.3 Y68.238 E23.37228
G1 X149.162 Y68.973 E23.40959
G1 X148.828 Y69.997 E23.46333
G1 X148.131 Y71.681 E23.55425
G1 X147.808 Y72.356 E23.59159
G1 X147.219 Y73.263 E23.64554
G1 X146.624 Y74.039 E23.69433
G1 X147.399 Y75.049 E23.75784
G1 X147.821 Y75.667 E23.79518
G1 X148.31 Y76.628 E23.84897
G1 X149.008 Y78.312 E23.93992
G1 X149.257 Y79.017 E23.97722
G1 X149.481 Y80.078 E24.03132
G1 X149.72 Y81.892 E24.1226
G1 X149.778 Y82.637 E24.15988
G1 X149.72 Y83.721 E24.21404
G1 X149.481 Y85.534 E24.30527
G1 X149.344 Y86.269 E24.34258
G1 X149.008 Y87.298 E24.39658
G1 X148.31 Y88.983 E24.48757
G1 X147.987 Y89.658 E24.5249
G1 X147.397 Y90.564 E24.57884
G1 X146.374 Y91.898 E24.66271
G1 X147.384 Y93.216 E24.74556
G1 X147.806 Y93.834 E24.78289
G1 X148.296 Y94.798 E24.83684
G1 X148.993 Y96.482 E24.92777
G1 X149.242 Y97.187 E24.96507
G1 X149.465 Y98.241 E25.01882
G1 X149.705 Y100.055 E25.11011
G1 X149.763 Y100.801 E25.14744
G1 X149.704 Y101.892 E25.20195
G1 X149.464 Y103.705 E25.29319
G1 X149.327 Y104.44 E25.33049
G1 X148.993 Y105.462 E25.38413
G1 X148.296 Y107.147 E25.4751
