;FLAVOR:Marlin
;TIME:960
;Filament used: 0.747725m
;Layer height: 0.2
;MINX:120.204
;MINY:87.1
;MINZ:0.3
;MAXX:149.796
;MAXY:116.693
;MAXZ:32.5
;Generated with Cura_SteamEngine 4.8.0
M140 S60
M105
M190 S60
M104 S210
M105
M109 S210
M82 ;absolute extrusion mode
G28 ;Home
G1 Z15.0 F6000 ;Move the platform down 15mm
;Prime the extruder
G92 E0
G1 F200 E3
G92 E0
G92 E0
G92 E0
G1 F2400 E-6.5
;LAYER_COUNT:162
;LAYER:0
M107
G0 F3600 X122.746 Y93.653 Z0.3
;TYPE:SKIRT
G1 F2400 E0
G1 F1800 X123.859 Y92.201 E0.09127
G1 X124.371 Y91.599 E0.1307
G1 X124.941 Y91.052 E0.17012
G1 X125.305 Y90.755 E0.19355
G1 X126.756 Y89.643 E0.28476
G1 X127.407 Y89.195 E0.32418
G1 X128.099 Y88.815 E0.36357
G1 X128.516 Y88.628 E0.38637
G1 X130.201 Y87.93 E0.47736
G1 X130.945 Y87.665 E0.51677
G1 X131.712 Y87.477 E0.55616
G1 X132.163 Y87.403 E0.57897
G1 X133.977 Y87.163 E0.67025
G1 X134.764 Y87.1 E0.70964
G1 X135.554 Y87.116 E0.74907
G1 X136.023 Y87.163 E0.77258
G1 X137.837 Y87.403 E0.86387
G1 X138.614 Y87.546 E0.90329
G1 X139.372 Y87.767 E0.94268
G1 X139.799 Y87.93 E0.96548
G1 X141.484 Y88.628 E1.05647
G1 X142.197 Y88.967 E1.09586
G1 X142.873 Y89.376 E1.13528
G1 X143.244 Y89.643 E1.15808
G1 X144.695 Y90.755 E1.24929
G1 X145.296 Y91.266 E1.28864
G1 X145.843 Y91.836 E1.32806
G1 X146.141 Y92.201 E1.35157
G1 X147.254 Y93.653 E1.44284
G1 X147.702 Y94.303 E1.48222
G1 X148.082 Y94.995 E1.52161
G1 X148.27 Y95.415 E1.54457
G1 X148.967 Y97.099 E1.6355
G1 X149.232 Y97.843 E1.6749
G1 X149.42 Y98.61 E1.7143
G1 X149.493 Y99.059 E1.73699
G1 X149.733 Y100.873 E1.82828
G1 X149.796 Y101.66 E1.86767
G1 X149.78 Y102.45 E1.90709
G1 X149.733 Y102.919 E1.93061
G1 X149.493 Y104.733 E2.0219
G1 X149.35 Y105.51 E2.06131
G1 X149.129 Y106.268 E2.1007
G1 X148.967 Y106.693 E2.1234
G1 X148.27 Y108.377 E2.21432
G1 X147.932 Y109.09 E2.25369
G1 X147.523 Y109.766 E2.29311
G1 X147.254 Y110.139 E2.31605
G1 X146.141 Y111.591 E2.40732
G1 X145.629 Y112.193 E2.44675
G1 X145.059 Y112.74 E2.48617
G1 X144.695 Y113.037 E2.5096
G1 X143.244 Y114.149 E2.60081
G1 X142.593 Y114.597 E2.64023
G1 X141.901 Y114.977 E2.67962
G1 X141.488 Y115.163 E2.70222
G1 X139.803 Y115.862 E2.79323
G1 X139.059 Y116.127 E2.83263
G1 X138.292 Y116.316 E2.87204
G1 X137.833 Y116.39 E2.89524
G1 X136.019 Y116.629 E2.98652
G1 X135.232 Y116.693 E3.02591
G1 X134.442 Y116.676 E3.06534
G1 X133.981 Y116.629 E3.08846
G1 X132.167 Y116.39 E3.17974
G1 X131.39 Y116.248 E3.21914
G1 X130.632 Y116.027 E3.25854
G1 X130.197 Y115.862 E3.28175
G1 X128.512 Y115.163 E3.37276
G1 X127.799 Y114.824 E3.41215
G1 X127.124 Y114.414 E3.45155
G1 X126.756 Y114.149 E3.47417
G1 X125.305 Y113.037 E3.56538
G1 X124.704 Y112.526 E3.60473
G1 X124.157 Y111.956 E3.64415
G1 X123.859 Y111.591 E3.66766
G1 X122.746 Y110.139 E3.75893
G1 X122.298 Y109.489 E3.79831
G1 X121.918 Y108.797 E3.8377
G1 X121.73 Y108.377 E3.86066
G1 X121.033 Y106.693 E3.95159
G1 X120.768 Y105.949 E3.99099
G1 X120.58 Y105.182 E4.03039
G1 X120.507 Y104.733 E4.05308
G1 X120.267 Y102.919 E4.14437
G1 X120.204 Y102.132 E4.18376
G1 X120.22 Y101.342 E4.22318
G1 X120.267 Y100.873 E4.2467
G1 X120.507 Y99.059 E4.33799
G1 X120.65 Y98.282 E4.3774
G1 X120.871 Y97.524 E4.41679
G1 X121.033 Y97.099 E4.43949
G1 X121.73 Y95.415 E4.53041
G1 X122.068 Y94.702 E4.56978
G1 X122.477 Y94.026 E4.6092
G1 X122.746 Y93.653 E4.63214
G0 F3600 X123.064 Y93.896
G1 F1800 X124.177 Y92.444 E4.72341
G1 X124.676 Y91.859 E4.76178
G1 X125.233 Y91.328 E4.80017
G1 X125.549 Y91.072 E4.82046
G1 X127 Y89.96 E4.91166
G1 X127.634 Y89.525 E4.95002
G1 X128.309 Y89.158 E4.98835
G1 X128.669 Y88.997 E5.00803
G1 X130.354 Y88.299 E5.09902
G1 X131.079 Y88.042 E5.1374
G1 X131.827 Y87.862 E5.17578
G1 X132.215 Y87.8 E5.19538
G1 X134.029 Y87.56 E5.28667
G1 X134.796 Y87.499 E5.32506
G1 X135.565 Y87.518 E5.36344
G1 X135.971 Y87.56 E5.3838
G1 X137.785 Y87.8 E5.47509
G1 X138.541 Y87.94 E5.51345
G1 X139.278 Y88.158 E5.55179
G1 X139.646 Y88.299 E5.57145
G1 X141.331 Y88.997 E5.66244
G1 X142.025 Y89.328 E5.7008
G1 X142.682 Y89.729 E5.73921
G1 X143 Y89.96 E5.75881
G1 X144.451 Y91.072 E5.85002
G1 X145.037 Y91.571 E5.88842
G1 X145.567 Y92.128 E5.92678
G1 X145.823 Y92.444 E5.94707
G1 X146.936 Y93.896 E6.03834
G1 X147.372 Y94.53 E6.07673
G1 X147.739 Y95.206 E6.1151
G1 X147.9 Y95.568 E6.13487
G1 X148.597 Y97.252 E6.2258
G1 X148.854 Y97.977 E6.26417
G1 X149.034 Y98.725 E6.30256
G1 X149.096 Y99.111 E6.32206
G1 X149.336 Y100.925 E6.41335
G1 X149.397 Y101.692 E6.45174
G1 X149.378 Y102.461 E6.49011
G1 X149.336 Y102.867 E6.51048
G1 X149.096 Y104.681 E6.60177
G1 X148.956 Y105.437 E6.64013
G1 X148.738 Y106.174 E6.67847
G1 X148.597 Y106.54 E6.69804
G1 X147.9 Y108.224 E6.78896
G1 X147.57 Y108.918 E6.8273
G1 X147.169 Y109.575 E6.8657
G1 X146.936 Y109.896 E6.88549
G1 X145.823 Y111.348 E6.97677
G1 X145.324 Y111.933 E7.01513
G1 X144.767 Y112.464 E7.05352
G1 X144.451 Y112.72 E7.07381
G1 X143 Y113.832 E7.16501
G1 X142.366 Y114.267 E7.20337
G1 X141.691 Y114.634 E7.24171
G1 X141.334 Y114.793 E7.2612
G1 X139.649 Y115.492 E7.35221
G1 X138.925 Y115.75 E7.39056
G1 X138.177 Y115.93 E7.42894
G1 X137.781 Y115.994 E7.44896
G1 X135.967 Y116.233 E7.54024
G1 X135.2 Y116.293 E7.57862
G1 X134.431 Y116.274 E7.617
G1 X134.033 Y116.233 E7.63696
G1 X132.219 Y115.994 E7.72824
G1 X131.463 Y115.854 E7.7666
G1 X130.725 Y115.636 E7.80499
G1 X130.351 Y115.492 E7.82499
G1 X128.666 Y114.793 E7.916
G1 X127.971 Y114.462 E7.9544
G1 X127.315 Y114.06 E7.99279
G1 X127 Y113.832 E8.01219
G1 X125.549 Y112.72 E8.10339
G1 X124.963 Y112.221 E8.14179
G1 X124.433 Y111.664 E8.18015
G1 X124.177 Y111.348 E8.20044
G1 X123.064 Y109.896 E8.29171
G1 X122.628 Y109.262 E8.3301
G1 X122.261 Y108.586 E8.36848
G1 X122.1 Y108.224 E8.38824
G1 X121.403 Y106.54 E8.47917
G1 X121.146 Y105.815 E8.51755
G1 X120.966 Y105.067 E8.55593
G1 X120.904 Y104.681 E8.57543
G1 X120.664 Y102.867 E8.66672
G1 X120.603 Y102.1 E8.70511
G1 X120.622 Y101.331 E8.74349
G1 X120.664 Y100.925 E8.76385
G1 X120.904 Y99.111 E8.85514
G1 X121.044 Y98.355 E8.8935
G1 X121.262 Y97.618 E8.93184
G1 X121.403 Y97.252 E8.95141
G1 X122.1 Y95.568 E9.04234
G1 X122.43 Y94.874 E9.08068
G1 X122.831 Y94.217 E9.11908
G1 X123.064 Y93.896 E9.13887
G0 F3600 X123.381 Y94.139
G1 F1800 X124.494 Y92.687 E9.23014
G1 X124.981 Y92.119 E9.26747
G1 X125.792 Y91.39 E9.32187
G1 X127.243 Y90.278 E9.41308
G1 X127.86 Y89.855 E9.4504
G1 X128.822 Y89.367 E9.50421
G1 X130.507 Y88.669 E9.59521
G1 X131.212 Y88.42 E9.63251
G1 X132.268 Y88.196 E9.68637
G1 X134.082 Y87.956 E9.77765
G1 X134.828 Y87.898 E9.81499
G1 X135.918 Y87.956 E9.86944
G1 X137.732 Y88.196 E9.96073
G1 X138.467 Y88.334 E9.99804
G1 X139.493 Y88.669 E10.05189
G1 X141.178 Y89.367 E10.14288
G1 X141.853 Y89.69 E10.18021
G1 X142.757 Y90.278 E10.23402
G1 X144.208 Y91.39 E10.32522
G1 X144.777 Y91.876 E10.36255
G1 X145.506 Y92.687 E10.41696
G1 X146.619 Y94.139 E10.50823
G1 X147.041 Y94.757 E10.54557
G1 X147.531 Y95.721 E10.59952
G1 X148.228 Y97.405 E10.69044
G1 X148.477 Y98.11 E10.72775
G1 X148.7 Y99.164 E10.78149
G1 X148.94 Y100.978 E10.87278
G1 X148.998 Y101.724 E10.91011
G1 X148.94 Y102.814 E10.96457
G1 X148.7 Y104.628 E11.05586
G1 X148.562 Y105.363 E11.09317
G1 X148.228 Y106.387 E11.14691
G1 X147.531 Y108.071 E11.23783
G1 X147.208 Y108.746 E11.27517
G1 X146.619 Y109.653 E11.32912
G1 X145.506 Y111.105 E11.4204
G1 X145.019 Y111.673 E11.45772
G1 X144.208 Y112.402 E11.51213
G1 X142.757 Y113.514 E11.60333
G1 X142.14 Y113.937 E11.64065
G1 X141.181 Y114.424 E11.69431
G1 X139.496 Y115.123 E11.78533
G1 X138.791 Y115.372 E11.82263
G1 X137.728 Y115.597 E11.87684
G1 X135.914 Y115.836 E11.96812
G1 X135.169 Y115.894 E12.0054
G1 X134.086 Y115.836 E12.05951
G1 X132.272 Y115.597 E12.15079
G1 X131.536 Y115.46 E12.18814
G1 X130.504 Y115.123 E12.2423
G1 X128.819 Y114.424 E12.33331
G1 X128.144 Y114.101 E12.37065
G1 X127.243 Y113.514 E12.4243
G1 X125.792 Y112.402 E12.5155
G1 X125.223 Y111.916 E12.55283
G1 X124.494 Y111.105 E12.60724
G1 X123.381 Y109.653 E12.69851
G1 X122.959 Y109.035 E12.73585
G1 X122.469 Y108.071 E12.7898
G1 X121.772 Y106.387 E12.88073
G1 X121.523 Y105.682 E12.91803
G1 X121.3 Y104.628 E12.97178
G1 X121.06 Y102.814 E13.06306
G1 X121.002 Y102.068 E13.1004
G1 X121.06 Y100.978 E13.15485
G1 X121.3 Y99.164 E13.24614
G1 X121.438 Y98.429 E13.28345
G1 X121.772 Y97.405 E13.33719
G1 X122.469 Y95.721 E13.42812
G1 X122.792 Y95.046 E13.46545
G1 X123.381 Y94.139 E13.5194
G0 F3600 X123.699 Y94.383
G1 F1800 X124.812 Y92.931 E13.61068
G1 X125.285 Y92.38 E13.64691
G1 X126.035 Y91.707 E13.69718
G1 X127.486 Y90.595 E13.78838
G1 X128.086 Y90.186 E13.82461
G1 X128.975 Y89.736 E13.87432
G1 X130.66 Y89.038 E13.96531
G1 X131.345 Y88.798 E14.00153
G1 X132.32 Y88.593 E14.05123
G1 X134.134 Y88.353 E14.14252
G1 X134.859 Y88.298 E14.1788
G1 X135.866 Y88.353 E14.22911
G1 X137.68 Y88.593 E14.3204
G1 X138.393 Y88.728 E14.3566
G1 X139.34 Y89.038 E14.40632
G1 X141.025 Y89.736 E14.49731
G1 X141.68 Y90.051 E14.53357
G1 X142.514 Y90.595 E14.58325
G1 X143.965 Y91.707 E14.67445
G1 X144.516 Y92.18 E14.71068
G1 X145.188 Y92.931 E14.76096
G1 X146.301 Y94.383 E14.85223
G1 X146.711 Y94.983 E14.88849
G1 X147.161 Y95.874 E14.93829
G1 X147.858 Y97.558 E15.02921
G1 X148.099 Y98.243 E15.06544
G1 X148.303 Y99.216 E15.11504
G1 X148.543 Y101.03 E15.20633
G1 X148.598 Y101.755 E15.24261
G1 X148.543 Y102.762 E15.29292
G1 X148.303 Y104.576 E15.38421
G1 X148.168 Y105.289 E15.42041
G1 X147.858 Y106.234 E15.47003
G1 X147.161 Y107.918 E15.56096
G1 X146.847 Y108.573 E15.5972
G1 X146.301 Y109.409 E15.64701
G1 X145.188 Y110.861 E15.73829
G1 X144.715 Y111.412 E15.77452
G1 X143.965 Y112.085 E15.82479
G1 X142.514 Y113.197 E15.91599
G1 X141.914 Y113.606 E15.95222
G1 X141.028 Y114.054 E16.00175
G1 X139.343 Y114.753 E16.09276
G1 X138.658 Y114.994 E16.12899
G1 X137.676 Y115.2 E16.17905
G1 X135.862 Y115.439 E16.27033
G1 X135.138 Y115.495 E16.30656
G1 X134.138 Y115.439 E16.35653
G1 X132.324 Y115.2 E16.44781
G1 X131.61 Y115.066 E16.48406
G1 X130.657 Y114.753 E16.5341
G1 X128.972 Y114.054 E16.62511
G1 X128.317 Y113.739 E16.66137
G1 X127.486 Y113.197 E16.71087
G1 X126.035 Y112.085 E16.80208
G1 X125.484 Y111.612 E16.8383
G1 X124.812 Y110.861 E16.88858
G1 X123.699 Y109.409 E16.97986
G1 X123.289 Y108.809 E17.01611
G1 X122.839 Y107.918 E17.06591
G1 X122.142 Y106.234 E17.15684
G1 X121.901 Y105.549 E17.19307
G1 X121.697 Y104.576 E17.24267
G1 X121.457 Y102.762 E17.33395
G1 X121.402 Y102.037 E17.37023
G1 X121.457 Y101.03 E17.42054
G1 X121.697 Y99.216 E17.51183
G1 X121.832 Y98.503 E17.54804
G1 X122.142 Y97.558 E17.59765
G1 X122.839 Y95.874 E17.68858
G1 X123.153 Y95.219 E17.72482
G1 X123.699 Y94.383 E17.77464
G0 F3600 X124.016 Y94.626
G1 F1800 X125.129 Y93.174 E17.86591
G1 X125.589 Y92.641 E17.90104
G1 X126.279 Y92.025 E17.94718
G1 X127.73 Y90.913 E18.03839
G1 X128.312 Y90.517 E18.07351
G1 X129.128 Y90.106 E18.11909
G1 X130.813 Y89.408 E18.21008
G1 X131.478 Y89.176 E18.24522
G1 X132.373 Y88.99 E18.29083
G1 X134.187 Y88.75 E18.38211
G1 X134.889 Y88.697 E18.41724
G1 X135.813 Y88.75 E18.46341
G1 X137.627 Y88.99 E18.5547
G1 X138.319 Y89.121 E18.58984
G1 X139.187 Y89.408 E18.63545
G1 X140.872 Y90.106 E18.72644
G1 X141.506 Y90.412 E18.76156
G1 X142.27 Y90.913 E18.80714
G1 X143.721 Y92.025 E18.89835
G1 X144.255 Y92.484 E18.93348
G1 X144.871 Y93.174 E18.97962
G1 X145.984 Y94.626 E19.0709
G1 X146.38 Y95.208 E19.10602
G1 X146.792 Y96.027 E19.15176
G1 X147.489 Y97.711 E19.24268
G1 X147.721 Y98.376 E19.27782
G1 X147.906 Y99.269 E19.32332
G1 X148.146 Y101.083 E19.41461
G1 X148.199 Y101.785 E19.44973
G1 X148.146 Y102.709 E19.49591
G1 X147.906 Y104.523 E19.5872
G1 X147.775 Y105.215 E19.62233
G1 X147.489 Y106.081 E19.66783
G1 X146.792 Y107.765 E19.75876
G1 X146.486 Y108.399 E19.79388
G1 X145.984 Y109.166 E19.83962
G1 X144.871 Y110.618 E19.93089
G1 X144.411 Y111.151 E19.96602
G1 X143.721 Y111.767 E20.01216
G1 X142.27 Y112.879 E20.10337
G1 X141.688 Y113.275 E20.13849
G1 X140.875 Y113.685 E20.18391
G1 X139.19 Y114.384 E20.27492
G1 X138.525 Y114.616 E20.31006
G1 X137.624 Y114.804 E20.35598
G1 X135.81 Y115.043 E20.44726
G1 X135.108 Y115.095 E20.48238
G1 X134.19 Y115.043 E20.52826
G1 X132.376 Y114.804 E20.61954
G1 X131.685 Y114.672 E20.65464
G1 X130.81 Y114.384 E20.70059
G1 X129.125 Y113.685 E20.79161
G1 X128.491 Y113.379 E20.82673
G1 X127.73 Y112.879 E20.87216
G1 X126.279 Y111.767 E20.96336
G1 X125.745 Y111.308 E20.99849
G1 X125.129 Y110.618 E21.04464
G1 X124.016 Y109.166 E21.13591
G1 X123.62 Y108.584 E21.17103
G1 X123.208 Y107.765 E21.21677
G1 X122.511 Y106.081 E21.3077
G1 X122.279 Y105.416 E21.34283
G1 X122.094 Y104.523 E21.38833
G1 X121.854 Y102.709 E21.47962
G1 X121.801 Y102.007 E21.51474
G1 X121.854 Y101.083 E21.56092
G1 X122.094 Y99.269 E21.65221
G1 X122.225 Y98.577 E21.68735
G1 X122.511 Y97.711 E21.73285
G1 X123.208 Y96.027 E21.82377
G1 X123.514 Y95.393 E21.85889
G1 X124.016 Y94.626 E21.90463
G0 F3600 X124.334 Y94.869
G1 F1800 X125.447 Y93.417 E21.9959
G1 X125.892 Y92.902 E22.02986
G1 X126.522 Y92.342 E22.07191
G1 X127.973 Y91.23 E22.16312
G1 X128.537 Y90.849 E22.19707
G1 X129.281 Y90.476 E22.23859
G1 X130.966 Y89.778 E22.32959
G1 X131.61 Y89.554 E22.3636
G1 X132.425 Y89.386 E22.40512
G1 X134.239 Y89.146 E22.49641
G1 X134.918 Y89.097 E22.53037
G1 X135.761 Y89.146 E22.5725
G1 X137.575 Y89.386 E22.66379
G1 X138.243 Y89.515 E22.69773
G1 X139.034 Y89.778 E22.73932
G1 X140.719 Y90.476 E22.83031
G1 X141.331 Y90.773 E22.86425
G1 X142.027 Y91.23 E22.90579
G1 X143.478 Y92.342 E22.99699
G1 X143.993 Y92.788 E23.03098
G1 X144.553 Y93.417 E23.073
G1 X145.666 Y94.869 E23.16427
G1 X146.048 Y95.433 E23.19826
G1 X146.422 Y96.18 E23.23994
G1 X147.119 Y97.864 E23.33086
G1 X147.342 Y98.507 E23.36482
G1 X147.51 Y99.321 E23.40628
G1 X147.75 Y101.135 E23.49757
G1 X147.799 Y101.814 E23.53154
G1 X147.75 Y102.657 E23.57367
G1 X147.51 Y104.471 E23.66496
G1 X147.381 Y105.139 E23.6989
G1 X147.119 Y105.928 E23.74037
G1 X146.422 Y107.612 E23.8313
G1 X146.125 Y108.225 E23.86528
G1 X145.666 Y108.923 E23.90696
G1 X144.553 Y110.375 E23.99824
G1 X144.108 Y110.89 E24.03219
G1 X143.478 Y111.45 E24.07425
G1 X142.027 Y112.562 E24.16545
G1 X141.463 Y112.943 E24.19941
G1 X140.721 Y113.315 E24.24082
G1 X139.036 Y114.014 E24.33183
G1 X138.393 Y114.238 E24.3658
G1 X137.572 Y114.407 E24.40762
G1 X135.758 Y114.646 E24.4989
G1 X135.079 Y114.695 E24.53286
G1 X134.242 Y114.646 E24.57469
G1 X132.428 Y114.407 E24.66598
G1 X131.76 Y114.279 E24.69991
G1 X130.964 Y114.014 E24.74177
G1 X129.279 Y113.315 E24.83278
G1 X128.666 Y113.018 E24.86676
G1 X127.973 Y112.562 E24.90815
G1 X126.522 Y111.45 E24.99935
G1 X126.007 Y111.004 E25.03334
G1 X125.447 Y110.375 E25.07536
G1 X124.334 Y108.923 E25.16663
G1 X123.952 Y108.359 E25.20062
G1 X123.578 Y107.612 E25.24229
G1 X122.881 Y105.928 E25.33322
G1 X122.658 Y105.285 E25.36717
G1 X122.49 Y104.471 E25.40864
G1 X122.25 Y102.657 E25.49993
G1 X122.201 Y101.978 E25.53389
G1 X122.25 Y101.135 E25.57602
G1 X122.49 Y99.321 E25.66731
G1 X122.619 Y98.653 E25.70125
G1 X122.881 Y97.864 E25.74273
G1 X123.578 Y96.18 E25.83366
G1 X123.875 Y95.567 E25.86764
G1 X124.334 Y94.869 E25.90932
G0 F3600 X124.651 Y95.113
G1 F1800 X125.764 Y93.661 E26.00059
G1 X126.195 Y93.165 E26.03338
G1 X126.765 Y92.66 E26.07137
G1 X128.216 Y91.548 E26.16257
G1 X128.761 Y91.181 E26.19535
G1 X129.434 Y90.845 E26.23288
G1 X131.119 Y90.147 E26.32387
G1 X131.741 Y89.933 E26.35669
G1 X132.478 Y89.783 E26.39421
G1 X134.292 Y89.543 E26.4855
G1 X134.947 Y89.496 E26.51827
G1 X135.708 Y89.543 E26.5563
G1 X137.522 Y89.783 E26.64759
G1 X138.167 Y89.908 E26.68037
G1 X138.881 Y90.147 E26.71794
G1 X140.566 Y90.845 E26.80893
G1 X141.156 Y91.133 E26.84168
G1 X141.784 Y91.548 E26.87924
G1 X143.235 Y92.66 E26.97044
G1 X143.731 Y93.091 E27.00322
G1 X144.236 Y93.661 E27.04122
G1 X145.349 Y95.113 E27.13249
G1 X145.716 Y95.658 E27.16527
G1 X146.053 Y96.333 E27.20291
G1 X146.75 Y98.017 E27.29384
G1 X146.963 Y98.638 E27.32659
G1 X147.113 Y99.374 E27.36407
G1 X147.353 Y101.188 E27.45535
G1 X147.4 Y101.843 E27.48812
G1 X147.353 Y102.604 E27.52616
G1 X147.113 Y104.418 E27.61745
G1 X146.988 Y105.063 E27.65022
G1 X146.75 Y105.775 E27.68768
G1 X146.053 Y107.459 E27.7786
G1 X145.765 Y108.05 E27.8114
