;FLAVOR:Marlin
;TIME:1374
;Filament used: 1.66787m
;Layer height: 0.2
;MINX:117.204
;MINY:71.204
;MINZ:0.3
;MAXX:152.796
;MAXY:106.796
;MAXZ:26.9
;Generated with Cura_SteamEngine 4.8.0
M140 S60
M105
M190 S60
M104 S210
M105
M109 S210
M82 ;absolute extrusion mode
G28 ;Home
G1 Z15.0 F6000 ;Move the platform down 15mm
;Prime the extruder
G92 E0
G1 F200 E3
G92 E0
G92 E0
G92 E0
G1 F2400 E-6.5
;LAYER_COUNT:134
;LAYER:0
M107
G0 F3600 X119.88 Y79.629 Z0.3
;TYPE:SKIRT
G1 F2400 E0
G1 F1800 X120.15 Y79.255 E0.02301
G1 X121.74 Y77.182 E0.15335
G1 X122.252 Y76.58 E0.19278
G1 X122.821 Y76.034 E0.23212
G1 X123.182 Y75.74 E0.25535
G1 X125.254 Y74.151 E0.38562
G1 X125.905 Y73.702 E0.42508
G1 X126.597 Y73.322 E0.46446
G1 X127.016 Y73.134 E0.48738
G1 X129.425 Y72.136 E0.61747
G1 X130.169 Y71.871 E0.65687
G1 X130.935 Y71.683 E0.69622
G1 X131.389 Y71.609 E0.71917
G1 X133.979 Y71.267 E0.84951
G1 X134.766 Y71.204 E0.88889
G1 X135.556 Y71.22 E0.92832
G1 X136.021 Y71.267 E0.95163
G1 X138.611 Y71.609 E1.08197
G1 X139.388 Y71.752 E1.12139
G1 X140.146 Y71.973 E1.16078
G1 X140.575 Y72.136 E1.18367
G1 X142.984 Y73.134 E1.31376
G1 X143.698 Y73.473 E1.3532
G1 X144.373 Y73.882 E1.39257
G1 X144.746 Y74.151 E1.41552
G1 X146.818 Y75.74 E1.54579
G1 X147.419 Y76.251 E1.58514
G1 X147.966 Y76.821 E1.62456
G1 X148.26 Y77.182 E1.64778
G1 X149.85 Y79.255 E1.77813
G1 X150.298 Y79.905 E1.81751
G1 X150.679 Y80.597 E1.85692
G1 X150.868 Y81.018 E1.87994
G1 X151.865 Y83.426 E2.00997
G1 X152.129 Y84.17 E2.04936
G1 X152.318 Y84.937 E2.08877
G1 X152.391 Y85.389 E2.11161
G1 X152.733 Y87.979 E2.24195
G1 X152.796 Y88.766 E2.28134
G1 X152.78 Y89.556 E2.32076
G1 X152.733 Y90.021 E2.34407
G1 X152.391 Y92.611 E2.47441
G1 X152.248 Y93.388 E2.51383
G1 X152.027 Y94.146 E2.55322
G1 X151.865 Y94.574 E2.57605
G1 X150.868 Y96.982 E2.70608
G1 X150.529 Y97.695 E2.74546
G1 X150.12 Y98.371 E2.78488
G1 X149.85 Y98.745 E2.80789
G1 X148.26 Y100.818 E2.93824
G1 X147.748 Y101.42 E2.97766
G1 X147.179 Y101.966 E3.01701
G1 X146.818 Y102.26 E3.04023
G1 X144.746 Y103.849 E3.1705
G1 X144.095 Y104.298 E3.20996
G1 X143.403 Y104.678 E3.24935
G1 X142.984 Y104.866 E3.27226
G1 X140.575 Y105.864 E3.40235
G1 X139.831 Y106.129 E3.44175
G1 X139.065 Y106.317 E3.4811
G1 X138.611 Y106.391 E3.50405
G1 X136.021 Y106.733 E3.63439
G1 X135.234 Y106.796 E3.67378
G1 X134.444 Y106.78 E3.7132
G1 X133.979 Y106.733 E3.73651
G1 X131.389 Y106.391 E3.86685
G1 X130.612 Y106.248 E3.90627
G1 X129.854 Y106.027 E3.94566
G1 X129.425 Y105.864 E3.96855
G1 X127.016 Y104.866 E4.09865
G1 X126.302 Y104.527 E4.13808
G1 X125.627 Y104.118 E4.17745
G1 X125.254 Y103.849 E4.2004
G1 X123.182 Y102.26 E4.33067
G1 X122.581 Y101.749 E4.37003
G1 X122.034 Y101.179 E4.40944
G1 X121.74 Y100.818 E4.43267
G1 X120.15 Y98.745 E4.56301
G1 X119.702 Y98.095 E4.60239
G1 X119.321 Y97.403 E4.6418
G1 X119.132 Y96.982 E4.66483
G1 X118.135 Y94.574 E4.79485
G1 X117.871 Y93.83 E4.83424
G1 X117.682 Y93.063 E4.87365
G1 X117.609 Y92.611 E4.89649
G1 X117.267 Y90.021 E5.02683
G1 X117.204 Y89.234 E5.06622
G1 X117.22 Y88.444 E5.10564
G1 X117.267 Y87.979 E5.12896
G1 X117.609 Y85.389 E5.25929
G1 X117.752 Y84.612 E5.29871
G1 X117.973 Y83.854 E5.3381
G1 X118.135 Y83.426 E5.36093
G1 X119.132 Y81.018 E5.49096
G1 X119.471 Y80.305 E5.53034
G1 X119.88 Y79.629 E5.56976
G0 F3600 X120.234 Y79.82
G1 F1800 X120.467 Y79.498 E5.58959
G1 X122.057 Y77.425 E5.71993
G1 X122.556 Y76.84 E5.75829
G1 X123.114 Y76.31 E5.79669
G1 X123.426 Y76.057 E5.81673
G1 X125.498 Y74.468 E5.947
G1 X126.132 Y74.032 E5.98539
G1 X126.807 Y73.665 E6.02372
G1 X127.169 Y73.503 E6.04351
G1 X129.578 Y72.505 E6.1736
G1 X130.303 Y72.248 E6.21197
G1 X131.05 Y72.068 E6.25031
G1 X131.441 Y72.006 E6.27006
G1 X134.031 Y71.664 E6.4004
G1 X134.798 Y71.603 E6.43878
G1 X135.567 Y71.622 E6.47716
G1 X135.969 Y71.664 E6.49732
G1 X138.559 Y72.006 E6.62766
G1 X139.315 Y72.146 E6.66602
G1 X140.053 Y72.364 E6.70441
G1 X140.422 Y72.505 E6.72412
G1 X142.831 Y73.503 E6.85421
G1 X143.526 Y73.834 E6.89262
G1 X144.182 Y74.236 E6.931
G1 X144.502 Y74.468 E6.95072
G1 X146.574 Y76.057 E7.08099
G1 X147.159 Y76.556 E7.11935
G1 X147.69 Y77.113 E7.15774
G1 X147.943 Y77.425 E7.17778
G1 X149.533 Y79.498 E7.30812
G1 X149.968 Y80.132 E7.34648
G1 X150.336 Y80.808 E7.38488
G1 X150.498 Y81.171 E7.40472
G1 X151.495 Y83.579 E7.53474
G1 X151.752 Y84.304 E7.57312
G1 X151.932 Y85.052 E7.6115
G1 X151.994 Y85.441 E7.63115
G1 X152.336 Y88.031 E7.76149
G1 X152.397 Y88.798 E7.79988
G1 X152.378 Y89.567 E7.83825
G1 X152.336 Y89.969 E7.85842
G1 X151.994 Y92.559 E7.98876
G1 X151.854 Y93.315 E8.02711
G1 X151.636 Y94.053 E8.06551
G1 X151.495 Y94.421 E8.08517
G1 X150.498 Y96.829 E8.21519
G1 X150.167 Y97.523 E8.25355
G1 X149.766 Y98.18 E8.29195
G1 X149.533 Y98.502 E8.31178
G1 X147.943 Y100.575 E8.44212
G1 X147.444 Y101.16 E8.48049
G1 X146.886 Y101.69 E8.51888
G1 X146.574 Y101.943 E8.53892
G1 X144.502 Y103.532 E8.66919
G1 X143.868 Y103.968 E8.70758
G1 X143.193 Y104.335 E8.74591
G1 X142.831 Y104.497 E8.7657
G1 X140.422 Y105.495 E8.89579
G1 X139.697 Y105.752 E8.93416
G1 X138.95 Y105.932 E8.9725
G1 X138.559 Y105.994 E8.99225
G1 X135.969 Y106.336 E9.12259
G1 X135.202 Y106.397 E9.16097
G1 X134.433 Y106.378 E9.19935
G1 X134.031 Y106.336 E9.21952
G1 X131.441 Y105.994 E9.34985
G1 X130.685 Y105.854 E9.38821
G1 X129.947 Y105.636 E9.4266
G1 X129.578 Y105.495 E9.44631
G1 X127.169 Y104.497 E9.5764
G1 X126.474 Y104.166 E9.61481
G1 X125.818 Y103.764 E9.65319
G1 X125.498 Y103.532 E9.67291
G1 X123.426 Y101.943 E9.80318
G1 X122.841 Y101.444 E9.84154
G1 X122.31 Y100.887 E9.87993
G1 X122.057 Y100.575 E9.89998
G1 X120.467 Y98.502 E10.03032
G1 X120.032 Y97.868 E10.06868
G1 X119.664 Y97.192 E10.10707
G1 X119.502 Y96.829 E10.12691
G1 X118.505 Y94.421 E10.25693
G1 X118.248 Y93.696 E10.29531
G1 X118.068 Y92.948 E10.33369
G1 X118.006 Y92.559 E10.35334
G1 X117.664 Y89.969 E10.48368
G1 X117.603 Y89.202 E10.52207
G1 X117.622 Y88.433 E10.56044
G1 X117.664 Y88.031 E10.58061
G1 X118.006 Y85.441 E10.71095
G1 X118.146 Y84.685 E10.74931
G1 X118.364 Y83.947 E10.7877
G1 X118.505 Y83.579 E10.80736
G1 X119.502 Y81.171 E10.93738
G1 X119.833 Y80.477 E10.97574
G1 X120.234 Y79.82 E11.01414
G0 F3600 X120.785 Y79.742
G1 F1800 X122.375 Y77.669 E11.14449
G1 X122.861 Y77.1 E11.18182
G1 X123.669 Y76.374 E11.23601
G1 X125.741 Y74.785 E11.36628
G1 X126.358 Y74.362 E11.4036
G1 X127.322 Y73.873 E11.45753
G1 X129.731 Y72.875 E11.58762
G1 X130.436 Y72.626 E11.62493
G1 X131.494 Y72.402 E11.67888
G1 X134.084 Y72.06 E11.80922
G1 X134.829 Y72.002 E11.8465
G1 X135.916 Y72.06 E11.9008
G1 X138.506 Y72.402 E12.03114
G1 X139.242 Y72.54 E12.0685
G1 X140.269 Y72.875 E12.1224
G1 X142.678 Y73.873 E12.25249
G1 X143.353 Y74.196 E12.28982
G1 X144.259 Y74.785 E12.34373
G1 X146.331 Y76.374 E12.474
G1 X146.899 Y76.861 E12.51133
G1 X147.625 Y77.669 E12.56552
G1 X149.215 Y79.742 E12.69586
G1 X149.638 Y80.359 E12.73319
G1 X150.129 Y81.324 E12.7872
G1 X151.126 Y83.732 E12.91723
G1 X151.374 Y84.438 E12.95456
G1 X151.598 Y85.494 E13.00842
G1 X151.94 Y88.084 E13.13876
G1 X151.998 Y88.829 E13.17604
G1 X151.94 Y89.916 E13.23034
G1 X151.598 Y92.506 E13.36068
G1 X151.46 Y93.242 E13.39804
G1 X151.126 Y94.268 E13.45187
G1 X150.129 Y96.676 E13.5819
G1 X149.806 Y97.351 E13.61923
G1 X149.215 Y98.258 E13.67324
G1 X147.625 Y100.331 E13.80358
G1 X147.139 Y100.9 E13.84091
G1 X146.331 Y101.626 E13.89511
G1 X144.259 Y103.215 E14.02538
G1 X143.642 Y103.638 E14.0627
G1 X142.678 Y104.127 E14.11663
G1 X140.269 Y105.125 E14.24672
G1 X139.564 Y105.374 E14.28402
G1 X138.506 Y105.598 E14.33797
G1 X135.916 Y105.94 E14.46831
G1 X135.171 Y105.998 E14.50559
G1 X134.084 Y105.94 E14.5599
G1 X131.494 Y105.598 E14.69024
G1 X130.758 Y105.46 E14.7276
G1 X129.731 Y105.125 E14.78149
G1 X127.322 Y104.127 E14.91158
G1 X126.647 Y103.804 E14.94891
G1 X125.741 Y103.215 E15.00283
G1 X123.669 Y101.626 E15.1331
G1 X123.101 Y101.139 E15.17042
G1 X122.375 Y100.331 E15.22462
G1 X120.785 Y98.258 E15.35496
G1 X120.362 Y97.641 E15.39228
G1 X119.871 Y96.676 E15.4463
G1 X118.874 Y94.268 E15.57632
G1 X118.626 Y93.562 E15.61366
G1 X118.402 Y92.506 E15.66751
G1 X118.06 Y89.916 E15.79785
G1 X118.002 Y89.171 E15.83513
G1 X118.06 Y88.084 E15.88944
G1 X118.402 Y85.494 E16.01977
G1 X118.54 Y84.758 E16.05713
G1 X118.874 Y83.732 E16.11097
G1 X119.871 Y81.324 E16.24099
G1 X120.194 Y80.649 E16.27832
G1 X120.785 Y79.742 E16.33233
G0 F3600 X121.102 Y79.985
G1 F1800 X122.692 Y77.912 E16.46267
G1 X123.165 Y77.361 E16.4989
G1 X123.913 Y76.692 E16.54897
G1 X125.985 Y75.103 E16.67924
G1 X126.584 Y74.693 E16.71545
G1 X127.475 Y74.243 E16.76525
G1 X129.884 Y73.245 E16.89534
G1 X130.569 Y73.004 E16.93157
G1 X131.546 Y72.799 E16.98138
G1 X134.136 Y72.457 E17.11171
G1 X134.86 Y72.401 E17.14794
G1 X135.864 Y72.457 E17.19811
G1 X138.454 Y72.799 E17.32845
G1 X139.168 Y72.933 E17.36469
G1 X140.116 Y73.245 E17.41448
G1 X142.525 Y74.243 E17.54457
G1 X143.18 Y74.557 E17.58081
G1 X144.015 Y75.103 E17.63059
G1 X146.087 Y76.692 E17.76086
G1 X146.639 Y77.165 E17.79712
G1 X147.308 Y77.912 E17.84715
G1 X148.898 Y79.985 E17.97749
G1 X149.308 Y80.585 E18.01375
G1 X149.759 Y81.477 E18.06362
G1 X150.756 Y83.885 E18.19364
G1 X150.997 Y84.571 E18.22992
G1 X151.201 Y85.546 E18.27961
G1 X151.543 Y88.136 E18.40995
G1 X151.599 Y88.86 E18.44618
G1 X151.543 Y89.864 E18.49635
G1 X151.201 Y92.454 E18.62668
G1 X151.067 Y93.168 E18.66293
G1 X150.756 Y94.115 E18.71266
G1 X149.759 Y96.523 E18.84268
G1 X149.445 Y97.178 E18.87892
G1 X148.898 Y98.015 E18.92881
G1 X147.308 Y100.088 E19.05915
G1 X146.835 Y100.639 E19.09538
G1 X146.087 Y101.308 E19.14544
G1 X144.015 Y102.897 E19.27571
G1 X143.416 Y103.307 E19.31193
G1 X142.525 Y103.757 E19.36173
G1 X140.116 Y104.755 E19.49182
G1 X139.431 Y104.996 E19.52805
G1 X138.454 Y105.201 E19.57785
G1 X135.864 Y105.543 E19.70819
G1 X135.14 Y105.599 E19.74442
G1 X134.136 Y105.543 E19.79458
G1 X131.546 Y105.201 E19.92492
G1 X130.832 Y105.067 E19.96116
G1 X129.884 Y104.755 E20.01095
G1 X127.475 Y103.757 E20.14105
G1 X126.82 Y103.443 E20.17728
G1 X125.985 Y102.897 E20.22706
G1 X123.913 Y101.308 E20.35733
G1 X123.361 Y100.835 E20.3936
G1 X122.692 Y100.088 E20.44363
G1 X121.102 Y98.015 E20.57397
G1 X120.692 Y97.415 E20.61022
G1 X120.241 Y96.523 E20.66009
G1 X119.244 Y94.115 E20.79011
G1 X119.003 Y93.429 E20.82639
G1 X118.799 Y92.454 E20.87609
G1 X118.457 Y89.864 E21.00642
G1 X118.401 Y89.14 E21.04265
G1 X118.457 Y88.136 E21.09282
G1 X118.799 Y85.546 E21.22316
G1 X118.933 Y84.832 E21.2594
G1 X119.244 Y83.885 E21.30913
G1 X120.241 Y81.477 E21.43915
G1 X120.555 Y80.822 E21.47539
G1 X121.102 Y79.985 E21.52528
G0 F3600 X121.419 Y80.229
G1 F1800 X123.009 Y78.156 E21.65562
G1 X123.469 Y77.622 E21.69078
G1 X124.156 Y77.009 E21.73672
G1 X126.228 Y75.42 E21.86699
G1 X126.81 Y75.024 E21.90211
G1 X127.628 Y74.612 E21.9478
G1 X130.037 Y73.614 E22.07789
G1 X130.702 Y73.382 E22.11303
G1 X131.598 Y73.195 E22.1587
G1 X134.188 Y72.853 E22.28903
G1 X134.89 Y72.801 E22.32415
G1 X135.812 Y72.853 E22.37022
G1 X138.402 Y73.195 E22.50056
G1 X139.093 Y73.327 E22.53566
G1 X139.963 Y73.614 E22.58136
G1 X142.372 Y74.612 E22.71145
G1 X143.006 Y74.918 E22.74658
G1 X143.772 Y75.42 E22.79227
G1 X145.844 Y77.009 E22.92254
G1 X146.377 Y77.469 E22.95766
G1 X146.991 Y78.156 E23.00363
G1 X148.581 Y80.229 E23.13397
G1 X148.977 Y80.811 E23.16909
G1 X149.389 Y81.63 E23.21483
G1 X150.386 Y84.038 E23.34486
G1 X150.618 Y84.703 E23.38
G1 X150.805 Y85.598 E23.42561
G1 X151.147 Y88.188 E23.55595
G1 X151.199 Y88.89 E23.59107
G1 X151.147 Y89.812 E23.63714
G1 X150.805 Y92.402 E23.76748
G1 X150.673 Y93.093 E23.80257
G1 X150.386 Y93.962 E23.84823
G1 X149.389 Y96.37 E23.97826
G1 X149.084 Y97.004 E24.01336
G1 X148.581 Y97.771 E24.05912
G1 X146.991 Y99.844 E24.18946
G1 X146.531 Y100.378 E24.22462
G1 X145.844 Y100.991 E24.27056
G1 X143.772 Y102.58 E24.40083
G1 X143.19 Y102.976 E24.43595
G1 X142.372 Y103.388 E24.48164
G1 X139.963 Y104.386 E24.61173
G1 X139.298 Y104.618 E24.64687
G1 X138.402 Y104.805 E24.69254
G1 X135.812 Y105.147 E24.82287
G1 X135.11 Y105.199 E24.85799
G1 X134.188 Y105.147 E24.90406
G1 X131.598 Y104.805 E25.0344
G1 X130.907 Y104.673 E25.0695
G1 X130.037 Y104.386 E25.1152
G1 X127.628 Y103.388 E25.2453
G1 X126.994 Y103.082 E25.28042
G1 X126.228 Y102.58 E25.32611
G1 X124.156 Y100.991 E25.45638
G1 X123.623 Y100.531 E25.4915
G1 X123.009 Y99.844 E25.53747
G1 X121.419 Y97.771 E25.66781
G1 X121.023 Y97.189 E25.70293
G1 X120.611 Y96.37 E25.74867
G1 X119.614 Y93.962 E25.8787
G1 X119.382 Y93.297 E25.91384
G1 X119.195 Y92.402 E25.95945
G1 X118.853 Y89.812 E26.08979
G1 X118.801 Y89.11 E26.12491
G1 X118.853 Y88.188 E26.17098
G1 X119.195 Y85.598 E26.30132
G1 X119.327 Y84.907 E26.33642
G1 X119.614 Y84.038 E26.38207
G1 X120.611 Y81.63 E26.5121
G1 X120.916 Y80.996 E26.5472
G1 X121.419 Y80.229 E26.59296
G0 F3600 X121.737 Y80.472
G1 F1800 X123.327 Y78.399 E26.7233
G1 X123.772 Y77.884 E26.75726
G1 X124.399 Y77.327 E26.7991
G1 X126.471 Y75.738 E26.92937
G1 X127.035 Y75.356 E26.96335
G1 X127.781 Y74.982 E27.00499
G1 X130.19 Y73.984 E27.13508
G1 X130.833 Y73.76 E27.16905
G1 X131.651 Y73.592 E27.21071
G1 X134.241 Y73.25 E27.34105
G1 X134.92 Y73.201 E27.37501
G1 X135.759 Y73.25 E27.41694
G1 X138.349 Y73.592 E27.54728
G1 X139.018 Y73.721 E27.58127
G1 X139.81 Y73.984 E27.6229
G1 X142.219 Y74.982 E27.75299
G1 X142.832 Y75.279 E27.78698
G1 X143.529 Y75.738 E27.82861
G1 X145.601 Y77.327 E27.95889
G1 X146.116 Y77.772 E27.99284
G1 X146.673 Y78.399 E28.03468
G1 X148.263 Y80.472 E28.16502
G1 X148.645 Y81.036 E28.19901
G1 X149.02 Y81.783 E28.24071
G1 X150.017 Y84.191 E28.37074
G1 X150.24 Y84.835 E28.40474
G1 X150.408 Y85.651 E28.4463
G1 X150.75 Y88.241 E28.57664
G1 X150.799 Y88.92 E28.6106
G1 X150.75 Y89.759 E28.65253
G1 X150.408 Y92.349 E28.78287
G1 X150.279 Y93.018 E28.81686
G1 X150.017 Y93.809 E28.85843
G1 X149.02 Y96.217 E28.98846
G1 X148.723 Y96.829 E29.02239
G1 X148.263 Y97.528 E29.06414
G1 X146.673 Y99.601 E29.19448
G1 X146.228 Y100.116 E29.22844
G1 X145.601 Y100.673 E29.27028
G1 X143.529 Y102.262 E29.40055
G1 X142.965 Y102.644 E29.43454
G1 X142.219 Y103.018 E29.47617
G1 X139.81 Y104.016 E29.60626
G1 X139.167 Y104.24 E29.64023
G1 X138.349 Y104.408 E29.68189
G1 X135.759 Y104.75 E29.81223
G1 X135.08 Y104.799 E29.84619
G1 X134.241 Y104.75 E29.88812
G1 X131.651 Y104.408 E30.01846
G1 X130.982 Y104.279 E30.05245
G1 X130.19 Y104.016 E30.09409
G1 X127.781 Y103.018 E30.22418
G1 X127.168 Y102.721 E30.25816
G1 X126.471 Y102.262 E30.2998
G1 X124.399 Y100.673 E30.43007
G1 X123.884 Y100.228 E30.46402
G1 X123.327 Y99.601 E30.50587
G1 X121.737 Y97.528 E30.63621
G1 X121.355 Y96.964 E30.67019
G1 X120.98 Y96.217 E30.71189
G1 X119.983 Y93.809 E30.84192
G1 X119.76 Y93.165 E30.87592
G1 X119.592 Y92.349 E30.91748
G1 X119.25 Y89.759 E31.04782
G1 X119.201 Y89.08 E31.08178
G1 X119.25 Y88.241 E31.12371
G1 X119.592 Y85.651 E31.25405
G1 X119.721 Y84.982 E31.28804
G1 X119.983 Y84.191 E31.32961
G1 X120.98 Y81.783 E31.45964
G1 X121.277 Y81.171 E31.49358
G1 X121.737 Y80.472 E31.53532
G0 F3600 X122.054 Y80.716
G1 F1800 X123.644 Y78.643 E31.66566
G1 X124.075 Y78.147 E31.69845
G1 X124.643 Y77.644 E31.7363
G1 X126.715 Y76.055 E31.86657
G1 X127.26 Y75.688 E31.89935
G1 X127.934 Y75.351 E31.93695
G1 X130.343 Y74.353 E32.06704
G1 X130.964 Y74.139 E32.09981
G1 X131.703 Y73.988 E32.13744
G1 X134.293 Y73.646 E32.26777
G1 X134.948 Y73.6 E32.30053
G1 X135.707 Y73.646 E32.33847
G1 X138.297 Y73.988 E32.46881
G1 X138.942 Y74.114 E32.50159
G1 X139.657 Y74.353 E32.5392
G1 X142.066 Y75.351 E32.6693
G1 X142.656 Y75.639 E32.70205
G1 X143.285 Y76.055 E32.73967
G1 X145.357 Y77.644 E32.86994
G1 X145.853 Y78.075 E32.90273
G1 X146.356 Y78.643 E32.94058
G1 X147.946 Y80.716 E33.07092
G1 X148.313 Y81.26 E33.10366
G1 X148.65 Y81.936 E33.14134
G1 X149.647 Y84.344 E33.27137
G1 X149.861 Y84.965 E33.30414
G1 X150.012 Y85.703 E33.34172
G1 X150.354 Y88.293 E33.47206
G1 X150.4 Y88.948 E33.50482
G1 X150.354 Y89.707 E33.54275
G1 X150.012 Y92.297 E33.67309
G1 X149.886 Y92.942 E33.70588
G1 X149.647 Y93.656 E33.74344
G1 X148.65 Y96.064 E33.87347
G1 X148.362 Y96.654 E33.90622
G1 X147.946 Y97.284 E33.94389
G1 X146.356 Y99.357 E34.07423
