;FLAVOR:Marlin
;TIME:12652
;Filament used: 26.9416m
;Layer height: 0.3
;MINX:91.483
;MINY:11.5
;MINZ:0.3
;MAXX:178.523
;MAXY:151.9
;MAXZ:52.5
;Generated with Cura_SteamEngine 4.8.0
M140 S60
M105
M190 S60
M104 S210
M105
M109 S210
M82 ;absolute extrusion mode
G28 ;Home
G1 Z15.0 F6000 ;Move the platform down 15mm
;Prime the extruder
G92 E0
G1 F200 E3
G92 E0
G92 E0
G92 E0
G1 F2400 E-6.5
;LAYER_COUNT:175
;LAYER:0
M107
G0 F3600 X144.03 Y39.1 Z0.3
;TYPE:SKIRT
G1 F2400 E0
G1 F1800 X144.035 Y39.301 E0.01003
G1 X144.035 Y124.3 E4.25065
G1 X144.025 Y124.5 E4.26064
G1 X158.424 Y124.5 E4.97901
G1 X158.424 Y120.101 E5.19847
G1 X158.464 Y119.312 E5.23789
G1 X158.533 Y118.859 E5.26075
G1 X158.533 Y39.1 E9.23994
G1 X144.03 Y39.1 E9.9635
G0 F3600 X143.635 Y39.301
G1 F1800 X143.635 Y124.3 E14.20412
G1 X143.604 Y124.9 E14.23409
G1 X158.824 Y124.9 E14.99342
G1 X158.824 Y120.101 E15.23284
G1 X158.864 Y119.332 E15.27126
G1 X158.933 Y118.892 E15.29348
G1 X158.933 Y38.7 E19.29428
G1 X143.6 Y38.7 E20.05924
G1 X143.635 Y39.301 E20.08928
G0 F3600 X143.235 Y39.301
G1 F1800 X143.235 Y124.3 E24.32989
G1 X143.195 Y125.047 E24.36722
G1 X143.154 Y125.3 E24.38
G1 X159.224 Y125.3 E25.18174
G1 X159.224 Y120.101 E25.44112
G1 X159.264 Y119.354 E25.47844
G1 X159.333 Y118.926 E25.50007
G1 X159.333 Y38.3 E29.52252
G1 X143.154 Y38.3 E30.32969
G1 X143.216 Y38.784 E30.35403
G1 X143.235 Y39.301 E30.37984
G0 F3600 X142.835 Y39.301
G1 F1800 X142.835 Y124.3 E34.62046
G1 X142.795 Y125.025 E34.65669
G1 X142.683 Y125.7 E34.69082
G1 X159.624 Y125.7 E35.53601
G1 X159.624 Y120.101 E35.81535
G1 X159.664 Y119.375 E35.85162
G1 X159.733 Y118.96 E35.87261
G1 X159.733 Y37.9 E39.91671
G1 X142.676 Y37.9 E40.76769
G1 X142.771 Y38.385 E40.79235
G1 X142.835 Y39.301 E40.83816
G0 F3600 X142.435 Y39.301
G1 F1800 X142.435 Y124.3 E45.07877
G1 X142.395 Y125.003 E45.1139
G1 X142.276 Y125.697 E45.14903
G1 X142.158 Y126.1 E45.16998
G1 X160.024 Y126.1 E46.06132
G1 X160.024 Y120.101 E46.36061
G1 X160.064 Y119.398 E46.39574
G1 X160.133 Y118.996 E46.41609
G1 X160.133 Y37.5 E50.48194
G1 X142.16 Y37.5 E51.37862
G1 X142.302 Y38.024 E51.4057
G1 X142.408 Y38.72 E51.44083
G1 X142.435 Y39.301 E51.46985
G0 F3600 X142.035 Y39.301
G1 F1800 X142.035 Y124.3 E55.71046
G1 X141.995 Y124.98 E55.74445
G1 X141.876 Y125.65 E55.7784
G1 X141.679 Y126.302 E55.81238
G1 X141.593 Y126.5 E55.82315
G1 X160.425 Y126.5 E56.76268
G1 X160.424 Y120.1 E57.08198
G1 X160.464 Y119.421 E57.11591
G1 X160.533 Y119.032 E57.13562
G1 X160.533 Y37.1 E61.22323
G1 X141.599 Y37.1 E62.16785
G1 X141.811 Y37.706 E62.19988
G1 X141.96 Y38.37 E62.23383
G1 X142.035 Y39.301 E62.28043
G0 F3600 X141.635 Y39.301
G1 F1800 X141.635 Y124.3 E66.52104
G1 X141.595 Y124.956 E66.55383
G1 X141.476 Y125.602 E66.5866
G1 X141.279 Y126.229 E66.61939
G1 X141.007 Y126.827 E66.65217
G1 X140.962 Y126.9 E66.65645
G1 X160.825 Y126.9 E67.64741
G1 X160.824 Y120.1 E67.98667
G1 X160.864 Y119.445 E68.01941
G1 X160.933 Y119.07 E68.03843
G1 X160.933 Y36.7 E72.14789
G1 X140.959 Y36.7 E73.14439
G1 X141.037 Y36.831 E73.152
G1 X141.301 Y37.432 E73.18475
G1 X141.491 Y38.061 E73.21753
G1 X141.602 Y38.709 E73.25033
G1 X141.635 Y39.301 E73.27991
G0 F3600 X141.235 Y39.301
G1 F1800 X141.235 Y124.3 E77.52053
G1 X141.195 Y124.931 E77.55207
G1 X141.076 Y125.552 E77.58362
G1 X140.879 Y126.152 E77.61512
G1 X140.608 Y126.724 E77.6467
G1 X140.268 Y127.256 E77.6782
G1 X140.231 Y127.3 E77.68107
G1 X161.225 Y127.3 E78.72846
G1 X161.224 Y120.1 E79.08767
G1 X161.264 Y119.47 E79.11917
G1 X161.333 Y119.11 E79.13745
G1 X161.333 Y36.3 E83.26886
G1 X140.224 Y36.3 E84.32199
G1 X140.475 Y36.651 E84.34352
G1 X140.775 Y37.207 E84.37504
G1 X141.003 Y37.797 E84.4066
G1 X141.155 Y38.41 E84.43811
G1 X141.235 Y39.301 E84.48274
G0 F3600 X140.835 Y39.301
G1 F1800 X140.835 Y124.3 E88.72336
G1 X140.795 Y124.905 E88.75361
G1 X140.676 Y125.499 E88.78383
G1 X140.48 Y126.073 E88.81409
G1 X140.209 Y126.616 E88.84437
G1 X139.87 Y127.119 E88.87463
G1 X139.468 Y127.572 E88.90484
G1 X139.32 Y127.7 E88.91461
G1 X161.625 Y127.7 E90.02741
G1 X161.624 Y120.1 E90.40657
G1 X161.664 Y119.495 E90.43682
G1 X161.733 Y119.151 E90.45433
G1 X161.733 Y35.9 E94.60774
G1 X139.318 Y35.9 E95.72602
G1 X139.507 Y36.068 E95.73864
G1 X139.904 Y36.527 E95.76892
G1 X140.237 Y37.033 E95.79914
G1 X140.501 Y37.579 E95.8294
G1 X140.69 Y38.155 E95.85964
G1 X140.802 Y38.751 E95.88989
G1 X140.835 Y39.301 E95.91738
G0 F3600 X140.435 Y39.301
G1 F1800 X140.435 Y124.3 E100.158
G1 X140.395 Y124.878 E100.18691
G1 X140.276 Y125.445 E100.21581
G1 X140.08 Y125.99 E100.24471
G1 X139.811 Y126.503 E100.2736
G1 X139.474 Y126.974 E100.3025
G1 X139.075 Y127.394 E100.3314
G1 X138.622 Y127.756 E100.36033
G1 X138.124 Y128.051 E100.38921
G1 X138.008 Y128.1 E100.39549
G1 X162.025 Y128.1 E101.5937
G1 X162.024 Y120.1 E101.99282
G1 X162.064 Y119.522 E102.02173
G1 X162.133 Y119.193 E102.0385
G1 X162.133 Y35.5 E106.21396
G1 X138.009 Y35.5 E107.41751
G1 X138.438 Y35.725 E107.44168
G1 X138.909 Y36.062 E107.47057
G1 X139.329 Y36.461 E107.49948
G1 X139.691 Y36.914 E107.52841
G1 X139.986 Y37.412 E107.55728
G1 X140.211 Y37.946 E107.58619
G1 X140.359 Y38.506 E107.61509
G1 X140.435 Y39.301 E107.65493
G0 F3600 X140.035 Y39.301
G1 F1800 X140.035 Y124.3 E111.89555
G1 X139.995 Y124.85 E111.92306
G1 X139.876 Y125.388 E111.95055
G1 X139.68 Y125.903 E111.97804
G1 X139.412 Y126.384 E112.00552
G1 X139.078 Y126.822 E112.033
G1 X138.683 Y127.206 E112.06048
G1 X138.237 Y127.53 E112.08798
G1 X137.749 Y127.785 E112.11545
G1 X137.229 Y127.968 E112.14296
G1 X136.688 Y128.073 E112.17045
G1 X136.235 Y128.1 E112.19309
G1 X118.98 Y128.1 E113.05395
G1 X118.179 Y128.167 E113.09405
G1 X117.383 Y128.389 E113.13528
G1 X116.641 Y128.765 E113.17678
G1 X115.977 Y129.292 E113.21907
G1 X115.437 Y129.932 E113.26084
G1 X115.037 Y130.665 E113.30251
G1 X114.79 Y131.463 E113.34418
G1 X114.726 Y131.884 E113.36543
G1 X114.701 Y132.391 E113.39075
G1 X114.702 Y143.682 E113.95406
G1 X114.711 Y143.989 E113.96938
G1 X114.688 Y144.539 E113.99685
G1 X114.584 Y145.08 E114.02433
G1 X114.404 Y145.601 E114.05183
G1 X114.15 Y146.09 E114.07932
G1 X113.828 Y146.537 E114.10681
G1 X113.445 Y146.933 E114.13429
G1 X113.009 Y147.27 E114.16179
G1 X112.528 Y147.54 E114.18931
G1 X112.014 Y147.737 E114.21677
G1 X111.477 Y147.858 E114.24423
G1 X110.913 Y147.9 E114.27245
G1 X101.325 Y147.9 E114.75079
G1 X100.893 Y147.875 E114.77238
G1 X100.246 Y147.801 E114.80487
G1 X99.547 Y147.654 E114.84051
G1 X99.024 Y147.491 E114.86784
G1 X98.512 Y147.289 E114.8953
G1 X98.203 Y147.123 E114.9128
G1 X97.742 Y146.847 E114.9396
G1 X97.291 Y146.531 E114.96708
G1 X97.071 Y146.337 E114.98171
G1 X96.661 Y145.946 E115.00998
G1 X96.291 Y145.538 E115.03746
G1 X95.984 Y145.08 E115.06496
G1 X95.746 Y144.583 E115.09246
G1 X95.583 Y144.057 E115.11993
G1 X95.497 Y143.513 E115.14741
G1 X95.484 Y143.196 E115.16324
G1 X95.484 Y132.3 E115.70684
G1 X95.524 Y131.75 E115.73435
G1 X95.643 Y131.212 E115.76184
G1 X95.839 Y130.697 E115.78933
G1 X96.107 Y130.216 E115.8168
G1 X96.441 Y129.778 E115.84428
G1 X96.836 Y129.394 E115.87177
G1 X97.282 Y129.07 E115.89927
G1 X97.77 Y128.815 E115.92674
G1 X98.29 Y128.632 E115.95424
G1 X98.312 Y128.628 E115.95536
G1 X98.313 Y34.967 E120.62812
G1 X98.197 Y34.941 E120.63406
G1 X97.682 Y34.745 E120.66155
G1 X97.201 Y34.477 E120.68902
G1 X96.763 Y34.143 E120.7165
G1 X96.379 Y33.748 E120.74398
G1 X96.055 Y33.302 E120.77148
G1 X95.8 Y32.814 E120.79895
G1 X95.617 Y32.294 E120.82646
G1 X95.512 Y31.753 E120.85395
G1 X95.483 Y31.217 E120.88073
G1 X95.484 Y20.213 E121.42972
G1 X95.524 Y19.663 E121.45724
G1 X95.643 Y19.125 E121.48473
G1 X95.839 Y18.61 E121.51222
G1 X96.107 Y18.129 E121.53969
G1 X96.442 Y17.691 E121.5672
G1 X96.655 Y17.469 E121.58255
G1 X97.083 Y17.059 E121.61212
G1 X97.508 Y16.708 E121.63962
G1 X97.763 Y16.541 E121.65482
G1 X98.22 Y16.268 E121.68138
G1 X98.712 Y16.02 E121.70887
G1 X99.021 Y15.907 E121.72528
G1 X99.545 Y15.741 E121.75271
G1 X100.272 Y15.587 E121.78978
G1 X100.846 Y15.523 E121.8186
G1 X101.267 Y15.5 E121.83963
G1 X110.921 Y15.5 E122.32127
G1 X111.471 Y15.54 E122.34878
G1 X112.009 Y15.659 E122.37627
G1 X112.524 Y15.855 E122.40376
G1 X113.005 Y16.123 E122.43124
G1 X113.443 Y16.457 E122.45872
G1 X113.827 Y16.852 E122.4862
G1 X114.151 Y17.298 E122.5137
G1 X114.406 Y17.786 E122.54117
G1 X114.589 Y18.306 E122.56868
G1 X114.694 Y18.847 E122.59617
G1 X114.716 Y19.492 E122.62837
G1 X114.702 Y19.768 E122.64215
G1 X114.701 Y31.217 E123.21335
G1 X114.766 Y32.01 E123.25304
G1 X114.99 Y32.821 E123.29502
G1 X115.364 Y33.557 E123.33621
G1 X115.892 Y34.223 E123.37861
G1 X116.537 Y34.766 E123.42067
G1 X117.269 Y35.165 E123.46227
G1 X118.068 Y35.412 E123.50399
G1 X118.484 Y35.475 E123.52498
G1 X118.991 Y35.5 E123.55031
G1 X136.235 Y35.501 E124.41061
G1 X136.785 Y35.541 E124.43812
G1 X137.323 Y35.66 E124.46561
G1 X137.838 Y35.856 E124.49311
G1 X138.319 Y36.124 E124.52058
G1 X138.757 Y36.458 E124.54806
G1 X139.141 Y36.853 E124.57554
G1 X139.465 Y37.299 E124.60304
G1 X139.72 Y37.787 E124.63051
G1 X139.903 Y38.307 E124.65802
G1 X140.008 Y38.848 E124.68551
G1 X140.035 Y39.301 E124.70815
G0 F3600 X139.635 Y39.301
G1 F1800 X139.635 Y124.3 E128.94877
G1 X139.595 Y124.82 E128.97479
G1 X139.476 Y125.327 E129.00077
G1 X139.281 Y125.81 E129.02676
G1 X139.015 Y126.258 E129.05275
G1 X138.683 Y126.66 E129.07876
G1 X138.293 Y127.006 E129.10477
G1 X137.855 Y127.289 E129.13079
G1 X137.38 Y127.502 E129.15676
G1 X136.877 Y127.639 E129.18277
G1 X136.235 Y127.7 E129.21494
G1 X118.965 Y127.7 E130.07655
G1 X118.124 Y127.77 E130.11865
G1 X117.226 Y128.02 E130.16515
G1 X116.419 Y128.432 E130.21036
G1 X115.707 Y128.996 E130.25567
G1 X115.102 Y129.713 E130.30248
G1 X114.667 Y130.512 E130.34787
G1 X114.395 Y131.393 E130.39387
G1 X114.329 Y131.836 E130.41621
G1 X114.301 Y132.391 E130.44394
G1 X114.302 Y143.659 E131.0061
G1 X114.312 Y144 E131.02312
G1 X114.287 Y144.521 E131.04914
G1 X114.183 Y145.032 E131.07516
G1 X114.002 Y145.52 E131.10112
G1 X113.749 Y145.976 E131.12714
G1 X113.429 Y146.387 E131.15313
G1 X113.05 Y146.745 E131.17914
G1 X112.62 Y147.04 E131.20515
G1 X112.151 Y147.267 E131.23115
G1 X111.652 Y147.419 E131.25717
G1 X110.913 Y147.5 E131.29426
G1 X101.325 Y147.5 E131.77261
G1 X100.939 Y147.478 E131.7919
G1 X100.292 Y147.404 E131.82439
G1 X99.666 Y147.272 E131.85631
G1 X99.143 Y147.109 E131.88364
G1 X98.659 Y146.916 E131.90963
G1 X98.409 Y146.78 E131.92383
G1 X97.948 Y146.504 E131.95064
G1 X97.348 Y146.047 E131.98827
G1 X96.938 Y145.656 E132.01653
G1 X96.589 Y145.269 E132.04253
G1 X96.304 Y144.833 E132.06852
G1 X96.089 Y144.358 E132.09453
G1 X95.949 Y143.856 E132.12053
G1 X95.884 Y143.196 E132.15362
G1 X95.884 Y132.3 E132.69722
G1 X95.924 Y131.78 E132.72324
G1 X96.043 Y131.273 E132.74922
G1 X96.238 Y130.79 E132.77521
G1 X96.504 Y130.342 E132.8012
G1 X96.836 Y129.94 E132.82721
G1 X97.226 Y129.594 E132.85323
G1 X97.664 Y129.311 E132.87924
G1 X98.139 Y129.098 E132.90521
G1 X98.642 Y128.961 E132.93122
G1 X98.712 Y128.954 E132.93473
G1 X98.713 Y34.648 E137.63968
G1 X98.258 Y34.541 E137.663
G1 X97.775 Y34.346 E137.68898
G1 X97.327 Y34.08 E137.71498
G1 X96.925 Y33.748 E137.74099
G1 X96.579 Y33.358 E137.767
G1 X96.296 Y32.92 E137.79302
G1 X96.083 Y32.445 E137.81899
G1 X95.946 Y31.942 E137.845
G1 X95.885 Y31.349 E137.87474
G1 X95.883 Y31.162 E137.88407
G1 X95.884 Y20.213 E138.43031
G1 X95.924 Y19.693 E138.45633
G1 X96.043 Y19.186 E138.48232
G1 X96.238 Y18.702 E138.50835
G1 X96.505 Y18.255 E138.53433
G1 X96.932 Y17.758 E138.56702
G1 X97.36 Y17.348 E138.59658
G1 X97.968 Y16.884 E138.63474
G1 X98.425 Y16.611 E138.6613
G1 X98.892 Y16.379 E138.68732
G1 X99.142 Y16.289 E138.70057
G1 X99.666 Y16.123 E138.72799
G1 X100.316 Y15.985 E138.76115
G1 X100.89 Y15.921 E138.78996
G1 X101.267 Y15.9 E138.8088
G1 X110.921 Y15.9 E139.29044
G1 X111.441 Y15.94 E139.31646
G1 X111.948 Y16.059 E139.34244
G1 X112.431 Y16.254 E139.36843
G1 X112.879 Y16.52 E139.39442
G1 X113.281 Y16.852 E139.42043
G1 X113.627 Y17.242 E139.44644
G1 X113.91 Y17.68 E139.47246
G1 X114.123 Y18.155 E139.49843
G1 X114.26 Y18.658 E139.52444
G1 X114.319 Y19.176 E139.55045
G1 X114.302 Y19.768 E139.58
G1 X114.301 Y31.236 E140.15214
G1 X114.371 Y32.075 E140.19414
G1 X114.615 Y32.96 E140.23994
G1 X115.031 Y33.78 E140.28581
G1 X115.597 Y34.493 E140.33123
G1 X116.317 Y35.101 E140.37825
G1 X117.108 Y35.531 E140.42316
G1 X117.98 Y35.802 E140.46872
G1 X118.444 Y35.873 E140.49214
G1 X118.991 Y35.9 E140.51946
G1 X136.235 Y35.901 E141.37977
G1 X136.755 Y35.941 E141.40579
G1 X137.262 Y36.06 E141.43177
G1 X137.745 Y36.255 E141.45776
G1 X138.193 Y36.522 E141.48378
G1 X138.595 Y36.854 E141.50979
G1 X138.941 Y37.243 E141.53576
G1 X139.224 Y37.681 E141.56178
G1 X139.437 Y38.157 E141.58779
G1 X139.574 Y38.659 E141.61375
G1 X139.635 Y39.301 E141.64593
G0 F3600 X139.235 Y39.301
G1 F1800 X139.235 Y124.3 E145.88655
G1 X139.195 Y124.788 E145.91097
G1 X139.076 Y125.263 E145.9354
G1 X138.882 Y125.712 E145.95981
G1 X138.617 Y126.124 E145.98425
G1 X138.289 Y126.487 E146.00865
G1 X137.906 Y126.792 E146.03308
G1 X137.478 Y127.03 E146.05751
G1 X137.018 Y127.196 E146.08191
G1 X136.235 Y127.3 E146.12132
G1 X118.951 Y127.3 E146.98362
G1 X118.568 Y127.314 E147.00274
G1 X118.057 Y127.375 E147.02842
G1 X117.561 Y127.487 E147.05378
G1 X116.632 Y127.847 E147.10349
G1 X116.207 Y128.091 E147.12794
G1 X115.796 Y128.386 E147.15318
G1 X115.422 Y128.715 E147.17803
G1 X115.078 Y129.084 E147.2032
G1 X114.773 Y129.484 E147.2283
G1 X114.518 Y129.9 E147.25264
G1 X114.298 Y130.355 E147.27785
G1 X114.127 Y130.825 E147.3028
G1 X114.005 Y131.302 E147.32737
G1 X113.929 Y131.806 E147.3528
G1 X113.901 Y132.371 E147.38102
G1 X113.902 Y143.661 E147.94428
G1 X113.886 Y144.501 E147.9862
G1 X113.781 Y144.979 E148.01061
G1 X113.6 Y145.434 E148.03504
G1 X113.348 Y145.853 E148.05944
G1 X113.03 Y146.226 E148.08389
G1 X112.656 Y146.542 E148.10832
G1 X112.236 Y146.793 E148.13273
G1 X111.781 Y146.972 E148.15712
G1 X111.302 Y147.075 E148.18156
G1 X110.913 Y147.1 E148.20101
G1 X101.325 Y147.1 E148.67936
G1 X100.984 Y147.081 E148.6964
G1 X100.337 Y147.007 E148.72889
G1 X99.785 Y146.89 E148.75704
G1 X99.262 Y146.727 E148.78437
G1 X98.614 Y146.437 E148.81979
G1 X98.153 Y146.161 E148.84659
G1 X97.624 Y145.758 E148.87977
G1 X97.214 Y145.367 E148.90804
G1 X96.888 Y145.001 E148.93249
G1 X96.626 Y144.588 E148.95689
G1 X96.435 Y144.137 E148.98133
G1 X96.32 Y143.661 E149.00576
G1 X96.284 Y143.196 E149.02903
G1 X96.284 Y132.3 E149.57263
G1 X96.324 Y131.812 E149.59706
G1 X96.443 Y131.337 E149.62149
G1 X96.637 Y130.888 E149.64589
G1 X96.902 Y130.476 E149.67033
G1 X97.23 Y130.113 E149.69474
G1 X97.613 Y129.808 E149.71916
G1 X98.041 Y129.57 E149.7436
G1 X98.501 Y129.404 E149.76799
G1 X99.112 Y129.309 E149.79884
G1 X99.113 Y34.286 E154.53956
G1 X98.797 Y34.26 E154.55538
G1 X98.322 Y34.141 E154.57981
G1 X97.873 Y33.947 E154.60421
G1 X97.461 Y33.682 E154.62865
G1 X97.098 Y33.354 E154.65306
G1 X96.793 Y32.971 E154.67749
G1 X96.555 Y32.543 E154.70192
G1 X96.389 Y32.083 E154.72632
G1 X96.285 Y31.343 E154.7636
G1 X96.283 Y31.162 E154.77263
G1 X96.284 Y20.213 E155.31888
G1 X96.324 Y19.725 E155.3433
G1 X96.443 Y19.25 E155.36773
G1 X96.637 Y18.801 E155.39214
G1 X96.902 Y18.389 E155.41658
G1 X97.209 Y18.047 E155.4395
G1 X97.637 Y17.637 E155.46907
G1 X98.173 Y17.228 E155.50271
G1 X98.63 Y16.955 E155.52927
G1 X99.263 Y16.67 E155.5639
G1 X99.787 Y16.504 E155.59133
G1 X100.361 Y16.382 E155.6206
G1 X100.935 Y16.318 E155.64942
G1 X101.267 Y16.3 E155.66601
G1 X110.921 Y16.3 E156.14765
G1 X111.409 Y16.34 E156.17207
G1 X111.884 Y16.459 E156.1965
G1 X112.333 Y16.653 E156.22091
G1 X112.745 Y16.918 E156.24535
G1 X113.108 Y17.246 E156.26975
G1 X113.413 Y17.629 E156.29418
G1 X113.651 Y18.057 E156.31861
G1 X113.817 Y18.517 E156.34301
G1 X113.906 Y18.998 E156.36742
G1 X113.902 Y19.748 E156.40483
G1 X113.901 Y31.25 E156.97867
G1 X113.915 Y31.633 E156.99779
G1 X113.976 Y32.142 E157.02337
G1 X114.088 Y32.637 E157.04869
G1 X114.245 Y33.114 E157.07374
G1 X114.693 Y33.995 E157.12305
G1 X114.984 Y34.401 E157.14797
G1 X115.316 Y34.778 E157.17303
G1 X115.683 Y35.12 E157.19806
G1 X116.089 Y35.43 E157.22355
