;FLAVOR:Marlin
;TIME:17590
;Filament used: 37.0916m
;Layer height: 0.3
;MINX:64.8
;MINY:69.223
;MINZ:0.3
;MAXX:205.2
;MAXY:129.043
;MAXZ:91.5
;Generated with Cura_SteamEngine 4.8.0
M140 S60
M105
M190 S60
M104 S210
M105
M109 S210
M82 ;absolute extrusion mode
G28 ;Home
G1 Z15.0 F6000 ;Move the platform down 15mm
;Prime the extruder
G92 E0
G1 F200 E3
G92 E0
G92 E0
G92 E0
G1 F2400 E-6.5
;LAYER_COUNT:305
;LAYER:0
M107
G0 F3600 X71.63 Y73.542 Z0.3
;TYPE:SKIRT
G1 F2400 E0
G1 F1800 X72.503 Y72.814 E0.05671
G1 X74.114 Y71.657 E0.15566
G1 X74.778 Y71.229 E0.19508
G1 X75.813 Y70.732 E0.25236
G1 X77.654 Y70.009 E0.35103
G1 X78.402 Y69.758 E0.3904
G1 X79.536 Y69.529 E0.44812
G1 X81.493 Y69.284 E0.54651
G1 X82.462 Y69.224 E0.59495
G1 X187.541 Y69.223 E5.83736
G1 X188.517 Y69.284 E5.88615
G1 X190.475 Y69.531 E5.98461
G1 X191.253 Y69.67 E6.02404
G1 X192.355 Y70.012 E6.0816
G1 X194.195 Y70.736 E6.18025
G1 X194.914 Y71.062 E6.21964
G1 X195.893 Y71.662 E6.27692
G1 X197.503 Y72.82 E6.37587
G1 X198.12 Y73.313 E6.41527
G1 X198.911 Y74.122 E6.47172
G1 X200.19 Y75.638 E6.57067
G1 X200.668 Y76.267 E6.61008
G1 X201.232 Y77.236 E6.66602
G1 X202.109 Y79.026 E6.76547
G1 X202.421 Y79.752 E6.80489
G1 X202.73 Y80.813 E6.86002
G1 X203.151 Y82.764 E6.9596
G1 X203.295 Y83.71 E7.00734
G1 X205.008 Y102.755 E7.96133
G1 X205.031 Y103.104 E7.97878
G1 X205.192 Y106.689 E8.15782
G1 X205.2 Y107.04 E8.17534
G1 X205.199 Y118.852 E8.76464
G1 X205.151 Y119.711 E8.80756
G1 X205.093 Y120.234 E8.83381
G1 X204.967 Y121.013 E8.87318
G1 X204.702 Y121.953 E8.92191
G1 X204.523 Y122.464 E8.94892
G1 X204.225 Y123.195 E8.9883
G1 X203.767 Y124.033 E9.03595
G1 X203.48 Y124.49 E9.06287
G1 X203.027 Y125.137 E9.10228
G1 X202.39 Y125.857 E9.15024
G1 X202.013 Y126.234 E9.17684
G1 X201.427 Y126.764 E9.21626
G1 X200.646 Y127.324 E9.2642
G1 X200.189 Y127.611 E9.29112
G1 X199.5 Y127.997 E9.33053
G1 X198.607 Y128.372 E9.37885
G1 X198.099 Y128.549 E9.40569
G1 X197.341 Y128.77 E9.44508
G1 X196.406 Y128.934 E9.49244
G1 X195.873 Y128.994 E9.5192
G1 X195.084 Y129.043 E9.55863
G1 X194.295 Y129.011 E9.59803
G1 X193.513 Y128.9 E9.63744
G1 X192.747 Y128.71 E9.67681
G1 X192.003 Y128.444 E9.71623
G1 X191.291 Y128.104 E9.75559
G1 X190.985 Y127.918 E9.77346
G1 X190.439 Y128.222 E9.80464
G1 X189.714 Y128.534 E9.84401
G1 X188.961 Y128.771 E9.8834
G1 X188.187 Y128.93 E9.92282
G1 X187.402 Y129.011 E9.96219
G1 X187 Y129.021 E9.98225
G1 X83 Y129.021 E15.17083
G1 X82.211 Y128.981 E15.21025
G1 X81.431 Y128.862 E15.24961
G1 X80.666 Y128.664 E15.28904
G1 X79.926 Y128.39 E15.3284
G1 X79.217 Y128.042 E15.36781
G1 X79.022 Y127.92 E15.37928
G1 X78.439 Y128.244 E15.41256
G1 X77.714 Y128.556 E15.45194
G1 X76.961 Y128.793 E15.49132
G1 X76.187 Y128.952 E15.53074
G1 X75.402 Y129.033 E15.57011
G1 X74.612 Y129.033 E15.60953
G1 X74.127 Y128.994 E15.6338
G1 X73.594 Y128.934 E15.66056
G1 X72.815 Y128.806 E15.69995
G1 X71.901 Y128.549 E15.74732
G1 X71.393 Y128.372 E15.77415
G1 X70.661 Y128.074 E15.81358
G1 X69.811 Y127.611 E15.86187
G1 X69.354 Y127.324 E15.8888
G1 X68.707 Y126.871 E15.9282
G1 X67.987 Y126.234 E15.97616
G1 X67.61 Y125.857 E16.00276
G1 X67.08 Y125.271 E16.04218
G1 X66.52 Y124.49 E16.09013
G1 X66.233 Y124.033 E16.11705
G1 X65.847 Y123.344 E16.15645
G1 X65.477 Y122.464 E16.20408
G1 X65.298 Y121.953 E16.23109
G1 X65.075 Y121.195 E16.27051
G1 X64.907 Y120.237 E16.31903
G1 X64.848 Y119.707 E16.34564
G1 X64.8 Y118.844 E16.38876
G1 X64.8 Y107.04 E16.97766
G1 X64.808 Y106.69 E16.99513
G1 X64.969 Y103.105 E17.17417
G1 X64.992 Y102.756 E17.19162
G1 X66.706 Y83.711 E18.14562
G1 X66.85 Y82.769 E18.19316
G1 X67.271 Y80.813 E18.29298
G1 X67.476 Y80.05 E18.33239
G1 X67.894 Y79.017 E18.38799
G1 X68.772 Y77.228 E18.48741
G1 X69.155 Y76.538 E18.52679
G1 X69.812 Y75.635 E18.5825
G1 X71.091 Y74.119 E18.68145
G1 X71.63 Y73.542 E18.72085
G0 F3600 X71.923 Y73.816
G1 F1800 X72.736 Y73.138 E18.77366
G1 X74.347 Y71.981 E18.87261
G1 X74.995 Y71.566 E18.911
G1 X75.959 Y71.104 E18.96434
G1 X77.8 Y70.381 E19.06301
G1 X78.53 Y70.138 E19.1014
G1 X79.586 Y69.926 E19.15513
G1 X81.543 Y69.681 E19.25353
G1 X82.462 Y69.624 E19.29947
G1 X187.541 Y69.623 E24.54188
G1 X188.467 Y69.681 E24.58817
G1 X190.425 Y69.928 E24.68663
G1 X191.182 Y70.064 E24.725
G1 X192.209 Y70.384 E24.77867
G1 X194.049 Y71.108 E24.87732
G1 X194.749 Y71.426 E24.91567
G1 X195.66 Y71.987 E24.96905
G1 X197.27 Y73.145 E25.06799
G1 X197.87 Y73.625 E25.10633
G1 X198.605 Y74.38 E25.15889
G1 X199.884 Y75.896 E25.25785
G1 X200.349 Y76.509 E25.29624
G1 X200.873 Y77.412 E25.34832
G1 X201.75 Y79.202 E25.44777
G1 X202.052 Y79.91 E25.48617
G1 X202.339 Y80.897 E25.53745
G1 X202.76 Y82.848 E25.63703
G1 X202.896 Y83.746 E25.68234
G1 X204.609 Y102.791 E26.63633
G1 X204.632 Y103.122 E26.65289
G1 X204.793 Y106.707 E26.83192
G1 X204.8 Y107.04 E26.84854
G1 X204.799 Y118.852 E27.43784
G1 X204.754 Y119.667 E27.47857
G1 X204.696 Y120.19 E27.50482
G1 X204.572 Y120.949 E27.54319
G1 X204.325 Y121.82 E27.58836
G1 X204.146 Y122.331 E27.61537
G1 X203.854 Y123.043 E27.65376
G1 X203.429 Y123.821 E27.69799
G1 X203.142 Y124.278 E27.72491
G1 X202.699 Y124.907 E27.7633
G1 X202.108 Y125.575 E27.80779
G1 X201.731 Y125.952 E27.83439
G1 X201.159 Y126.466 E27.87276
G1 X200.434 Y126.986 E27.91727
G1 X199.977 Y127.273 E27.94419
G1 X199.305 Y127.647 E27.98256
G1 X198.476 Y127.994 E28.0274
G1 X197.968 Y128.171 E28.05424
G1 X197.229 Y128.386 E28.09264
G1 X196.361 Y128.537 E28.13659
G1 X195.828 Y128.597 E28.16335
G1 X195.06 Y128.643 E28.20173
G1 X194.292 Y128.609 E28.24009
G1 X193.531 Y128.496 E28.27847
G1 X192.786 Y128.304 E28.31685
G1 X192.065 Y128.036 E28.35523
G1 X191.376 Y127.695 E28.39358
G1 X190.983 Y127.447 E28.41677
G1 X190.747 Y127.602 E28.43085
G1 X190.064 Y127.957 E28.46926
G1 X189.349 Y128.238 E28.50758
G1 X188.607 Y128.444 E28.546
G1 X187.849 Y128.572 E28.58435
G1 X187 Y128.621 E28.62678
G1 X83 Y128.621 E33.81536
G1 X82.232 Y128.581 E33.85373
G1 X81.472 Y128.462 E33.89211
G1 X80.729 Y128.264 E33.93047
G1 X80.01 Y127.99 E33.96886
G1 X79.324 Y127.643 E34.00721
G1 X79.017 Y127.446 E34.02541
G1 X78.747 Y127.624 E34.04154
G1 X78.064 Y127.979 E34.07995
G1 X77.349 Y128.26 E34.11828
G1 X76.607 Y128.466 E34.15669
G1 X75.849 Y128.594 E34.19505
G1 X75.081 Y128.643 E34.23344
G1 X74.172 Y128.597 E34.27885
G1 X73.639 Y128.537 E34.30561
G1 X72.88 Y128.411 E34.34399
G1 X72.032 Y128.171 E34.38796
G1 X71.524 Y127.994 E34.4148
G1 X70.812 Y127.703 E34.45317
G1 X70.023 Y127.273 E34.498
G1 X69.566 Y126.986 E34.52493
G1 X68.937 Y126.543 E34.56331
G1 X68.269 Y125.952 E34.60781
G1 X67.892 Y125.575 E34.63441
G1 X67.378 Y125.003 E34.67277
G1 X66.858 Y124.278 E34.71728
G1 X66.571 Y123.821 E34.74421
G1 X66.197 Y123.149 E34.78258
G1 X65.854 Y122.331 E34.82683
G1 X65.675 Y121.82 E34.85384
G1 X65.459 Y121.082 E34.89221
G1 X65.304 Y120.193 E34.93723
G1 X65.245 Y119.663 E34.96383
G1 X65.2 Y118.844 E35.00475
G1 X65.2 Y107.04 E35.59366
G1 X65.207 Y106.708 E35.61022
G1 X65.368 Y103.123 E35.78926
G1 X65.391 Y102.792 E35.80581
G1 X67.105 Y83.747 E36.75981
G1 X67.241 Y82.853 E36.80493
G1 X67.662 Y80.897 E36.90475
G1 X67.862 Y80.154 E36.94314
G1 X68.253 Y79.194 E36.99485
G1 X69.131 Y77.405 E37.09427
G1 X69.505 Y76.733 E37.13264
G1 X70.118 Y75.893 E37.18452
G1 X71.397 Y74.377 E37.28348
G1 X71.923 Y73.816 E37.32185
G0 F3600 X72.215 Y74.09
G1 F1800 X72.97 Y73.463 E37.37081
G1 X74.581 Y72.306 E37.46976
G1 X75.211 Y71.903 E37.50707
G1 X76.105 Y71.476 E37.5565
G1 X77.946 Y70.753 E37.65518
G1 X78.656 Y70.518 E37.69249
G1 X79.635 Y70.323 E37.74229
G1 X81.592 Y70.078 E37.84069
G1 X82.462 Y70.024 E37.88418
G1 X187.541 Y70.023 E43.12659
G1 X188.417 Y70.078 E43.17038
G1 X190.375 Y70.325 E43.26884
G1 X191.111 Y70.458 E43.30615
G1 X192.062 Y70.756 E43.35587
G1 X193.902 Y71.48 E43.45452
G1 X194.583 Y71.791 E43.49187
G1 X195.426 Y72.311 E43.54129
G1 X197.036 Y73.469 E43.64023
G1 X197.619 Y73.938 E43.67756
G1 X198.299 Y74.638 E43.72625
G1 X199.578 Y76.154 E43.8252
G1 X200.029 Y76.751 E43.86253
G1 X200.514 Y77.588 E43.91079
G1 X201.391 Y79.378 E44.01024
G1 X201.684 Y80.067 E44.04759
G1 X201.948 Y80.981 E44.09506
G1 X202.369 Y82.932 E44.19463
G1 X202.498 Y83.782 E44.23752
G1 X204.211 Y102.827 E45.19152
G1 X204.232 Y103.14 E45.20717
G1 X204.393 Y106.725 E45.38621
G1 X204.4 Y107.04 E45.40192
G1 X204.399 Y118.852 E45.99123
G1 X204.356 Y119.623 E46.02975
G1 X204.298 Y120.146 E46.05601
G1 X204.176 Y120.884 E46.09332
G1 X203.947 Y121.688 E46.13503
G1 X203.768 Y122.199 E46.16204
G1 X203.484 Y122.891 E46.19936
G1 X203.09 Y123.608 E46.24018
G1 X202.803 Y124.065 E46.2671
G1 X202.372 Y124.676 E46.30441
G1 X201.825 Y125.292 E46.34551
G1 X201.448 Y125.669 E46.37211
G1 X200.891 Y126.169 E46.40945
G1 X200.221 Y126.647 E46.45051
G1 X199.764 Y126.934 E46.47743
G1 X199.11 Y127.297 E46.51475
G1 X198.344 Y127.616 E46.55615
G1 X197.836 Y127.793 E46.58299
G1 X197.118 Y128.001 E46.62028
G1 X196.316 Y128.139 E46.66088
G1 X195.783 Y128.199 E46.68764
G1 X195.036 Y128.243 E46.72497
G1 X194.289 Y128.207 E46.76228
G1 X193.55 Y128.091 E46.7996
G1 X192.827 Y127.897 E46.83695
G1 X192.13 Y127.628 E46.87422
G1 X191.465 Y127.285 E46.91155
G1 X190.99 Y126.972 E46.93993
G1 X190.366 Y127.359 E46.97657
G1 X189.692 Y127.683 E47.01388
G1 X188.987 Y127.933 E47.05119
G1 X188.259 Y128.107 E47.08854
G1 X187.517 Y128.202 E47.12586
G1 X187 Y128.221 E47.15167
G1 X83 Y128.221 E52.34025
G1 X82.253 Y128.181 E52.37757
G1 X81.515 Y128.062 E52.41487
G1 X80.793 Y127.864 E52.45222
G1 X80.097 Y127.591 E52.48952
G1 X79.434 Y127.244 E52.52685
G1 X79.002 Y126.986 E52.55195
G1 X78.366 Y127.381 E52.5893
G1 X77.692 Y127.705 E52.62661
G1 X76.987 Y127.955 E52.66393
G1 X76.259 Y128.129 E52.70128
G1 X75.517 Y128.224 E52.7386
G1 X74.769 Y128.239 E52.77592
G1 X74.217 Y128.199 E52.80353
G1 X73.684 Y128.139 E52.83029
G1 X72.946 Y128.016 E52.86762
G1 X72.164 Y127.793 E52.90819
G1 X71.656 Y127.616 E52.93503
G1 X70.964 Y127.333 E52.97233
G1 X70.236 Y126.934 E53.01374
G1 X69.779 Y126.647 E53.04067
G1 X69.168 Y126.216 E53.07797
G1 X68.552 Y125.669 E53.11907
G1 X68.175 Y125.292 E53.14567
G1 X67.675 Y124.735 E53.18301
G1 X67.197 Y124.065 E53.22407
G1 X66.91 Y123.608 E53.251
G1 X66.547 Y122.954 E53.28831
G1 X66.232 Y122.199 E53.32913
G1 X66.053 Y121.688 E53.35614
G1 X65.843 Y120.97 E53.39346
G1 X65.702 Y120.148 E53.43507
G1 X65.643 Y119.618 E53.46168
G1 X65.6 Y118.844 E53.50035
G1 X65.6 Y107.04 E54.08926
G1 X65.607 Y106.726 E54.10493
G1 X65.768 Y103.141 E54.28396
G1 X65.789 Y102.828 E54.29961
G1 X67.503 Y83.783 E55.25361
G1 X67.632 Y82.937 E55.29631
G1 X68.053 Y80.981 E55.39613
G1 X68.249 Y80.259 E55.43345
G1 X68.612 Y79.37 E55.48136
G1 X69.49 Y77.581 E55.58078
G1 X69.855 Y76.928 E55.6181
G1 X70.424 Y76.151 E55.66615
G1 X71.703 Y74.635 E55.76511
G1 X72.215 Y74.09 E55.80241
G0 F3600 X72.507 Y74.365
G1 F1800 X73.203 Y73.788 E55.84752
G1 X74.814 Y72.631 E55.94647
G1 X75.426 Y72.241 E55.98268
G1 X76.251 Y71.849 E56.02825
G1 X78.092 Y71.126 E56.12692
G1 X78.782 Y70.898 E56.16318
G1 X79.685 Y70.72 E56.2091
G1 X81.642 Y70.475 E56.30749
G1 X82.462 Y70.424 E56.34848
G1 X187.541 Y70.423 E61.59089
G1 X188.367 Y70.475 E61.63218
G1 X190.325 Y70.722 E61.73064
G1 X191.04 Y70.852 E61.7669
G1 X191.916 Y71.128 E61.81272
G1 X193.756 Y71.852 E61.91137
G1 X194.416 Y72.155 E61.9476
G1 X195.193 Y72.636 E61.99319
G1 X196.803 Y73.794 E62.09214
G1 X197.368 Y74.25 E62.12836
G1 X197.994 Y74.896 E62.17324
G1 X199.273 Y76.412 E62.27219
G1 X199.71 Y76.992 E62.30842
G1 X200.155 Y77.764 E62.35288
G1 X201.032 Y79.554 E62.45232
G1 X201.315 Y80.223 E62.48856
G1 X201.557 Y81.066 E62.53232
G1 X201.978 Y83.017 E62.6319
G1 X202.099 Y83.818 E62.67231
G1 X203.812 Y102.863 E63.62631
G1 X203.832 Y103.158 E63.64106
G1 X203.993 Y106.743 E63.8201
G1 X204 Y107.04 E63.83492
G1 X203.999 Y118.852 E64.42422
G1 X203.959 Y119.578 E64.46049
G1 X203.901 Y120.101 E64.48675
G1 X203.781 Y120.818 E64.52302
G1 X203.57 Y121.556 E64.56131
G1 X203.391 Y122.067 E64.58832
G1 X203.113 Y122.738 E64.62456
G1 X202.751 Y123.395 E64.66198
G1 X202.464 Y123.852 E64.68891
G1 X202.045 Y124.445 E64.72513
G1 X201.542 Y125.009 E64.76283
G1 X201.165 Y125.386 E64.78943
G1 X200.624 Y125.87 E64.82565
G1 X200.008 Y126.308 E64.86336
G1 X199.551 Y126.595 E64.89028
G1 X198.916 Y126.947 E64.9265
G1 X198.213 Y127.239 E64.96448
G1 X197.705 Y127.416 E64.99132
G1 X197.007 Y127.616 E65.02754
G1 X196.271 Y127.742 E65.0648
G1 X195.738 Y127.802 E65.09156
G1 X195.013 Y127.843 E65.12779
G1 X194.288 Y127.804 E65.16401
G1 X193.571 Y127.686 E65.20026
G1 X192.872 Y127.49 E65.23648
G1 X192.198 Y127.219 E65.27272
G1 X191.558 Y126.875 E65.30897
G1 X190.979 Y126.475 E65.34408
G1 X190.616 Y126.742 E65.36656
G1 X189.987 Y127.106 E65.40282
G1 X189.322 Y127.399 E65.43907
G1 X188.629 Y127.617 E65.47532
G1 X187.917 Y127.757 E65.51152
G1 X187 Y127.821 E65.55738
G1 X83 Y127.821 E70.74596
G1 X82.275 Y127.781 E70.78219
G1 X81.558 Y127.662 E70.81845
G1 X80.859 Y127.464 E70.85469
G1 X80.186 Y127.191 E70.89093
G1 X79.547 Y126.846 E70.92716
G1 X79.011 Y126.474 E70.95971
G1 X78.616 Y126.764 E70.98415
G1 X77.987 Y127.128 E71.02041
G1 X77.322 Y127.421 E71.05666
G1 X76.629 Y127.639 E71.09291
G1 X75.917 Y127.779 E71.12911
G1 X75.193 Y127.84 E71.16536
G1 X74.262 Y127.802 E71.21185
G1 X73.729 Y127.742 E71.23861
G1 X73.012 Y127.621 E71.27488
G1 X72.295 Y127.416 E71.31209
G1 X71.787 Y127.239 E71.33893
G1 X71.116 Y126.962 E71.37514
G1 X70.449 Y126.595 E71.41312
G1 X69.992 Y126.308 E71.44005
G1 X69.399 Y125.889 E71.47627
G1 X68.835 Y125.386 E71.51397
G1 X68.458 Y125.009 E71.54057
G1 X67.974 Y124.468 E71.57679
G1 X67.536 Y123.852 E71.6145
G1 X67.249 Y123.395 E71.64142
G1 X66.897 Y122.76 E71.67764
G1 X66.609 Y122.067 E71.71508
G1 X66.43 Y121.556 E71.7421
G1 X66.228 Y120.858 E71.77835
G1 X66.1 Y120.104 E71.8165
G1 X66.041 Y119.574 E71.84311
G1 X66 Y118.844 E71.87959
G1 X66 Y107.04 E72.46849
G1 X66.007 Y106.744 E72.48326
G1 X66.168 Y103.159 E72.6623
G1 X66.188 Y102.863 E72.6771
G1 X67.902 Y83.818 E73.6311
G1 X68.023 Y83.021 E73.67132
G1 X68.444 Y81.065 E73.77114
G1 X68.635 Y80.365 E73.80734
G1 X68.971 Y79.546 E73.8515
G1 X69.849 Y77.757 E73.95093
G1 X70.204 Y77.124 E73.98713
G1 X70.729 Y76.409 E74.03139
G1 X72.008 Y74.893 E74.13034
G1 X72.507 Y74.365 E74.16659
G0 F3600 X72.798 Y74.64
G1 F1800 X73.436 Y74.113 E74.20787
G1 X75.047 Y72.956 E74.30683
G1 X75.642 Y72.579 E74.34197
G1 X76.398 Y72.221 E74.3837
G1 X78.239 Y71.498 E74.48238
G1 X78.907 Y71.278 E74.51746
G1 X79.735 Y71.117 E74.55955
G1 X81.692 Y70.872 E74.65794
G1 X82.462 Y70.824 E74.69643
G1 X187.541 Y70.823 E79.93885
G1 X188.317 Y70.872 E79.97764
G1 X190.275 Y71.119 E80.0761
G1 X190.967 Y71.246 E80.1112
G1 X191.769 Y71.501 E80.15318
G1 X193.609 Y72.225 E80.25183
G1 X194.249 Y72.519 E80.28697
G1 X194.959 Y72.961 E80.3287
G1 X196.569 Y74.119 E80.42764
G1 X197.116 Y74.562 E80.46275
G1 X197.688 Y75.154 E80.50382
G1 X198.967 Y76.67 E80.60278
G1 X199.389 Y77.233 E80.63788
G1 X199.796 Y77.94 E80.67858
G1 X200.673 Y79.73 E80.77803
G1 X200.946 Y80.379 E80.81315
G1 X201.166 Y81.15 E80.85315
G1 X201.587 Y83.101 E80.95273
G1 X201.701 Y83.854 E80.99073
G1 X203.414 Y102.899 E81.94472
G1 X203.433 Y103.176 E81.95857
G1 X203.594 Y106.761 E82.13761
G1 X203.6 Y107.04 E82.15153
G1 X203.599 Y118.852 E82.74084
G1 X203.561 Y119.534 E82.77491
G1 X203.503 Y120.057 E82.80117
G1 X203.386 Y120.752 E82.83633
G1 X203.192 Y121.424 E82.87122
G1 X203.013 Y121.935 E82.89824
G1 X202.743 Y122.585 E82.93335
G1 X202.412 Y123.182 E82.96741
G1 X202.125 Y123.639 E82.99433
G1 X201.718 Y124.213 E83.02943
G1 X201.259 Y124.726 E83.06378
G1 X200.882 Y125.103 E83.09038
G1 X200.357 Y125.572 E83.1255
G1 X199.795 Y125.969 E83.15983
G1 X199.338 Y126.256 E83.18675
G1 X198.722 Y126.596 E83.22185
G1 X198.081 Y126.861 E83.25646
G1 X197.573 Y127.038 E83.2833
G1 X196.896 Y127.231 E83.31842
G1 X196.227 Y127.344 E83.35227
G1 X195.694 Y127.404 E83.37903
G1 X194.991 Y127.443 E83.41415
G1 X194.288 Y127.402 E83.44929
G1 X193.594 Y127.282 E83.48442
G1 X192.919 Y127.083 E83.51953
G1 X192.27 Y126.81 E83.55466
G1 X191.657 Y126.464 E83.58978
G1 X191.086 Y126.052 E83.62491
G1 X190.985 Y125.96 E83.63172
G1 X190.811 Y126.112 E83.64325
