;FLAVOR:Marlin
;TIME:691
;Filament used: 0.80288m
;Layer height: 0.2
;MINX:122.304
;MINY:86.763
;MINZ:0.3
;MAXX:147.696
;MAXY:112.155
;MAXZ:18.9
;Generated with Cura_SteamEngine 4.8.0
M140 S60
M105
M190 S60
M104 S210
M105
M109 S210
M82 ;absolute extrusion mode
G28 ;Home
G1 Z15.0 F6000 ;Move the platform down 15mm
;Prime the extruder
G92 E0
G1 F200 E3
G92 E0
G92 E0
G92 E0
G1 F2400 E-6.5
;LAYER_COUNT:94
;LAYER:0
M107
G0 F3600 X124.566 Y92.264 Z0.3
;TYPE:SKIRT
G1 F2400 E0
G1 F1800 X125.346 Y91.247 E0.06394
G1 X125.857 Y90.646 E0.1033
G1 X126.427 Y90.099 E0.14271
G1 X126.793 Y89.801 E0.16626
G1 X127.809 Y89.023 E0.2301
G1 X128.459 Y88.575 E0.26949
G1 X129.152 Y88.196 E0.30889
G1 X129.563 Y88.011 E0.33138
G1 X130.742 Y87.522 E0.39506
G1 X131.486 Y87.257 E0.43446
G1 X132.252 Y87.068 E0.47382
G1 X132.707 Y86.994 E0.49682
G1 X133.977 Y86.826 E0.56074
G1 X134.764 Y86.763 E0.60012
G1 X135.554 Y86.779 E0.63955
G1 X136.023 Y86.826 E0.66306
G1 X137.293 Y86.994 E0.72697
G1 X138.07 Y87.137 E0.76639
G1 X138.828 Y87.358 E0.80578
G1 X139.258 Y87.522 E0.82874
G1 X140.437 Y88.011 E0.89242
G1 X141.15 Y88.35 E0.93181
G1 X141.826 Y88.76 E0.97125
G1 X142.191 Y89.023 E0.9937
G1 X143.207 Y89.801 E1.05754
G1 X143.809 Y90.312 E1.09694
G1 X144.356 Y90.882 E1.13635
G1 X144.654 Y91.247 E1.15986
G1 X145.434 Y92.264 E1.2238
G1 X145.882 Y92.914 E1.26318
G1 X146.263 Y93.606 E1.3026
G1 X146.453 Y94.031 E1.32582
G1 X146.94 Y95.209 E1.38942
G1 X147.205 Y95.953 E1.42882
G1 X147.392 Y96.72 E1.46821
G1 X147.465 Y97.166 E1.49075
G1 X147.633 Y98.436 E1.55467
G1 X147.696 Y99.223 E1.59405
G1 X147.68 Y100.013 E1.63348
G1 X147.633 Y100.482 E1.65699
G1 X147.465 Y101.752 E1.7209
G1 X147.322 Y102.529 E1.76032
G1 X147.101 Y103.287 E1.79971
G1 X146.94 Y103.709 E1.82224
G1 X146.453 Y104.887 E1.88584
G1 X146.115 Y105.601 E1.92525
G1 X145.706 Y106.276 E1.96463
G1 X145.434 Y106.654 E1.98786
G1 X144.654 Y107.671 E2.0518
G1 X144.143 Y108.272 E2.09116
G1 X143.573 Y108.819 E2.13057
G1 X143.211 Y109.114 E2.15387
G1 X142.195 Y109.893 E2.21774
G1 X141.545 Y110.341 E2.25713
G1 X140.853 Y110.721 E2.29652
G1 X140.432 Y110.91 E2.31954
G1 X139.253 Y111.398 E2.3832
G1 X138.509 Y111.663 E2.4226
G1 X137.742 Y111.851 E2.462
G1 X137.293 Y111.924 E2.4847
G1 X136.023 Y112.092 E2.54861
G1 X135.236 Y112.155 E2.588
G1 X134.446 Y112.139 E2.62742
G1 X133.977 Y112.092 E2.65093
G1 X132.707 Y111.924 E2.71485
G1 X131.93 Y111.781 E2.75426
G1 X131.172 Y111.56 E2.79365
G1 X130.747 Y111.398 E2.81635
G1 X129.568 Y110.91 E2.88001
G1 X128.855 Y110.571 E2.91939
G1 X128.179 Y110.163 E2.95879
G1 X127.805 Y109.893 E2.9818
G1 X126.789 Y109.114 E3.04567
G1 X126.187 Y108.602 E3.0851
G1 X125.641 Y108.033 E3.12444
G1 X125.346 Y107.671 E3.14774
G1 X124.566 Y106.654 E3.21168
G1 X124.118 Y106.004 E3.25107
G1 X123.737 Y105.312 E3.29048
G1 X123.547 Y104.887 E3.3137
G1 X123.06 Y103.709 E3.3773
G1 X122.795 Y102.965 E3.4167
G1 X122.608 Y102.198 E3.45609
G1 X122.535 Y101.752 E3.47864
G1 X122.367 Y100.482 E3.54255
G1 X122.304 Y99.695 E3.58194
G1 X122.32 Y98.905 E3.62136
G1 X122.367 Y98.436 E3.64487
G1 X122.535 Y97.166 E3.70879
G1 X122.678 Y96.389 E3.7482
G1 X122.899 Y95.631 E3.78759
G1 X123.06 Y95.209 E3.81013
G1 X123.547 Y94.031 E3.87372
G1 X123.885 Y93.317 E3.91313
G1 X124.294 Y92.642 E3.95251
G1 X124.566 Y92.264 E3.97574
G0 F3600 X124.883 Y92.508
G1 F1800 X125.663 Y91.491 E4.03969
G1 X126.162 Y90.905 E4.07809
G1 X126.72 Y90.375 E4.11648
G1 X127.036 Y90.119 E4.13677
G1 X128.052 Y89.341 E4.20061
G1 X128.686 Y88.905 E4.239
G1 X129.362 Y88.538 E4.27738
G1 X129.716 Y88.381 E4.2967
G1 X130.895 Y87.892 E4.36037
G1 X131.62 Y87.634 E4.39877
G1 X132.367 Y87.454 E4.4371
G1 X132.76 Y87.391 E4.45696
G1 X134.03 Y87.223 E4.52087
G1 X134.796 Y87.162 E4.55921
G1 X135.565 Y87.181 E4.59759
G1 X135.97 Y87.223 E4.6179
G1 X137.24 Y87.391 E4.68181
G1 X137.997 Y87.531 E4.72022
G1 X138.734 Y87.749 E4.75856
G1 X139.105 Y87.892 E4.7784
G1 X140.284 Y88.381 E4.84208
G1 X140.978 Y88.712 E4.88044
G1 X141.634 Y89.113 E4.9188
G1 X141.948 Y89.341 E4.93816
G1 X142.964 Y90.119 E5.002
G1 X143.55 Y90.617 E5.04037
G1 X144.08 Y91.174 E5.07873
G1 X144.337 Y91.491 E5.09909
G1 X145.117 Y92.508 E5.16303
G1 X145.553 Y93.141 E5.20138
G1 X145.92 Y93.817 E5.23975
G1 X146.084 Y94.184 E5.25981
G1 X146.571 Y95.362 E5.3234
G1 X146.827 Y96.087 E5.36176
G1 X147.007 Y96.835 E5.40014
G1 X147.068 Y97.219 E5.41954
G1 X147.236 Y98.489 E5.48345
G1 X147.297 Y99.255 E5.52179
G1 X147.278 Y100.024 E5.56017
G1 X147.236 Y100.429 E5.58048
G1 X147.068 Y101.699 E5.64439
G1 X146.928 Y102.456 E5.6828
G1 X146.71 Y103.193 E5.72114
G1 X146.571 Y103.556 E5.74054
G1 X146.084 Y104.734 E5.80413
G1 X145.753 Y105.429 E5.84254
G1 X145.353 Y106.085 E5.88087
G1 X145.117 Y106.41 E5.90091
G1 X144.337 Y107.427 E5.96485
G1 X143.838 Y108.013 E6.00325
G1 X143.28 Y108.543 E6.04165
G1 X142.968 Y108.797 E6.06172
G1 X141.952 Y109.576 E6.12559
G1 X141.318 Y110.011 E6.16395
G1 X140.642 Y110.379 E6.20235
G1 X140.279 Y110.54 E6.22216
G1 X139.1 Y111.028 E6.28582
G1 X138.375 Y111.285 E6.3242
G1 X137.627 Y111.465 E6.36258
G1 X137.24 Y111.527 E6.38213
G1 X135.97 Y111.695 E6.44605
G1 X135.204 Y111.756 E6.48438
G1 X134.435 Y111.737 E6.52276
G1 X134.03 Y111.695 E6.54307
G1 X132.76 Y111.527 E6.60699
G1 X132.003 Y111.387 E6.64539
G1 X131.266 Y111.169 E6.68374
G1 X130.9 Y111.028 E6.70331
G1 X129.721 Y110.54 E6.76697
G1 X129.026 Y110.21 E6.80535
G1 X128.37 Y109.809 E6.84371
G1 X128.048 Y109.576 E6.86354
G1 X127.032 Y108.797 E6.92741
G1 X126.447 Y108.297 E6.9658
G1 X125.917 Y107.74 E7.00416
G1 X125.663 Y107.427 E7.02427
G1 X124.883 Y106.41 E7.08822
G1 X124.447 Y105.777 E7.12656
G1 X124.08 Y105.101 E7.16494
G1 X123.916 Y104.734 E7.18499
G1 X123.429 Y103.556 E7.24859
G1 X123.173 Y102.831 E7.28695
G1 X122.993 Y102.083 E7.32533
G1 X122.932 Y101.699 E7.34473
G1 X122.764 Y100.429 E7.40864
G1 X122.703 Y99.663 E7.44698
G1 X122.722 Y98.894 E7.48535
G1 X122.764 Y98.489 E7.50567
G1 X122.932 Y97.219 E7.56958
G1 X123.072 Y96.462 E7.60799
G1 X123.29 Y95.725 E7.64633
G1 X123.429 Y95.362 E7.66572
G1 X123.916 Y94.184 E7.72932
G1 X124.247 Y93.489 E7.76772
G1 X124.647 Y92.833 E7.80606
G1 X124.883 Y92.508 E7.8261
G0 F3600 X125.201 Y92.751
G1 F1800 X125.981 Y91.734 E7.89004
G1 X126.467 Y91.166 E7.92733
G1 X127.279 Y90.436 E7.98181
G1 X128.295 Y89.658 E8.04565
G1 X128.913 Y89.236 E8.08299
G1 X129.869 Y88.75 E8.13649
G1 X131.048 Y88.261 E8.20017
G1 X131.754 Y88.012 E8.23752
G1 X132.812 Y87.787 E8.29148
G1 X134.082 Y87.619 E8.3554
G1 X134.828 Y87.561 E8.39273
G1 X135.918 Y87.619 E8.44718
G1 X137.188 Y87.787 E8.5111
G1 X137.923 Y87.925 E8.54841
G1 X138.952 Y88.261 E8.60241
G1 X140.131 Y88.75 E8.66609
G1 X140.805 Y89.073 E8.70338
G1 X141.705 Y89.658 E8.75693
G1 X142.721 Y90.436 E8.82077
G1 X143.29 Y90.922 E8.85811
G1 X144.019 Y91.734 E8.91255
G1 X144.799 Y92.751 E8.97649
G1 X145.222 Y93.368 E9.01381
G1 X145.714 Y94.337 E9.06803
G1 X146.201 Y95.515 E9.13163
G1 X146.449 Y96.22 E9.16891
G1 X146.672 Y97.271 E9.22251
G1 X146.84 Y98.541 E9.28642
G1 X146.898 Y99.287 E9.32376
G1 X146.84 Y100.377 E9.37821
G1 X146.672 Y101.647 E9.44213
G1 X146.534 Y102.382 E9.47944
G1 X146.201 Y103.403 E9.53301
G1 X145.714 Y104.581 E9.59661
G1 X145.392 Y105.256 E9.63392
G1 X144.799 Y106.167 E9.68815
G1 X144.019 Y107.184 E9.75209
G1 X143.533 Y107.752 E9.78939
G1 X142.724 Y108.479 E9.84365
G1 X141.708 Y109.258 E9.90753
G1 X141.091 Y109.681 E9.94485
G1 X140.126 Y110.171 E9.99884
G1 X138.947 Y110.659 E10.0625
G1 X138.242 Y110.908 E10.0998
G1 X137.188 Y111.131 E10.15355
G1 X135.918 Y111.299 E10.21747
G1 X135.172 Y111.357 E10.2548
G1 X134.082 Y111.299 E10.30925
G1 X132.812 Y111.131 E10.37317
G1 X132.077 Y110.993 E10.41048
G1 X131.053 Y110.659 E10.46421
G1 X129.874 Y110.171 E10.52787
G1 X129.199 Y109.848 E10.5652
G1 X128.292 Y109.258 E10.61919
G1 X127.276 Y108.479 E10.68306
G1 X126.707 Y107.993 E10.72039
G1 X125.981 Y107.184 E10.77462
G1 X125.201 Y106.167 E10.83857
G1 X124.778 Y105.55 E10.87589
G1 X124.286 Y104.581 E10.93011
G1 X123.799 Y103.403 E10.9937
G1 X123.551 Y102.698 E11.03099
G1 X123.328 Y101.647 E11.08459
G1 X123.16 Y100.377 E11.1485
G1 X123.102 Y99.631 E11.18583
G1 X123.16 Y98.541 E11.24029
G1 X123.328 Y97.271 E11.3042
G1 X123.466 Y96.536 E11.34151
G1 X123.799 Y95.515 E11.39509
G1 X124.286 Y94.337 E11.45868
G1 X124.608 Y93.662 E11.496
G1 X125.201 Y92.751 E11.55023
G0 F3600 X125.518 Y92.994
G1 F1800 X126.298 Y91.977 E11.61417
G1 X126.771 Y91.426 E11.6504
G1 X127.522 Y90.754 E11.70068
G1 X128.538 Y89.976 E11.76452
G1 X129.139 Y89.567 E11.80079
G1 X130.022 Y89.12 E11.85016
G1 X131.201 Y88.631 E11.91384
G1 X131.887 Y88.39 E11.95012
G1 X132.864 Y88.184 E11.99993
G1 X134.134 Y88.016 E12.06384
G1 X134.859 Y87.961 E12.10012
G1 X135.866 Y88.016 E12.15043
G1 X137.136 Y88.184 E12.21435
G1 X137.849 Y88.319 E12.25055
G1 X138.799 Y88.631 E12.30044
G1 X139.978 Y89.12 E12.36411
G1 X140.632 Y89.434 E12.40031
G1 X141.462 Y89.976 E12.44976
G1 X142.478 Y90.754 E12.51361
G1 X143.029 Y91.227 E12.54984
G1 X143.702 Y91.977 E12.60011
G1 X144.482 Y92.994 E12.66405
G1 X144.892 Y93.594 E12.70031
G1 X145.344 Y94.489 E12.75033
G1 X145.831 Y95.667 E12.81393
G1 X146.071 Y96.353 E12.85019
G1 X146.275 Y97.323 E12.89964
G1 X146.443 Y98.593 E12.96355
G1 X146.498 Y99.318 E12.99982
G1 X146.443 Y100.325 E13.05014
G1 X146.275 Y101.595 E13.11405
G1 X146.14 Y102.308 E13.15025
G1 X145.831 Y103.251 E13.19976
G1 X145.344 Y104.429 E13.26336
G1 X145.03 Y105.084 E13.2996
G1 X144.482 Y105.924 E13.34963
G1 X143.702 Y106.941 E13.41358
G1 X143.229 Y107.492 E13.44981
G1 X142.481 Y108.162 E13.49991
G1 X141.465 Y108.941 E13.56378
G1 X140.865 Y109.35 E13.60001
G1 X139.973 Y109.801 E13.64987
G1 X138.794 Y110.289 E13.71353
G1 X138.109 Y110.53 E13.74976
G1 X137.136 Y110.734 E13.79936
G1 X135.866 Y110.902 E13.86327
G1 X135.141 Y110.957 E13.89955
G1 X134.134 Y110.902 E13.94986
G1 X132.864 Y110.734 E14.01377
G1 X132.151 Y110.599 E14.04998
G1 X131.206 Y110.289 E14.09959
G1 X130.027 Y109.801 E14.16325
G1 X129.372 Y109.487 E14.19949
G1 X128.535 Y108.941 E14.24935
G1 X127.519 Y108.162 E14.31322
G1 X126.968 Y107.689 E14.34945
G1 X126.298 Y106.941 E14.39955
G1 X125.518 Y105.924 E14.4635
G1 X125.108 Y105.324 E14.49975
G1 X124.656 Y104.429 E14.54977
G1 X124.169 Y103.251 E14.61337
G1 X123.929 Y102.565 E14.64963
G1 X123.725 Y101.595 E14.69908
G1 X123.557 Y100.325 E14.76299
G1 X123.502 Y99.6 E14.79927
G1 X123.557 Y98.593 E14.84958
G1 X123.725 Y97.323 E14.91349
G1 X123.86 Y96.61 E14.9497
G1 X124.169 Y95.667 E14.99921
G1 X124.656 Y94.489 E15.0628
G1 X124.97 Y93.834 E15.09904
G1 X125.518 Y92.994 E15.14908
G0 F3600 X125.835 Y93.238
G1 F1800 X126.615 Y92.221 E15.21302
G1 X127.075 Y91.687 E15.24818
G1 X127.766 Y91.071 E15.29437
G1 X128.782 Y90.293 E15.35821
G1 X129.364 Y89.898 E15.3933
G1 X130.176 Y89.489 E15.43866
G1 X131.355 Y89 E15.50234
G1 X132.019 Y88.768 E15.53743
G1 X132.917 Y88.581 E15.58319
G1 X134.187 Y88.413 E15.64711
G1 X134.889 Y88.36 E15.68223
G1 X135.813 Y88.413 E15.7284
G1 X137.083 Y88.581 E15.79231
G1 X137.775 Y88.712 E15.82745
G1 X138.645 Y89 E15.87317
G1 X139.824 Y89.489 E15.93685
G1 X140.458 Y89.795 E15.97197
G1 X141.218 Y90.293 E16.01731
G1 X142.234 Y91.071 E16.08115
G1 X142.768 Y91.531 E16.11631
G1 X143.385 Y92.221 E16.16249
G1 X144.165 Y93.238 E16.22643
G1 X144.561 Y93.82 E16.26155
G1 X144.975 Y94.642 E16.30747
G1 X145.462 Y95.82 E16.37107
G1 X145.693 Y96.485 E16.40619
G1 X145.878 Y97.376 E16.45159
G1 X146.046 Y98.646 E16.5155
G1 X146.099 Y99.348 E16.55062
G1 X146.046 Y100.272 E16.5968
G1 X145.878 Y101.542 E16.66071
G1 X145.747 Y102.234 E16.69585
G1 X145.462 Y103.098 E16.74124
G1 X144.975 Y104.276 E16.80483
G1 X144.669 Y104.91 E16.83995
G1 X144.165 Y105.68 E16.88587
G1 X143.385 Y106.697 E16.94981
G1 X142.925 Y107.231 E16.98497
G1 X142.237 Y107.844 E17.03095
G1 X141.221 Y108.623 E17.09482
G1 X140.639 Y109.019 E17.12994
G1 X139.82 Y109.432 E17.1757
G1 X138.641 Y109.92 E17.23936
G1 X137.976 Y110.152 E17.2745
G1 X137.083 Y110.337 E17.32
G1 X135.813 Y110.505 E17.38391
G1 X135.111 Y110.558 E17.41903
G1 X134.187 Y110.505 E17.46521
G1 X132.917 Y110.337 E17.52912
G1 X132.225 Y110.206 E17.56426
G1 X131.359 Y109.92 E17.60976
G1 X130.18 Y109.432 E17.67342
G1 X129.546 Y109.126 E17.70854
G1 X128.779 Y108.623 E17.7543
G1 X127.763 Y107.844 E17.81817
G1 X127.229 Y107.385 E17.8533
G1 X126.615 Y106.697 E17.89931
G1 X125.835 Y105.68 E17.96325
G1 X125.439 Y105.098 E17.99837
G1 X125.025 Y104.276 E18.04429
G1 X124.538 Y103.098 E18.10788
G1 X124.307 Y102.433 E18.143
G1 X124.122 Y101.542 E18.1884
G1 X123.954 Y100.272 E18.25232
G1 X123.901 Y99.57 E18.28744
G1 X123.954 Y98.646 E18.33361
G1 X124.122 Y97.376 E18.39753
G1 X124.253 Y96.684 E18.43266
G1 X124.538 Y95.82 E18.47805
G1 X125.025 Y94.642 E18.54165
G1 X125.331 Y94.008 E18.57677
G1 X125.835 Y93.238 E18.62268
G0 F3600 X126.153 Y93.481
G1 F1800 X126.933 Y92.464 E18.68663
G1 X127.378 Y91.949 E18.72058
G1 X128.009 Y91.389 E18.76267
G1 X129.025 Y90.611 E18.82652
G1 X129.589 Y90.23 E18.86047
G1 X130.329 Y89.859 E18.90177
G1 X131.508 Y89.37 E18.96545
G1 X132.151 Y89.146 E18.99942
G1 X132.969 Y88.977 E19.04109
G1 X134.239 Y88.809 E19.105
G1 X134.918 Y88.76 E19.13897
G1 X135.761 Y88.809 E19.1811
G1 X137.031 Y88.977 E19.24501
G1 X137.699 Y89.106 E19.27895
G1 X138.492 Y89.37 E19.32065
G1 X139.671 Y89.859 E19.38433
G1 X140.284 Y90.156 E19.41831
G1 X140.975 Y90.611 E19.45959
G1 X141.991 Y91.389 E19.52343
G1 X142.507 Y91.834 E19.55743
G1 X143.067 Y92.464 E19.59948
G1 X143.847 Y93.481 E19.66342
G1 X144.229 Y94.045 E19.69741
G1 X144.605 Y94.795 E19.73926
G1 X145.092 Y95.973 E19.80286
G1 X145.315 Y96.617 E19.83686
G1 X145.482 Y97.428 E19.87817
G1 X145.65 Y98.698 E19.94208
G1 X145.699 Y99.377 E19.97604
G1 X145.65 Y100.22 E20.01817
G1 X145.482 Y101.49 E20.08209
G1 X145.353 Y102.158 E20.11603
G1 X145.092 Y102.945 E20.15739
G1 X144.605 Y104.123 E20.22099
G1 X144.308 Y104.736 E20.25497
G1 X143.847 Y105.437 E20.29683
G1 X143.067 Y106.454 E20.36077
G1 X142.622 Y106.969 E20.39473
G1 X141.994 Y107.527 E20.43664
G1 X140.978 Y108.306 E20.50051
G1 X140.414 Y108.688 E20.5345
G1 X139.667 Y109.062 E20.57618
G1 X138.488 Y109.55 E20.63984
G1 X137.845 Y109.773 E20.67379
G1 X137.031 Y109.941 E20.71526
G1 X135.761 Y110.109 E20.77917
G1 X135.082 Y110.158 E20.81313
G1 X134.239 Y110.109 E20.85526
G1 X132.969 Y109.941 E20.91918
G1 X132.301 Y109.812 E20.95312
G1 X131.512 Y109.55 E20.99459
G1 X130.333 Y109.062 E21.05825
G1 X129.72 Y108.765 E21.09224
G1 X129.022 Y108.306 E21.13392
G1 X128.006 Y107.527 E21.19779
G1 X127.491 Y107.081 E21.23178
G1 X126.933 Y106.454 E21.27365
G1 X126.153 Y105.437 E21.3376
G1 X125.771 Y104.873 E21.37158
G1 X125.395 Y104.123 E21.41344
G1 X124.908 Y102.945 E21.47703
G1 X124.685 Y102.301 E21.51103
G1 X124.518 Y101.49 E21.55234
G1 X124.35 Y100.22 E21.61626
G1 X124.301 Y99.541 E21.65022
G1 X124.35 Y98.698 E21.69235
G1 X124.518 Y97.428 E21.75626
G1 X124.647 Y96.76 E21.7902
G1 X124.908 Y95.973 E21.83157
G1 X125.395 Y94.795 E21.89516
G1 X125.692 Y94.182 E21.92915
G1 X126.153 Y93.481 E21.971
G0 F3600 X126.47 Y93.725
G1 F1800 X127.25 Y92.708 E22.03495
G1 X127.681 Y92.212 E22.06773
G1 X128.252 Y91.707 E22.10576
G1 X129.268 Y90.929 E22.1696
G1 X129.813 Y90.562 E22.20238
G1 X130.482 Y90.228 E22.23969
G1 X131.661 Y89.739 E22.30337
G1 X132.282 Y89.525 E22.33614
G1 X133.022 Y89.374 E22.37382
G1 X134.292 Y89.206 E22.43773
G1 X134.947 Y89.159 E22.47049
G1 X135.708 Y89.206 E22.50853
G1 X136.978 Y89.374 E22.57244
G1 X137.623 Y89.499 E22.60522
G1 X138.339 Y89.739 E22.6429
G1 X139.518 Y90.228 E22.70657
G1 X140.108 Y90.516 E22.73933
G1 X140.732 Y90.929 E22.77666
G1 X141.748 Y91.707 E22.8405
G1 X142.244 Y92.137 E22.87325
G1 X142.75 Y92.708 E22.91132
G1 X143.53 Y93.725 E22.97526
G1 X143.897 Y94.269 E23.008
G1 X144.235 Y94.948 E23.04584
G1 X144.722 Y96.126 E23.10944
G1 X144.936 Y96.747 E23.14221
G1 X145.085 Y97.481 E23.17957
G1 X145.253 Y98.751 E23.24348
G1 X145.3 Y99.406 E23.27625
G1 X145.253 Y100.167 E23.31429
G1 X145.085 Y101.437 E23.3782
G1 X144.96 Y102.082 E23.41098
G1 X144.722 Y102.792 E23.44833
G1 X144.235 Y103.97 E23.51193
G1 X143.948 Y104.561 E23.54471
G1 X143.53 Y105.193 E23.58251
