;FLAVOR:Marlin
;TIME:1364
;Filament used: 0.509078m
;Layer height: 0.2
;MINX:123.454
;MINY:65.954
;MINZ:0.3
;MAXX:146.546
;MAXY:89.046
;MAXZ:49.9
;Generated with Cura_SteamEngine 4.8.0
M140 S60
M105
M190 S60
M104 S210
M105
M109 S210
M82 ;absolute extrusion mode
G28 ;Home
G1 Z15.0 F6000 ;Move the platform down 15mm
;Prime the extruder
G92 E0
G1 F200 E3
G92 E0
G92 E0
G92 E0
G1 F2400 E-6.5
;LAYER_COUNT:249
;LAYER:0
M107
G0 F3600 X124.881 Y71.934 Z0.3
;TYPE:SKIRT
G1 F2400 E0
G1 F1800 X125.289 Y71.258 E0.03939
G1 X125.56 Y70.882 E0.06252
G1 X126.157 Y70.103 E0.11148
G1 X126.668 Y69.502 E0.15084
G1 X127.238 Y68.955 E0.19025
G1 X127.605 Y68.656 E0.21387
G1 X128.383 Y68.06 E0.26276
G1 X129.033 Y67.612 E0.30215
G1 X129.725 Y67.232 E0.34154
G1 X130.142 Y67.045 E0.36434
G1 X131.043 Y66.672 E0.41299
G1 X131.787 Y66.407 E0.45239
G1 X132.554 Y66.219 E0.49179
G1 X133.002 Y66.147 E0.51442
G1 X133.975 Y66.018 E0.56339
G1 X134.762 Y65.954 E0.60279
G1 X135.551 Y65.97 E0.64216
G1 X136.025 Y66.018 E0.66593
G1 X136.998 Y66.147 E0.71489
G1 X137.775 Y66.29 E0.75431
G1 X138.533 Y66.511 E0.7937
G1 X138.957 Y66.672 E0.81633
G1 X139.858 Y67.045 E0.86498
G1 X140.571 Y67.384 E0.90437
G1 X141.246 Y67.793 E0.94374
G1 X141.617 Y68.06 E0.96655
G1 X142.395 Y68.656 E1.01544
G1 X142.997 Y69.167 E1.05484
G1 X143.544 Y69.737 E1.09425
G1 X143.843 Y70.103 E1.11783
G1 X144.44 Y70.882 E1.16679
G1 X144.888 Y71.533 E1.20622
G1 X145.268 Y72.225 E1.24561
G1 X145.458 Y72.647 E1.2687
G1 X145.83 Y73.547 E1.31728
G1 X146.094 Y74.292 E1.35671
G1 X146.282 Y75.059 E1.39611
G1 X146.353 Y75.502 E1.4185
G1 X146.482 Y76.475 E1.46746
G1 X146.546 Y77.262 E1.50686
G1 X146.53 Y78.051 E1.54623
G1 X146.482 Y78.525 E1.57
G1 X146.353 Y79.498 E1.61897
G1 X146.21 Y80.275 E1.65838
G1 X145.989 Y81.033 E1.69777
G1 X145.83 Y81.453 E1.72018
G1 X145.458 Y82.353 E1.76876
G1 X145.119 Y83.066 E1.80815
G1 X144.711 Y83.742 E1.84754
G1 X144.44 Y84.118 E1.87067
G1 X143.843 Y84.897 E1.91963
G1 X143.332 Y85.498 E1.95899
G1 X142.762 Y86.045 E1.9984
G1 X142.395 Y86.344 E2.02202
G1 X141.617 Y86.94 E2.07091
G1 X140.967 Y87.388 E2.1103
G1 X140.275 Y87.768 E2.14969
G1 X139.858 Y87.955 E2.17249
G1 X138.957 Y88.328 E2.22114
G1 X138.213 Y88.593 E2.26054
G1 X137.446 Y88.781 E2.29994
G1 X136.998 Y88.853 E2.32258
G1 X136.025 Y88.982 E2.37154
G1 X135.238 Y89.046 E2.41094
G1 X134.449 Y89.03 E2.45031
G1 X133.975 Y88.982 E2.47408
G1 X133.002 Y88.853 E2.52305
G1 X132.225 Y88.71 E2.56246
G1 X131.467 Y88.489 E2.60185
G1 X131.043 Y88.328 E2.62448
G1 X130.142 Y87.955 E2.67313
G1 X129.429 Y87.616 E2.71252
G1 X128.754 Y87.207 E2.75189
G1 X128.383 Y86.94 E2.7747
G1 X127.605 Y86.344 E2.82359
G1 X127.003 Y85.833 E2.86299
G1 X126.456 Y85.263 E2.9024
G1 X126.157 Y84.897 E2.92598
G1 X125.56 Y84.118 E2.97494
G1 X125.112 Y83.467 E3.01437
G1 X124.732 Y82.775 E3.05376
G1 X124.542 Y82.353 E3.07685
G1 X124.17 Y81.453 E3.12543
G1 X123.906 Y80.708 E3.16486
G1 X123.718 Y79.941 E3.20426
G1 X123.647 Y79.498 E3.22665
G1 X123.518 Y78.525 E3.27561
G1 X123.454 Y77.738 E3.31501
G1 X123.47 Y76.949 E3.35438
G1 X123.518 Y76.475 E3.37815
G1 X123.647 Y75.502 E3.42712
G1 X123.79 Y74.725 E3.46653
G1 X124.011 Y73.967 E3.50592
G1 X124.17 Y73.547 E3.52833
G1 X124.542 Y72.647 E3.57691
G1 X124.881 Y71.934 E3.6163
G0 F3600 X125.243 Y72.106
G1 F1800 X125.643 Y71.449 E3.65468
G1 X125.877 Y71.126 E3.67458
G1 X126.474 Y70.347 E3.72354
G1 X126.973 Y69.761 E3.76194
G1 X127.53 Y69.231 E3.8003
G1 X127.848 Y68.974 E3.8207
G1 X128.626 Y68.378 E3.86959
G1 X129.26 Y67.942 E3.90798
G1 X129.936 Y67.575 E3.94636
G1 X130.295 Y67.415 E3.96596
G1 X131.196 Y67.042 E4.01461
G1 X131.921 Y66.785 E4.05299
G1 X132.669 Y66.605 E4.09137
G1 X133.054 Y66.543 E4.11083
G1 X134.027 Y66.414 E4.1598
G1 X134.794 Y66.353 E4.19818
G1 X135.563 Y66.371 E4.23656
G1 X135.973 Y66.414 E4.25713
G1 X136.946 Y66.543 E4.30609
G1 X137.702 Y66.684 E4.34446
G1 X138.439 Y66.902 E4.38281
G1 X138.804 Y67.042 E4.40231
G1 X139.705 Y67.415 E4.45096
G1 X140.399 Y67.745 E4.4893
G1 X141.055 Y68.147 E4.52768
G1 X141.374 Y68.378 E4.54733
G1 X142.152 Y68.974 E4.59623
G1 X142.738 Y69.472 E4.63459
G1 X143.268 Y70.029 E4.67295
G1 X143.526 Y70.347 E4.69338
G1 X144.123 Y71.126 E4.74235
G1 X144.558 Y71.76 E4.78071
G1 X144.925 Y72.435 E4.81904
G1 X145.088 Y72.8 E4.83898
G1 X145.46 Y73.7 E4.88757
G1 X145.716 Y74.425 E4.92593
G1 X145.896 Y75.173 E4.96431
G1 X145.957 Y75.554 E4.98356
G1 X146.086 Y76.527 E5.03253
G1 X146.147 Y77.294 E5.07092
G1 X146.129 Y78.063 E5.10929
G1 X146.086 Y78.473 E5.12986
G1 X145.957 Y79.446 E5.17883
G1 X145.816 Y80.202 E5.21719
G1 X145.598 Y80.939 E5.25554
G1 X145.46 Y81.3 E5.27482
G1 X145.088 Y82.2 E5.3234
G1 X144.757 Y82.894 E5.36176
G1 X144.357 Y83.551 E5.40014
G1 X144.123 Y83.874 E5.42004
G1 X143.526 Y84.653 E5.469
G1 X143.027 Y85.239 E5.5074
G1 X142.47 Y85.769 E5.54576
G1 X142.152 Y86.026 E5.56616
G1 X141.374 Y86.622 E5.61505
G1 X140.74 Y87.058 E5.65344
G1 X140.064 Y87.425 E5.69182
G1 X139.705 Y87.585 E5.71143
G1 X138.804 Y87.958 E5.76008
G1 X138.079 Y88.215 E5.79845
G1 X137.331 Y88.395 E5.83684
G1 X136.946 Y88.457 E5.85629
G1 X135.973 Y88.586 E5.90526
G1 X135.206 Y88.647 E5.94365
G1 X134.437 Y88.629 E5.98202
G1 X134.027 Y88.586 E6.00259
G1 X133.054 Y88.457 E6.05156
G1 X132.298 Y88.316 E6.08993
G1 X131.561 Y88.098 E6.12827
G1 X131.196 Y87.958 E6.14777
G1 X130.295 Y87.585 E6.19642
G1 X129.601 Y87.255 E6.23476
G1 X128.945 Y86.853 E6.27315
G1 X128.626 Y86.622 E6.2928
G1 X127.848 Y86.026 E6.34169
G1 X127.262 Y85.528 E6.38006
G1 X126.732 Y84.971 E6.41842
G1 X126.474 Y84.653 E6.43885
G1 X125.877 Y83.874 E6.48781
G1 X125.442 Y83.24 E6.52617
G1 X125.075 Y82.565 E6.5645
G1 X124.912 Y82.2 E6.58445
G1 X124.54 Y81.3 E6.63303
G1 X124.284 Y80.575 E6.67139
G1 X124.104 Y79.827 E6.70977
G1 X124.043 Y79.446 E6.72902
G1 X123.914 Y78.473 E6.77799
G1 X123.853 Y77.706 E6.81638
G1 X123.871 Y76.937 E6.85475
G1 X123.914 Y76.527 E6.87532
G1 X124.043 Y75.554 E6.92429
G1 X124.184 Y74.798 E6.96266
G1 X124.402 Y74.061 E7.001
G1 X124.54 Y73.7 E7.02028
G1 X124.912 Y72.8 E7.06887
G1 X125.243 Y72.106 E7.10723
G0 F3600 X125.604 Y72.278
G1 F1800 X126.195 Y71.369 E7.16132
G1 X126.792 Y70.59 E7.21029
G1 X127.278 Y70.021 E7.24762
G1 X128.091 Y69.291 E7.30213
G1 X128.869 Y68.695 E7.35103
G1 X129.486 Y68.273 E7.38832
G1 X130.448 Y67.784 E7.44216
G1 X131.349 Y67.411 E7.49081
G1 X132.055 Y67.163 E7.52814
G1 X133.107 Y66.94 E7.58179
G1 X134.08 Y66.811 E7.63076
G1 X134.826 Y66.752 E7.66809
G1 X135.92 Y66.811 E7.72275
G1 X136.893 Y66.94 E7.77172
G1 X137.628 Y67.078 E7.80903
G1 X138.651 Y67.411 E7.86271
G1 X139.552 Y67.784 E7.91136
G1 X140.226 Y68.107 E7.94864
G1 X141.131 Y68.695 E8.00249
G1 X141.909 Y69.291 E8.05138
G1 X142.478 Y69.777 E8.08872
G1 X143.208 Y70.59 E8.14323
G1 X143.805 Y71.369 E8.19219
G1 X144.228 Y71.986 E8.22951
G1 X144.718 Y72.953 E8.2836
G1 X145.09 Y73.853 E8.33218
G1 X145.339 Y74.559 E8.36953
G1 X145.56 Y75.607 E8.42297
G1 X145.689 Y76.58 E8.47194
G1 X145.748 Y77.326 E8.50927
G1 X145.689 Y78.42 E8.56393
G1 X145.56 Y79.393 E8.6129
G1 X145.422 Y80.128 E8.65021
G1 X145.09 Y81.147 E8.70368
G1 X144.718 Y82.047 E8.75226
G1 X144.396 Y82.722 E8.78957
G1 X143.805 Y83.631 E8.84366
G1 X143.208 Y84.41 E8.89263
G1 X142.722 Y84.979 E8.92996
G1 X141.909 Y85.709 E8.98448
G1 X141.131 Y86.305 E9.03337
G1 X140.514 Y86.727 E9.07066
G1 X139.552 Y87.216 E9.1245
G1 X138.651 Y87.589 E9.17315
G1 X137.945 Y87.837 E9.21049
G1 X136.893 Y88.06 E9.26414
G1 X135.92 Y88.189 E9.3131
G1 X135.174 Y88.248 E9.35044
G1 X134.08 Y88.189 E9.4051
G1 X133.107 Y88.06 E9.45407
G1 X132.372 Y87.922 E9.49138
G1 X131.349 Y87.589 E9.54505
G1 X130.448 Y87.216 E9.5937
G1 X129.774 Y86.893 E9.63099
G1 X128.869 Y86.305 E9.68483
G1 X128.091 Y85.709 E9.73373
G1 X127.522 Y85.223 E9.77106
G1 X126.792 Y84.41 E9.82557
G1 X126.195 Y83.631 E9.87454
G1 X125.772 Y83.014 E9.91186
G1 X125.282 Y82.047 E9.96594
G1 X124.91 Y81.147 E10.01453
G1 X124.661 Y80.441 E10.05188
G1 X124.44 Y79.393 E10.10531
G1 X124.311 Y78.42 E10.15428
G1 X124.252 Y77.674 E10.19161
G1 X124.311 Y76.58 E10.24627
G1 X124.44 Y75.607 E10.29524
G1 X124.578 Y74.872 E10.33255
G1 X124.91 Y73.853 E10.38602
G1 X125.282 Y72.953 E10.43461
G1 X125.604 Y72.278 E10.47192
G0 F3600 X125.965 Y72.451
G1 F1800 X126.512 Y71.612 E10.52188
G1 X127.109 Y70.833 E10.57085
G1 X127.582 Y70.282 E10.60708
G1 X128.334 Y69.609 E10.65743
G1 X129.112 Y69.013 E10.70632
G1 X129.712 Y68.603 E10.74258
G1 X130.601 Y68.154 E10.79227
G1 X131.502 Y67.781 E10.84092
G1 X132.188 Y67.54 E10.87719
G1 X133.16 Y67.336 E10.92674
G1 X134.133 Y67.207 E10.97571
G1 X134.857 Y67.152 E11.01193
G1 X135.867 Y67.207 E11.0624
G1 X136.84 Y67.336 E11.11137
G1 X137.554 Y67.471 E11.14762
G1 X138.498 Y67.781 E11.19719
G1 X139.399 Y68.154 E11.24584
G1 X140.053 Y68.468 E11.28203
G1 X140.888 Y69.013 E11.33178
G1 X141.666 Y69.609 E11.38068
G1 X142.217 Y70.081 E11.41687
G1 X142.891 Y70.833 E11.46725
G1 X143.488 Y71.612 E11.51622
G1 X143.897 Y72.212 E11.55244
G1 X144.349 Y73.106 E11.60242
G1 X144.721 Y74.006 E11.65101
G1 X144.961 Y74.691 E11.68722
G1 X145.164 Y75.66 E11.73661
G1 X145.293 Y76.633 E11.78558
G1 X145.348 Y77.357 E11.82181
G1 X145.293 Y78.367 E11.87227
G1 X145.164 Y79.34 E11.92124
G1 X145.029 Y80.054 E11.95749
G1 X144.721 Y80.994 E12.00684
G1 X144.349 Y81.894 E12.05543
G1 X144.035 Y82.549 E12.09167
G1 X143.488 Y83.388 E12.14163
G1 X142.891 Y84.167 E12.1906
G1 X142.418 Y84.718 E12.22683
G1 X141.666 Y85.391 E12.27718
G1 X140.888 Y85.987 E12.32607
G1 X140.288 Y86.397 E12.36233
G1 X139.399 Y86.846 E12.41201
G1 X138.498 Y87.219 E12.46066
G1 X137.812 Y87.46 E12.49694
G1 X136.84 Y87.664 E12.54649
G1 X135.867 Y87.793 E12.59546
G1 X135.143 Y87.848 E12.63168
G1 X134.133 Y87.793 E12.68215
G1 X133.16 Y87.664 E12.73111
G1 X132.446 Y87.529 E12.76737
G1 X131.502 Y87.219 E12.81694
G1 X130.601 Y86.846 E12.86559
G1 X129.947 Y86.532 E12.90178
G1 X129.112 Y85.987 E12.95153
G1 X128.334 Y85.391 E13.00042
G1 X127.783 Y84.919 E13.03662
G1 X127.109 Y84.167 E13.087
G1 X126.512 Y83.388 E13.13597
G1 X126.103 Y82.788 E13.17219
G1 X125.651 Y81.894 E13.22217
G1 X125.279 Y80.994 E13.27076
G1 X125.039 Y80.309 E13.30697
G1 X124.836 Y79.34 E13.35636
G1 X124.707 Y78.367 E13.40533
G1 X124.652 Y77.643 E13.44156
G1 X124.707 Y76.633 E13.49202
G1 X124.836 Y75.66 E13.54099
G1 X124.971 Y74.946 E13.57724
G1 X125.279 Y74.006 E13.62659
G1 X125.651 Y73.106 E13.67518
G1 X125.965 Y72.451 E13.71141
G0 F3600 X126.327 Y72.624
G1 F1800 X126.83 Y71.856 E13.75722
G1 X127.427 Y71.077 E13.80618
G1 X127.886 Y70.543 E13.84131
G1 X128.578 Y69.926 E13.88757
G1 X129.356 Y69.33 E13.93646
G1 X129.938 Y68.935 E13.97155
G1 X130.754 Y68.523 E14.01716
G1 X131.655 Y68.15 E14.06581
G1 X132.32 Y67.919 E14.10093
G1 X133.212 Y67.733 E14.14639
G1 X134.185 Y67.604 E14.19536
G1 X134.887 Y67.551 E14.23048
G1 X135.815 Y67.604 E14.27685
G1 X136.788 Y67.733 E14.32582
G1 X137.479 Y67.865 E14.36092
G1 X138.345 Y68.15 E14.4064
G1 X139.246 Y68.523 E14.45505
G1 X139.88 Y68.829 E14.49018
G1 X140.644 Y69.33 E14.53576
G1 X141.422 Y69.926 E14.58465
G1 X141.956 Y70.385 E14.61978
G1 X142.573 Y71.077 E14.66604
G1 X143.17 Y71.856 E14.715
G1 X143.566 Y72.438 E14.75012
G1 X143.979 Y73.259 E14.79597
G1 X144.351 Y74.159 E14.84456
G1 X144.582 Y74.823 E14.87963
G1 X144.767 Y75.712 E14.92493
G1 X144.896 Y76.685 E14.9739
G1 X144.949 Y77.387 E15.00903
G1 X144.896 Y78.315 E15.0554
G1 X144.767 Y79.288 E15.10437
G1 X144.635 Y79.979 E15.13946
G1 X144.351 Y80.841 E15.18474
G1 X143.979 Y81.741 E15.23333
G1 X143.673 Y82.376 E15.2685
G1 X143.17 Y83.144 E15.3143
G1 X142.573 Y83.923 E15.36326
G1 X142.114 Y84.457 E15.39839
G1 X141.422 Y85.074 E15.44465
G1 X140.644 Y85.67 E15.49354
G1 X140.062 Y86.065 E15.52863
G1 X139.246 Y86.477 E15.57424
G1 X138.345 Y86.85 E15.62289
G1 X137.68 Y87.081 E15.65801
G1 X136.788 Y87.267 E15.70347
G1 X135.815 Y87.396 E15.75244
G1 X135.113 Y87.449 E15.78756
G1 X134.185 Y87.396 E15.83394
G1 X133.212 Y87.267 E15.8829
G1 X132.521 Y87.135 E15.918
G1 X131.655 Y86.85 E15.96349
G1 X130.754 Y86.477 E16.01214
G1 X130.12 Y86.171 E16.04726
G1 X129.356 Y85.67 E16.09284
G1 X128.578 Y85.074 E16.14173
G1 X128.044 Y84.615 E16.17686
G1 X127.427 Y83.923 E16.22312
G1 X126.83 Y83.144 E16.27208
G1 X126.434 Y82.562 E16.3072
G1 X126.021 Y81.741 E16.35305
G1 X125.649 Y80.841 E16.40164
G1 X125.418 Y80.177 E16.43671
G1 X125.233 Y79.288 E16.48202
G1 X125.104 Y78.315 E16.53098
G1 X125.051 Y77.613 E16.56611
G1 X125.104 Y76.685 E16.61248
G1 X125.233 Y75.712 E16.66145
G1 X125.365 Y75.021 E16.69655
G1 X125.649 Y74.159 E16.74183
G1 X126.021 Y73.259 E16.79041
G1 X126.327 Y72.624 E16.82558
G0 F3600 X126.687 Y72.799
G1 F1800 X127.147 Y72.099 E16.86737
G1 X127.744 Y71.32 E16.91633
G1 X128.19 Y70.805 E16.95032
G1 X128.821 Y70.244 E16.99244
G1 X129.599 Y69.648 E17.04134
G1 X130.163 Y69.266 E17.07532
G1 X130.907 Y68.893 E17.11685
G1 X131.808 Y68.52 E17.1655
G1 X132.452 Y68.297 E17.1995
G1 X133.265 Y68.129 E17.24091
G1 X134.238 Y68 E17.28988
G1 X134.917 Y67.951 E17.32385
G1 X135.762 Y68 E17.36607
G1 X136.735 Y68.129 E17.41504
G1 X137.404 Y68.258 E17.44903
G1 X138.192 Y68.52 E17.49046
G1 X139.093 Y68.893 E17.53911
G1 X139.705 Y69.19 E17.57305
G1 X140.401 Y69.648 E17.61462
G1 X141.179 Y70.244 E17.66351
G1 X141.694 Y70.689 E17.69747
G1 X142.256 Y71.32 E17.73963
G1 X142.853 Y72.099 E17.78859
G1 X143.234 Y72.663 E17.82255
G1 X143.609 Y73.411 E17.86429
G1 X143.981 Y74.311 E17.91288
G1 X144.204 Y74.955 E17.94688
G1 X144.371 Y75.765 E17.98814
G1 X144.5 Y76.738 E18.03711
G1 X144.549 Y77.417 E18.07107
G1 X144.5 Y78.262 E18.1133
G1 X144.371 Y79.235 E18.16227
G1 X144.242 Y79.904 E18.19626
G1 X143.981 Y80.689 E18.23753
G1 X143.609 Y81.589 E18.28612
G1 X143.313 Y82.201 E18.32003
G1 X142.853 Y82.901 E18.36182
G1 X142.256 Y83.68 E18.41079
G1 X141.81 Y84.195 E18.44478
G1 X141.179 Y84.756 E18.4869
G1 X140.401 Y85.352 E18.5358
G1 X139.837 Y85.734 E18.56978
G1 X139.093 Y86.107 E18.6113
G1 X138.192 Y86.48 E18.65995
G1 X137.548 Y86.703 E18.69395
G1 X136.735 Y86.871 E18.73537
G1 X135.762 Y87 E18.78434
G1 X135.083 Y87.049 E18.8183
G1 X134.238 Y87 E18.86053
G1 X133.265 Y86.871 E18.9095
G1 X132.596 Y86.742 E18.94349
G1 X131.808 Y86.48 E18.98492
G1 X130.907 Y86.107 E19.03357
G1 X130.295 Y85.81 E19.06751
G1 X129.599 Y85.352 E19.10908
G1 X128.821 Y84.756 E19.15797
G1 X128.306 Y84.311 E19.19193
G1 X127.744 Y83.68 E19.23408
G1 X127.147 Y82.901 E19.28305
G1 X126.766 Y82.337 E19.31701
G1 X126.391 Y81.589 E19.35875
G1 X126.019 Y80.689 E19.40734
G1 X125.796 Y80.045 E19.44134
G1 X125.629 Y79.235 E19.4826
G1 X125.5 Y78.262 E19.53157
G1 X125.451 Y77.583 E19.56553
G1 X125.5 Y76.738 E19.60776
G1 X125.629 Y75.765 E19.65673
G1 X125.758 Y75.096 E19.69072
G1 X126.019 Y74.311 E19.73199
G1 X126.391 Y73.411 E19.78057
G1 X126.687 Y72.799 E19.81449
G0 F3600 X127.048 Y72.974
G1 F1800 X127.465 Y72.342 E19.85227
G1 X128.062 Y71.563 E19.90123
G1 X128.493 Y71.067 E19.93401
G1 X129.064 Y70.561 E19.97208
G1 X129.842 Y69.965 E20.02097
G1 X130.387 Y69.598 E20.05375
G1 X131.06 Y69.263 E20.09126
G1 X131.961 Y68.89 E20.13991
G1 X132.583 Y68.676 E20.17273
G1 X133.317 Y68.526 E20.2101
G1 X134.29 Y68.397 E20.25907
G1 X134.946 Y68.35 E20.29188
G1 X135.71 Y68.397 E20.33007
G1 X136.683 Y68.526 E20.37904
G1 X137.328 Y68.652 E20.41183
G1 X138.039 Y68.89 E20.44923
G1 X138.94 Y69.263 E20.49788
G1 X139.53 Y69.55 E20.53062
G1 X140.158 Y69.965 E20.56817
G1 X140.936 Y70.561 E20.61707
G1 X141.432 Y70.992 E20.64985
G1 X141.938 Y71.563 E20.68791
G1 X142.535 Y72.342 E20.73688
G1 X142.902 Y72.887 E20.76966
G1 X143.24 Y73.564 E20.80741
G1 X143.612 Y74.464 E20.85599
G1 X143.825 Y75.086 E20.88879
G1 X143.974 Y75.817 E20.92601
G1 X144.103 Y76.79 E20.97498
G1 X144.15 Y77.446 E21.00779
G1 X144.103 Y78.21 E21.04598
G1 X143.974 Y79.183 E21.09495
G1 X143.848 Y79.828 E21.12774
G1 X143.612 Y80.536 E21.16497
G1 X143.24 Y81.436 E21.21356
G1 X142.952 Y82.026 E21.24631
G1 X142.535 Y82.658 E21.28409
G1 X141.938 Y83.437 E21.33305
G1 X141.507 Y83.933 E21.36583
G1 X140.936 Y84.439 E21.4039
G1 X140.158 Y85.035 E21.45279
G1 X139.613 Y85.402 E21.48557
G1 X138.94 Y85.737 E21.52308
G1 X138.039 Y86.11 E21.57173
G1 X137.417 Y86.324 E21.60455
G1 X136.683 Y86.474 E21.64192
