;FLAVOR:Marlin
;TIME:548
;Filament used: 0.542165m
;Layer height: 0.2
;MINX:118.7
;MINY:90.45
;MINZ:0.3
;MAXX:151.3
;MAXY:126.55
;MAXZ:11.9
;Generated with Cura_SteamEngine 4.8.0
M140 S60
M105
M190 S60
M104 S210
M105
M109 S210
M82 ;absolute extrusion mode
G28 ;Home
G1 Z15.0 F6000 ;Move the platform down 15mm
;Prime the extruder
G92 E0
G1 F200 E3
G92 E0
G92 E0
G92 E0
G1 F2400 E-6.5
;LAYER_COUNT:59
;LAYER:0
M107
G0 F3600 X121.097 Y93.796 Z0.3
;TYPE:SKIRT
G1 F2400 E0
G1 F1800 X121.58 Y93.172 E0.03937
G1 X122.123 Y92.599 E0.07875
G1 X122.722 Y92.084 E0.11816
G1 X123.37 Y91.633 E0.15755
G1 X124.061 Y91.249 E0.19699
G1 X124.786 Y90.937 E0.23637
G1 X125.539 Y90.7 E0.27575
G1 X126.313 Y90.541 E0.31517
G1 X127.098 Y90.46 E0.35455
G1 X127.5 Y90.45 E0.37461
G1 X136.5 Y90.45 E0.82362
G1 X137.289 Y90.49 E0.86303
G1 X138.069 Y90.609 E0.9024
G1 X138.834 Y90.807 E0.94182
G1 X139.574 Y91.081 E0.98119
G1 X140.283 Y91.429 E1.02059
G1 X140.954 Y91.847 E1.06003
G1 X141.578 Y92.33 E1.0994
G1 X142.151 Y92.873 E1.13879
G1 X142.666 Y93.472 E1.1782
G1 X143.117 Y94.12 E1.21758
G1 X143.501 Y94.811 E1.25702
G1 X143.813 Y95.536 E1.2964
G1 X144.045 Y96.272 E1.3349
G1 X144.151 Y96.373 E1.34221
G1 X144.666 Y96.972 E1.38162
G1 X145.117 Y97.62 E1.42101
G1 X145.501 Y98.311 E1.46045
G1 X145.813 Y99.036 E1.49982
G1 X145.907 Y99.334 E1.51541
G1 X146.574 Y99.581 E1.5509
G1 X147.283 Y99.929 E1.5903
G1 X147.954 Y100.347 E1.62974
G1 X148.578 Y100.83 E1.66911
G1 X149.151 Y101.373 E1.70849
G1 X149.666 Y101.972 E1.7479
G1 X150.117 Y102.62 E1.78729
G1 X150.501 Y103.311 E1.82673
G1 X150.813 Y104.036 E1.86611
G1 X151.05 Y104.789 E1.90549
G1 X151.209 Y105.563 E1.94492
G1 X151.29 Y106.348 E1.98429
G1 X151.3 Y106.75 E2.00435
G1 X151.3 Y108.75 E2.10413
G1 X151.26 Y109.539 E2.14354
G1 X151.141 Y110.319 E2.18291
G1 X150.943 Y111.084 E2.22233
G1 X150.669 Y111.824 E2.2617
G1 X150.321 Y112.533 E2.3011
G1 X149.903 Y113.204 E2.34054
G1 X149.42 Y113.828 E2.37991
G1 X148.877 Y114.401 E2.4193
G1 X148.278 Y114.916 E2.45871
G1 X147.63 Y115.367 E2.4981
G1 X146.939 Y115.751 E2.53753
G1 X146.214 Y116.063 E2.57691
G1 X145.521 Y116.281 E2.61316
G1 X145.443 Y116.584 E2.62877
G1 X145.169 Y117.324 E2.66813
G1 X144.821 Y118.033 E2.70754
G1 X144.403 Y118.704 E2.74698
G1 X143.92 Y119.328 E2.78635
G1 X143.377 Y119.901 E2.82573
G1 X142.778 Y120.416 E2.86514
G1 X142.13 Y120.867 E2.90453
G1 X141.439 Y121.251 E2.94397
G1 X140.714 Y121.563 E2.98335
G1 X139.961 Y121.8 E3.02273
G1 X139.187 Y121.959 E3.06215
G1 X138.402 Y122.04 E3.10152
G1 X138 Y122.05 E3.12159
G1 X135.952 Y122.05 E3.22376
G1 X135.765 Y122.444 E3.24552
G1 X135.356 Y123.12 E3.28494
G1 X134.881 Y123.751 E3.32434
G1 X134.345 Y124.33 E3.36371
G1 X133.753 Y124.853 E3.40311
G1 X133.111 Y125.313 E3.44252
G1 X132.426 Y125.705 E3.48189
G1 X131.704 Y126.027 E3.52133
G1 X130.954 Y126.273 E3.56071
G1 X130.183 Y126.443 E3.6001
G1 X129.398 Y126.534 E3.63953
G1 X128.895 Y126.55 E3.66464
G1 X126.5 Y126.55 E3.78412
G1 X125.711 Y126.51 E3.82354
G1 X124.931 Y126.391 E3.8629
G1 X124.166 Y126.193 E3.90232
G1 X123.426 Y125.919 E3.94169
G1 X122.717 Y125.571 E3.9811
G1 X122.046 Y125.153 E4.02054
G1 X121.422 Y124.67 E4.0599
G1 X120.849 Y124.127 E4.09929
G1 X120.334 Y123.528 E4.1387
G1 X119.883 Y122.88 E4.17809
G1 X119.499 Y122.189 E4.21753
G1 X119.187 Y121.464 E4.2569
G1 X118.95 Y120.711 E4.29629
G1 X118.791 Y119.937 E4.33571
G1 X118.71 Y119.152 E4.37508
G1 X118.7 Y118.75 E4.39514
G1 X118.7 Y116.363 E4.51423
G1 X118.74 Y115.574 E4.55365
G1 X118.859 Y114.794 E4.59301
G1 X119.057 Y114.029 E4.63243
G1 X119.331 Y113.289 E4.6718
G1 X119.679 Y112.58 E4.71121
G1 X120.097 Y111.909 E4.75065
G1 X120.58 Y111.285 E4.79001
G1 X120.738 Y111.119 E4.80145
G1 X120.499 Y110.689 E4.82599
G1 X120.187 Y109.964 E4.86537
G1 X119.95 Y109.211 E4.90475
G1 X119.791 Y108.437 E4.94417
G1 X119.71 Y107.652 E4.98355
G1 X119.7 Y107.25 E5.00361
G1 X119.7 Y98.25 E5.45262
G1 X119.74 Y97.461 E5.49203
G1 X119.859 Y96.681 E5.5314
G1 X120.057 Y95.916 E5.57082
G1 X120.331 Y95.176 E5.61019
G1 X120.679 Y94.467 E5.64959
G1 X121.097 Y93.796 E5.68903
G0 F3600 X121.494 Y93.927
G1 F1800 X121.975 Y93.327 E5.7274
G1 X122.516 Y92.78 E5.76578
G1 X123.111 Y92.292 E5.80417
G1 X123.753 Y91.869 E5.84253
G1 X124.436 Y91.514 E5.88093
G1 X125.151 Y91.233 E5.91926
G1 X125.893 Y91.027 E5.95768
G1 X126.651 Y90.899 E5.99603
G1 X127.5 Y90.85 E6.03846
G1 X136.5 Y90.85 E6.48747
G1 X137.268 Y90.89 E6.52584
G1 X138.028 Y91.009 E6.56422
G1 X138.771 Y91.207 E6.60258
G1 X139.49 Y91.481 E6.64097
G1 X140.176 Y91.828 E6.67932
G1 X140.823 Y92.244 E6.7177
G1 X141.423 Y92.725 E6.75606
G1 X141.97 Y93.266 E6.79445
G1 X142.458 Y93.861 E6.83284
G1 X142.881 Y94.503 E6.87119
G1 X143.236 Y95.186 E6.9096
G1 X143.517 Y95.901 E6.94792
G1 X143.677 Y96.476 E6.9777
G1 X143.97 Y96.766 E6.99827
G1 X144.458 Y97.361 E7.03666
G1 X144.881 Y98.003 E7.07502
G1 X145.236 Y98.686 E7.11342
G1 X145.517 Y99.401 E7.15175
G1 X145.588 Y99.658 E7.16505
G1 X145.771 Y99.707 E7.1745
G1 X146.49 Y99.981 E7.21289
G1 X147.176 Y100.328 E7.25124
G1 X147.823 Y100.744 E7.28962
G1 X148.423 Y101.225 E7.32798
G1 X148.97 Y101.766 E7.36637
G1 X149.458 Y102.361 E7.40476
G1 X149.881 Y103.003 E7.44311
G1 X150.236 Y103.686 E7.48152
G1 X150.517 Y104.401 E7.51985
G1 X150.723 Y105.143 E7.55826
G1 X150.851 Y105.901 E7.59662
G1 X150.9 Y106.75 E7.63904
G1 X150.9 Y108.75 E7.73882
G1 X150.86 Y109.518 E7.77719
G1 X150.741 Y110.278 E7.81557
G1 X150.543 Y111.021 E7.85393
G1 X150.269 Y111.74 E7.89232
G1 X149.922 Y112.426 E7.93067
G1 X149.506 Y113.073 E7.96905
G1 X149.025 Y113.673 E8.00741
G1 X148.484 Y114.22 E8.0458
G1 X147.889 Y114.708 E8.08419
G1 X147.247 Y115.131 E8.12255
G1 X146.564 Y115.486 E8.16095
G1 X145.849 Y115.767 E8.19928
G1 X145.196 Y115.948 E8.23308
G1 X145.043 Y116.521 E8.26267
G1 X144.769 Y117.24 E8.30106
G1 X144.422 Y117.926 E8.33941
G1 X144.006 Y118.573 E8.37779
G1 X143.525 Y119.173 E8.41615
G1 X142.984 Y119.72 E8.45454
G1 X142.389 Y120.208 E8.49293
G1 X141.747 Y120.631 E8.53129
G1 X141.064 Y120.986 E8.56969
G1 X140.349 Y121.267 E8.60802
G1 X139.607 Y121.473 E8.64643
G1 X138.849 Y121.601 E8.68479
G1 X138 Y121.65 E8.72721
G1 X135.698 Y121.65 E8.84206
G1 X135.655 Y121.761 E8.848
G1 X135.306 Y122.447 E8.8864
G1 X134.887 Y123.092 E8.92477
G1 X134.404 Y123.691 E8.96316
G1 X133.862 Y124.236 E9.00151
G1 X133.265 Y124.722 E9.03991
G1 X132.622 Y125.143 E9.07826
G1 X131.938 Y125.495 E9.11664
G1 X131.221 Y125.775 E9.15504
G1 X130.48 Y125.978 E9.19337
G1 X129.721 Y126.104 E9.23175
G1 X128.895 Y126.15 E9.27303
G1 X126.5 Y126.15 E9.39251
G1 X125.732 Y126.11 E9.43088
G1 X124.972 Y125.991 E9.46926
G1 X124.229 Y125.793 E9.50762
G1 X123.51 Y125.519 E9.54601
G1 X122.824 Y125.172 E9.58436
G1 X122.177 Y124.756 E9.62274
G1 X121.577 Y124.275 E9.6611
G1 X121.03 Y123.734 E9.69949
G1 X120.542 Y123.139 E9.73788
G1 X120.119 Y122.497 E9.77624
G1 X119.764 Y121.814 E9.81464
G1 X119.483 Y121.099 E9.85297
G1 X119.277 Y120.357 E9.89139
G1 X119.149 Y119.599 E9.92974
G1 X119.1 Y118.75 E9.97216
G1 X119.1 Y116.363 E10.09125
G1 X119.14 Y115.595 E10.12962
G1 X119.259 Y114.835 E10.168
G1 X119.457 Y114.092 E10.20636
G1 X119.731 Y113.373 E10.24475
G1 X120.078 Y112.687 E10.2831
G1 X120.494 Y112.04 E10.32148
G1 X120.975 Y111.44 E10.35984
G1 X121.237 Y111.175 E10.37844
G1 X121.119 Y110.997 E10.38909
G1 X120.764 Y110.314 E10.42749
G1 X120.483 Y109.599 E10.46582
G1 X120.277 Y108.857 E10.50424
G1 X120.149 Y108.099 E10.54259
G1 X120.1 Y107.25 E10.58502
G1 X120.1 Y98.25 E11.03403
G1 X120.14 Y97.482 E11.0724
G1 X120.259 Y96.722 E11.11078
G1 X120.457 Y95.979 E11.14914
G1 X120.731 Y95.26 E11.18753
G1 X121.078 Y94.574 E11.22588
G1 X121.494 Y93.927 E11.26426
G0 F3600 X121.892 Y94.061
G1 F1800 X122.371 Y93.487 E11.30155
G1 X122.908 Y92.966 E11.33888
G1 X123.498 Y92.507 E11.37618
G1 X124.134 Y92.112 E11.41353
G1 X124.808 Y91.788 E11.45084
G1 X125.513 Y91.538 E11.48816
G1 X126.241 Y91.364 E11.5255
G1 X126.983 Y91.269 E11.56282
G1 X127.5 Y91.25 E11.58863
G1 X136.5 Y91.25 E12.03764
G1 X137.247 Y91.29 E12.07496
G1 X137.985 Y91.409 E12.11226
G1 X138.707 Y91.607 E12.14961
G1 X139.403 Y91.88 E12.18691
G1 X140.066 Y92.227 E12.22424
G1 X140.689 Y92.642 E12.26159
G1 X141.263 Y93.121 E12.29889
G1 X141.784 Y93.658 E12.33621
G1 X142.243 Y94.248 E12.37351
G1 X142.638 Y94.884 E12.41086
G1 X142.962 Y95.558 E12.44817
G1 X143.212 Y96.263 E12.48549
G1 X143.309 Y96.668 E12.50626
G1 X143.784 Y97.158 E12.54031
G1 X144.243 Y97.748 E12.5776
G1 X144.638 Y98.384 E12.61496
G1 X144.962 Y99.058 E12.65227
G1 X145.212 Y99.763 E12.68958
G1 X145.265 Y99.986 E12.70102
G1 X145.707 Y100.107 E12.72388
G1 X146.403 Y100.38 E12.76118
G1 X147.066 Y100.727 E12.79852
G1 X147.689 Y101.142 E12.83586
G1 X148.263 Y101.621 E12.87316
G1 X148.784 Y102.158 E12.91049
G1 X149.243 Y102.748 E12.94778
G1 X149.638 Y103.384 E12.98513
G1 X149.962 Y104.058 E13.02244
G1 X150.212 Y104.763 E13.05976
G1 X150.386 Y105.491 E13.0971
G1 X150.481 Y106.233 E13.13443
G1 X150.5 Y106.75 E13.16024
G1 X150.5 Y108.75 E13.26002
G1 X150.46 Y109.497 E13.29734
G1 X150.341 Y110.235 E13.33463
G1 X150.143 Y110.957 E13.37198
G1 X149.87 Y111.653 E13.40928
G1 X149.523 Y112.316 E13.44662
G1 X149.108 Y112.939 E13.48396
G1 X148.629 Y113.513 E13.52126
G1 X148.092 Y114.034 E13.55859
G1 X147.502 Y114.493 E13.59588
G1 X146.866 Y114.888 E13.63323
G1 X146.192 Y115.212 E13.67054
G1 X145.487 Y115.462 E13.70786
G1 X144.861 Y115.612 E13.73998
G1 X144.841 Y115.735 E13.74619
G1 X144.643 Y116.457 E13.78355
G1 X144.37 Y117.153 E13.82084
G1 X144.023 Y117.816 E13.85818
G1 X143.608 Y118.439 E13.89552
G1 X143.129 Y119.013 E13.93282
G1 X142.592 Y119.534 E13.97015
G1 X142.002 Y119.993 E14.00744
G1 X141.366 Y120.388 E14.0448
G1 X140.692 Y120.712 E14.08211
G1 X139.987 Y120.962 E14.11942
G1 X139.259 Y121.136 E14.15677
G1 X138.517 Y121.231 E14.19409
G1 X138 Y121.25 E14.2199
G1 X135.5 Y121.25 E14.34462
G1 X135.428 Y121.246 E14.34822
G1 X135.203 Y121.785 E14.37736
G1 X134.843 Y122.44 E14.41465
G1 X134.415 Y123.054 E14.45199
G1 X133.925 Y123.619 E14.4893
G1 X133.376 Y124.128 E14.52665
G1 X132.777 Y124.575 E14.56394
G1 X132.133 Y124.956 E14.60127
G1 X131.452 Y125.266 E14.6386
G1 X130.742 Y125.502 E14.67593
G1 X130.011 Y125.66 E14.71324
G1 X128.895 Y125.75 E14.7691
G1 X126.5 Y125.75 E14.88859
G1 X125.753 Y125.71 E14.92591
G1 X125.015 Y125.591 E14.9632
G1 X124.293 Y125.393 E15.00055
G1 X123.597 Y125.12 E15.03785
G1 X122.934 Y124.773 E15.07519
G1 X122.311 Y124.358 E15.11253
G1 X121.737 Y123.879 E15.14983
G1 X121.216 Y123.342 E15.18716
G1 X120.757 Y122.752 E15.22445
G1 X120.362 Y122.116 E15.2618
G1 X120.038 Y121.442 E15.29911
G1 X119.788 Y120.737 E15.33643
G1 X119.614 Y120.009 E15.37378
G1 X119.519 Y119.267 E15.4111
G1 X119.5 Y118.75 E15.43691
G1 X119.5 Y116.363 E15.55599
G1 X119.54 Y115.616 E15.59332
G1 X119.659 Y114.878 E15.63061
G1 X119.857 Y114.156 E15.66796
G1 X120.13 Y113.46 E15.70526
G1 X120.477 Y112.797 E15.74259
G1 X120.892 Y112.174 E15.77994
G1 X121.371 Y111.6 E15.81724
G1 X121.747 Y111.235 E15.84338
G1 X121.362 Y110.616 E15.87975
G1 X121.038 Y109.942 E15.91706
G1 X120.788 Y109.237 E15.95438
G1 X120.614 Y108.509 E15.99172
G1 X120.519 Y107.767 E16.02904
G1 X120.5 Y107.25 E16.05485
G1 X120.5 Y98.25 E16.50386
G1 X120.54 Y97.503 E16.54119
G1 X120.659 Y96.765 E16.57848
G1 X120.857 Y96.043 E16.61583
G1 X121.13 Y95.347 E16.65313
G1 X121.477 Y94.684 E16.69046
G1 X121.892 Y94.061 E16.72781
G0 F3600 X122.289 Y94.2
G1 F1800 X122.765 Y93.652 E16.76402
G1 X123.299 Y93.159 E16.80028
G1 X123.884 Y92.729 E16.8365
G1 X124.513 Y92.365 E16.87276
G1 X125.178 Y92.072 E16.90902
G1 X125.871 Y91.854 E16.94526
G1 X126.583 Y91.714 E16.98146
G1 X127.5 Y91.65 E17.02732
G1 X136.5 Y91.65 E17.47633
G1 X137.225 Y91.69 E17.51256
G1 X137.942 Y91.809 E17.54882
G1 X138.641 Y92.007 E17.58507
G1 X139.314 Y92.28 E17.6213
G1 X139.953 Y92.625 E17.65753
G1 X140.55 Y93.039 E17.69377
G1 X141.098 Y93.515 E17.72999
G1 X141.591 Y94.049 E17.76625
G1 X142.021 Y94.634 E17.80247
G1 X142.385 Y95.263 E17.83873
G1 X142.678 Y95.928 E17.87498
G1 X142.896 Y96.621 E17.91122
G1 X142.948 Y96.885 E17.92465
G1 X143.098 Y97.015 E17.93455
G1 X143.591 Y97.549 E17.97081
G1 X144.021 Y98.134 E18.00703
G1 X144.385 Y98.763 E18.04329
G1 X144.678 Y99.428 E18.07954
G1 X144.896 Y100.121 E18.11579
G1 X144.942 Y100.309 E18.12544
G1 X145.641 Y100.507 E18.16169
G1 X146.314 Y100.78 E18.19792
G1 X146.953 Y101.125 E18.23415
G1 X147.55 Y101.539 E18.2704
G1 X148.098 Y102.015 E18.30661
G1 X148.591 Y102.549 E18.34287
G1 X149.021 Y103.134 E18.37909
G1 X149.385 Y103.763 E18.41535
G1 X149.678 Y104.428 E18.4516
G1 X149.896 Y105.121 E18.48785
G1 X150.036 Y105.833 E18.52405
G1 X150.1 Y106.75 E18.56991
G1 X150.1 Y108.75 E18.66969
G1 X150.06 Y109.475 E18.70592
G1 X149.941 Y110.192 E18.74218
G1 X149.743 Y110.891 E18.77842
G1 X149.47 Y111.564 E18.81466
G1 X149.125 Y112.203 E18.85089
G1 X148.711 Y112.8 E18.88713
G1 X148.235 Y113.348 E18.92334
G1 X147.701 Y113.841 E18.9596
G1 X147.116 Y114.271 E18.99583
G1 X146.487 Y114.635 E19.03208
G1 X145.822 Y114.928 E19.06834
G1 X145.129 Y115.146 E19.10458
G1 X144.511 Y115.267 E19.136
G1 X144.441 Y115.692 E19.15749
G1 X144.243 Y116.391 E19.19373
G1 X143.97 Y117.064 E19.22997
G1 X143.625 Y117.703 E19.2662
G1 X143.211 Y118.3 E19.30244
G1 X142.735 Y118.848 E19.33865
G1 X142.201 Y119.341 E19.37491
G1 X141.616 Y119.771 E19.41114
G1 X140.987 Y120.135 E19.44739
G1 X140.322 Y120.428 E19.48365
G1 X139.629 Y120.646 E19.51989
G1 X138.917 Y120.786 E19.55609
G1 X138 Y120.85 E19.60195
G1 X135.5 Y120.85 E19.72668
G1 X135.148 Y120.831 E19.74427
G1 X135.048 Y121.138 E19.76037
G1 X134.748 Y121.8 E19.79663
G1 X134.378 Y122.424 E19.83283
G1 X133.941 Y123.005 E19.8691
G1 X133.443 Y123.533 E19.90531
G1 X132.889 Y124.004 E19.94159
G1 X132.288 Y124.411 E19.9778
G1 X131.645 Y124.75 E20.01406
G1 X130.969 Y125.016 E20.05031
G1 X130.268 Y125.206 E20.08654
G1 X129.55 Y125.317 E20.12279
G1 X128.895 Y125.35 E20.15551
G1 X126.5 Y125.35 E20.27499
G1 X125.775 Y125.31 E20.31122
G1 X125.058 Y125.191 E20.34748
G1 X124.359 Y124.993 E20.38373
G1 X123.686 Y124.72 E20.41996
G1 X123.047 Y124.375 E20.45619
G1 X122.45 Y123.961 E20.49243
G1 X121.902 Y123.485 E20.52865
G1 X121.409 Y122.951 E20.56491
G1 X120.979 Y122.366 E20.60113
G1 X120.615 Y121.737 E20.63739
G1 X120.322 Y121.072 E20.67364
G1 X120.104 Y120.379 E20.70988
G1 X119.964 Y119.667 E20.74609
G1 X119.9 Y118.75 E20.79195
G1 X119.9 Y116.363 E20.91103
G1 X119.94 Y115.638 E20.94726
G1 X120.059 Y114.921 E20.98352
G1 X120.257 Y114.222 E21.01977
G1 X120.53 Y113.549 E21.056
G1 X120.875 Y112.91 E21.09223
G1 X121.289 Y112.313 E21.12847
G1 X121.765 Y111.765 E21.16469
G1 X122.286 Y111.284 E21.20006
G1 X121.979 Y110.866 E21.22594
G1 X121.615 Y110.237 E21.2622
G1 X121.322 Y109.572 E21.29845
G1 X121.104 Y108.879 E21.33469
G1 X120.964 Y108.167 E21.3709
G1 X120.9 Y107.25 E21.41676
G1 X120.9 Y98.25 E21.86577
G1 X120.94 Y97.525 E21.90199
G1 X121.059 Y96.808 E21.93825
G1 X121.257 Y96.109 E21.9745
G1 X121.53 Y95.436 E22.01073
G1 X121.875 Y94.797 E22.04696
G1 X122.289 Y94.2 E22.08321
G0 F3600 X122.274 Y94.915
G1 F1800 X122.685 Y94.344 E22.11831
G1 X123.159 Y93.823 E22.15345
G1 X123.689 Y93.359 E22.18859
G1 X124.268 Y92.959 E22.2237
G1 X124.889 Y92.627 E22.25883
G1 X125.543 Y92.367 E22.29394
G1 X126.223 Y92.183 E22.32909
G1 X126.919 Y92.077 E22.36421
G1 X127.5 Y92.05 E22.39323
G1 X136.5 Y92.05 E22.84224
G1 X137.203 Y92.09 E22.87737
G1 X137.897 Y92.209 E22.9125
G1 X138.572 Y92.407 E22.9476
G1 X139.221 Y92.679 E22.9827
G1 X139.835 Y93.024 E23.01784
G1 X140.406 Y93.435 E23.05294
G1 X140.927 Y93.909 E23.08808
G1 X141.391 Y94.439 E23.12322
G1 X141.791 Y95.018 E23.15833
G1 X142.123 Y95.639 E23.19347
G1 X142.383 Y96.293 E23.22858
G1 X142.567 Y96.973 E23.26372
G1 X142.586 Y97.099 E23.27008
G1 X142.927 Y97.409 E23.29307
G1 X143.391 Y97.939 E23.32821
G1 X143.791 Y98.518 E23.36332
G1 X144.123 Y99.139 E23.39846
G1 X144.383 Y99.793 E23.43357
G1 X144.567 Y100.473 E23.46871
G1 X144.595 Y100.657 E23.478
G1 X144.897 Y100.709 E23.49329
G1 X145.572 Y100.907 E23.52838
G1 X146.221 Y101.179 E23.56349
G1 X146.835 Y101.524 E23.59863
G1 X147.406 Y101.935 E23.63373
G1 X147.927 Y102.409 E23.66887
