;FLAVOR:Marlin
;TIME:698
;Filament used: 0.641417m
;Layer height: 0.2
;MINX:118.7
;MINY:92.95
;MINZ:0.3
;MAXX:151.3
;MAXY:129.05
;MAXZ:16.9
;Generated with Cura_SteamEngine 4.8.0
M140 S60
M105
M190 S60
M104 S210
M105
M109 S210
M82 ;absolute extrusion mode
G28 ;Home
G1 Z15.0 F6000 ;Move the platform down 15mm
;Prime the extruder
G92 E0
G1 F200 E3
G92 E0
G92 E0
G92 E0
G1 F2400 E-6.5
;LAYER_COUNT:84
;LAYER:0
M107
G0 F3600 X121.58 Y95.672 Z0.3
;TYPE:SKIRT
G1 F2400 E0
G1 F1800 X122.123 Y95.099 E0.03938
G1 X122.722 Y94.584 E0.0788
G1 X123.37 Y94.133 E0.11818
G1 X124.061 Y93.749 E0.15762
G1 X124.786 Y93.437 E0.197
G1 X125.539 Y93.2 E0.23638
G1 X126.313 Y93.041 E0.27581
G1 X127.098 Y92.96 E0.31518
G1 X127.5 Y92.95 E0.33524
G1 X136.5 Y92.95 E0.78425
G1 X137.289 Y92.99 E0.82367
G1 X138.069 Y93.109 E0.86303
G1 X138.834 Y93.307 E0.90245
G1 X139.574 Y93.581 E0.94182
G1 X140.283 Y93.929 E0.98123
G1 X140.954 Y94.347 E1.02067
G1 X141.578 Y94.83 E1.06003
G1 X142.151 Y95.373 E1.09942
G1 X142.666 Y95.972 E1.13883
G1 X143.117 Y96.62 E1.17822
G1 X143.501 Y97.311 E1.21766
G1 X143.813 Y98.036 E1.25703
G1 X144.045 Y98.772 E1.29553
G1 X144.151 Y98.873 E1.30284
G1 X144.666 Y99.472 E1.34225
G1 X145.117 Y100.12 E1.38164
G1 X145.501 Y100.811 E1.42108
G1 X145.813 Y101.536 E1.46046
G1 X145.907 Y101.834 E1.47604
G1 X146.574 Y102.081 E1.51153
G1 X147.283 Y102.429 E1.55093
G1 X147.954 Y102.847 E1.59037
G1 X148.578 Y103.33 E1.62974
G1 X149.151 Y103.873 E1.66913
G1 X149.666 Y104.472 E1.70854
G1 X150.117 Y105.12 E1.74792
G1 X150.501 Y105.811 E1.78736
G1 X150.813 Y106.536 E1.82674
G1 X151.05 Y107.289 E1.86613
G1 X151.209 Y108.063 E1.90555
G1 X151.29 Y108.848 E1.94492
G1 X151.3 Y109.25 E1.96498
G1 X151.3 Y111.25 E2.06476
G1 X151.26 Y112.039 E2.10418
G1 X151.141 Y112.819 E2.14354
G1 X150.943 Y113.584 E2.18296
G1 X150.669 Y114.324 E2.22233
G1 X150.321 Y115.033 E2.26174
G1 X149.903 Y115.704 E2.30118
G1 X149.42 Y116.328 E2.34054
G1 X148.877 Y116.901 E2.37993
G1 X148.278 Y117.416 E2.41934
G1 X147.63 Y117.867 E2.45873
G1 X146.939 Y118.251 E2.49817
G1 X146.214 Y118.563 E2.53754
G1 X145.521 Y118.781 E2.57379
G1 X145.443 Y119.084 E2.5894
G1 X145.169 Y119.824 E2.62877
G1 X144.821 Y120.533 E2.66817
G1 X144.403 Y121.204 E2.70761
G1 X143.92 Y121.828 E2.74698
G1 X143.377 Y122.401 E2.78636
G1 X142.778 Y122.916 E2.82577
G1 X142.13 Y123.367 E2.86516
G1 X141.439 Y123.751 E2.9046
G1 X140.714 Y124.063 E2.94398
G1 X139.961 Y124.3 E2.98336
G1 X139.187 Y124.459 E3.02278
G1 X138.402 Y124.54 E3.06216
G1 X138 Y124.55 E3.08222
G1 X135.952 Y124.55 E3.18439
G1 X135.765 Y124.944 E3.20615
G1 X135.356 Y125.62 E3.24557
G1 X134.881 Y126.251 E3.28497
G1 X134.345 Y126.83 E3.32434
G1 X133.753 Y127.353 E3.36375
G1 X133.111 Y127.813 E3.40315
G1 X132.426 Y128.205 E3.44252
G1 X131.704 Y128.527 E3.48197
G1 X130.954 Y128.773 E3.52134
G1 X130.183 Y128.943 E3.56073
G1 X129.398 Y129.034 E3.60016
G1 X128.895 Y129.05 E3.62527
G1 X126.5 Y129.05 E3.74475
G1 X125.711 Y129.01 E3.78417
G1 X124.931 Y128.891 E3.82353
G1 X124.166 Y128.693 E3.86296
G1 X123.426 Y128.419 E3.90232
G1 X122.717 Y128.071 E3.94173
G1 X122.046 Y127.653 E3.98117
G1 X121.422 Y127.17 E4.02054
G1 X120.849 Y126.627 E4.05992
G1 X120.334 Y126.028 E4.09933
G1 X119.883 Y125.38 E4.13872
G1 X119.499 Y124.689 E4.17816
G1 X119.187 Y123.964 E4.21754
G1 X118.95 Y123.211 E4.25692
G1 X118.791 Y122.437 E4.29634
G1 X118.71 Y121.652 E4.33571
G1 X118.7 Y121.25 E4.35578
G1 X118.7 Y118.863 E4.47486
G1 X118.74 Y118.074 E4.51428
G1 X118.859 Y117.294 E4.55364
G1 X119.057 Y116.529 E4.59307
G1 X119.331 Y115.789 E4.63243
G1 X119.679 Y115.08 E4.67184
G1 X120.097 Y114.409 E4.71128
G1 X120.58 Y113.785 E4.75065
G1 X120.738 Y113.619 E4.76208
G1 X120.499 Y113.189 E4.78662
G1 X120.187 Y112.464 E4.826
G1 X119.95 Y111.711 E4.86539
G1 X119.791 Y110.937 E4.90481
G1 X119.71 Y110.152 E4.94418
G1 X119.7 Y109.75 E4.96424
G1 X119.7 Y100.75 E5.41325
G1 X119.74 Y99.961 E5.45267
G1 X119.859 Y99.181 E5.49203
G1 X120.057 Y98.416 E5.53145
G1 X120.331 Y97.676 E5.57082
G1 X120.679 Y96.967 E5.61023
G1 X121.097 Y96.296 E5.64967
G1 X121.58 Y95.672 E5.68903
G0 F3600 X121.975 Y95.827
G1 F1800 X122.516 Y95.28 E5.72742
G1 X123.111 Y94.792 E5.76581
G1 X123.753 Y94.369 E5.80417
G1 X124.436 Y94.014 E5.84257
G1 X125.151 Y93.733 E5.8809
G1 X125.893 Y93.527 E5.91932
G1 X126.651 Y93.399 E5.95767
G1 X127.5 Y93.35 E6.00009
G1 X136.5 Y93.35 E6.44911
G1 X137.268 Y93.39 E6.48747
G1 X138.028 Y93.509 E6.52585
G1 X138.771 Y93.707 E6.56421
G1 X139.49 Y93.981 E6.6026
G1 X140.176 Y94.328 E6.64096
G1 X140.823 Y94.744 E6.67933
G1 X141.423 Y95.225 E6.7177
G1 X141.97 Y95.766 E6.75608
G1 X142.458 Y96.361 E6.79447
G1 X142.881 Y97.003 E6.83283
G1 X143.236 Y97.686 E6.87123
G1 X143.517 Y98.401 E6.90956
G1 X143.677 Y98.976 E6.93934
G1 X143.97 Y99.266 E6.9599
G1 X144.458 Y99.861 E6.99829
G1 X144.881 Y100.503 E7.03665
G1 X145.236 Y101.186 E7.07505
G1 X145.517 Y101.901 E7.11338
G1 X145.588 Y102.158 E7.12668
G1 X145.771 Y102.207 E7.13614
G1 X146.49 Y102.481 E7.17452
G1 X147.176 Y102.828 E7.21288
G1 X147.823 Y103.244 E7.25125
G1 X148.423 Y103.725 E7.28962
G1 X148.97 Y104.266 E7.328
G1 X149.458 Y104.861 E7.36639
G1 X149.881 Y105.503 E7.40475
G1 X150.236 Y106.186 E7.44315
G1 X150.517 Y106.901 E7.48148
G1 X150.723 Y107.643 E7.5199
G1 X150.851 Y108.401 E7.55825
G1 X150.9 Y109.25 E7.60068
G1 X150.9 Y111.25 E7.70046
G1 X150.86 Y112.018 E7.73883
G1 X150.741 Y112.778 E7.7772
G1 X150.543 Y113.521 E7.81557
G1 X150.269 Y114.24 E7.85395
G1 X149.922 Y114.926 E7.89231
G1 X149.506 Y115.573 E7.93068
G1 X149.025 Y116.173 E7.96905
G1 X148.484 Y116.72 E8.00743
G1 X147.889 Y117.208 E8.04582
G1 X147.247 Y117.631 E8.08418
G1 X146.564 Y117.986 E8.12258
G1 X145.849 Y118.267 E8.16091
G1 X145.196 Y118.448 E8.19472
G1 X145.043 Y119.021 E8.22431
G1 X144.769 Y119.74 E8.26269
G1 X144.422 Y120.426 E8.30105
G1 X144.006 Y121.073 E8.33942
G1 X143.525 Y121.673 E8.37779
G1 X142.984 Y122.22 E8.41617
G1 X142.389 Y122.708 E8.45456
G1 X141.747 Y123.131 E8.49292
G1 X141.064 Y123.486 E8.53132
G1 X140.349 Y123.767 E8.56965
G1 X139.607 Y123.973 E8.60807
G1 X138.849 Y124.101 E8.64642
G1 X138 Y124.15 E8.68885
G1 X135.698 Y124.15 E8.8037
G1 X135.655 Y124.261 E8.80963
G1 X135.306 Y124.947 E8.84803
G1 X134.887 Y125.592 E8.88641
G1 X134.404 Y126.191 E8.9248
G1 X133.862 Y126.736 E8.96314
G1 X133.265 Y127.222 E9.00155
G1 X132.622 Y127.643 E9.03989
G1 X131.938 Y127.995 E9.07827
G1 X131.221 Y128.275 E9.11667
G1 X130.48 Y128.478 E9.155
G1 X129.721 Y128.604 E9.19339
G1 X128.895 Y128.65 E9.23466
G1 X126.5 Y128.65 E9.35415
G1 X125.732 Y128.61 E9.39252
G1 X124.972 Y128.491 E9.43089
G1 X124.229 Y128.293 E9.46926
G1 X123.51 Y128.019 E9.50764
G1 X122.824 Y127.672 E9.546
G1 X122.177 Y127.256 E9.58437
G1 X121.577 Y126.775 E9.62274
G1 X121.03 Y126.234 E9.66112
G1 X120.542 Y125.639 E9.69951
G1 X120.119 Y124.997 E9.73787
G1 X119.764 Y124.314 E9.77627
G1 X119.483 Y123.599 E9.8146
G1 X119.277 Y122.857 E9.85302
G1 X119.149 Y122.099 E9.89137
G1 X119.1 Y121.25 E9.9338
G1 X119.1 Y118.863 E10.05289
G1 X119.14 Y118.095 E10.09125
G1 X119.259 Y117.335 E10.12963
G1 X119.457 Y116.592 E10.168
G1 X119.731 Y115.873 E10.20638
G1 X120.078 Y115.187 E10.24474
G1 X120.494 Y114.54 E10.28311
G1 X120.975 Y113.94 E10.32148
G1 X121.237 Y113.675 E10.34007
G1 X121.119 Y113.497 E10.35072
G1 X120.764 Y112.814 E10.38913
G1 X120.483 Y112.099 E10.42745
G1 X120.277 Y111.357 E10.46587
G1 X120.149 Y110.599 E10.50423
G1 X120.1 Y109.75 E10.54665
G1 X120.1 Y100.75 E10.99566
G1 X120.14 Y99.982 E11.03403
G1 X120.259 Y99.222 E11.07241
G1 X120.457 Y98.479 E11.11077
G1 X120.731 Y97.76 E11.14916
G1 X121.078 Y97.074 E11.18751
G1 X121.494 Y96.427 E11.22589
G1 X121.975 Y95.827 E11.26426
G0 F3600 X122.371 Y95.987
G1 F1800 X122.908 Y95.466 E11.30158
G1 X123.498 Y95.007 E11.33888
G1 X124.134 Y94.612 E11.37623
G1 X124.808 Y94.288 E11.41354
G1 X125.513 Y94.038 E11.45086
G1 X126.241 Y93.864 E11.4882
G1 X126.983 Y93.769 E11.52552
G1 X127.5 Y93.75 E11.55133
G1 X136.5 Y93.75 E12.00034
G1 X137.247 Y93.79 E12.03766
G1 X137.985 Y93.909 E12.07496
G1 X138.707 Y94.107 E12.11231
G1 X139.403 Y94.38 E12.14961
G1 X140.066 Y94.727 E12.18694
G1 X140.689 Y95.142 E12.22429
G1 X141.263 Y95.621 E12.26159
G1 X141.784 Y96.158 E12.29892
G1 X142.243 Y96.748 E12.33621
G1 X142.638 Y97.384 E12.37356
G1 X142.962 Y98.058 E12.41087
G1 X143.212 Y98.763 E12.44819
G1 X143.309 Y99.168 E12.46897
G1 X143.784 Y99.658 E12.50301
G1 X144.243 Y100.248 E12.54031
G1 X144.638 Y100.884 E12.57766
G1 X144.962 Y101.558 E12.61497
G1 X145.212 Y102.263 E12.65229
G1 X145.265 Y102.486 E12.66372
G1 X145.707 Y102.607 E12.68658
G1 X146.403 Y102.88 E12.72388
G1 X147.066 Y103.227 E12.76122
G1 X147.689 Y103.642 E12.79856
G1 X148.263 Y104.121 E12.83586
G1 X148.784 Y104.658 E12.87319
G1 X149.243 Y105.248 E12.91048
G1 X149.638 Y105.884 E12.94784
G1 X149.962 Y106.558 E12.98515
G1 X150.212 Y107.263 E13.02246
G1 X150.386 Y107.991 E13.05981
G1 X150.481 Y108.733 E13.09713
G1 X150.5 Y109.25 E13.12294
G1 X150.5 Y111.25 E13.22272
G1 X150.46 Y111.997 E13.26004
G1 X150.341 Y112.735 E13.29733
G1 X150.143 Y113.457 E13.33469
G1 X149.87 Y114.153 E13.37198
G1 X149.523 Y114.816 E13.40932
G1 X149.108 Y115.439 E13.44666
G1 X148.629 Y116.013 E13.48396
G1 X148.092 Y116.534 E13.52129
G1 X147.502 Y116.993 E13.55858
G1 X146.866 Y117.388 E13.59594
G1 X146.192 Y117.712 E13.63325
G1 X145.487 Y117.962 E13.67056
G1 X144.861 Y118.112 E13.70268
G1 X144.841 Y118.235 E13.7089
G1 X144.643 Y118.957 E13.74625
G1 X144.37 Y119.653 E13.78355
G1 X144.023 Y120.316 E13.82088
G1 X143.608 Y120.939 E13.85823
G1 X143.129 Y121.513 E13.89552
G1 X142.592 Y122.034 E13.93285
G1 X142.002 Y122.493 E13.97015
G1 X141.366 Y122.888 E14.0075
G1 X140.692 Y123.212 E14.04481
G1 X139.987 Y123.462 E14.08213
G1 X139.259 Y123.636 E14.11947
G1 X138.517 Y123.731 E14.15679
G1 X138 Y123.75 E14.1826
G1 X135.5 Y123.75 E14.30733
G1 X135.428 Y123.746 E14.31092
G1 X135.203 Y124.285 E14.34006
G1 X134.843 Y124.94 E14.37735
G1 X134.415 Y125.554 E14.41469
G1 X133.925 Y126.119 E14.452
G1 X133.376 Y126.628 E14.48935
G1 X132.777 Y127.075 E14.52664
G1 X132.133 Y127.456 E14.56397
G1 X131.452 Y127.766 E14.6013
G1 X130.742 Y128.002 E14.63863
G1 X130.011 Y128.16 E14.67594
G1 X128.895 Y128.25 E14.7318
G1 X126.5 Y128.25 E14.85129
G1 X125.753 Y128.21 E14.88861
G1 X125.015 Y128.091 E14.9259
G1 X124.293 Y127.893 E14.96326
G1 X123.597 Y127.62 E15.00055
G1 X122.934 Y127.273 E15.03789
G1 X122.311 Y126.858 E15.07523
G1 X121.737 Y126.379 E15.11253
G1 X121.216 Y125.842 E15.14986
G1 X120.757 Y125.252 E15.18715
G1 X120.362 Y124.616 E15.22451
G1 X120.038 Y123.942 E15.26182
G1 X119.788 Y123.237 E15.29913
G1 X119.614 Y122.509 E15.33648
G1 X119.519 Y121.767 E15.3738
G1 X119.5 Y121.25 E15.39961
G1 X119.5 Y118.863 E15.5187
G1 X119.54 Y118.116 E15.55602
G1 X119.659 Y117.378 E15.59331
G1 X119.857 Y116.656 E15.63066
G1 X120.13 Y115.96 E15.66796
G1 X120.477 Y115.297 E15.7053
G1 X120.892 Y114.674 E15.74264
G1 X121.371 Y114.1 E15.77994
G1 X121.747 Y113.735 E15.80608
G1 X121.362 Y113.116 E15.84245
G1 X121.038 Y112.442 E15.87976
G1 X120.788 Y111.737 E15.91708
G1 X120.614 Y111.009 E15.95442
G1 X120.519 Y110.267 E15.99174
G1 X120.5 Y109.75 E16.01755
G1 X120.5 Y100.75 E16.46657
G1 X120.54 Y100.003 E16.50389
G1 X120.659 Y99.265 E16.54118
G1 X120.857 Y98.543 E16.57853
G1 X121.13 Y97.847 E16.61583
G1 X121.477 Y97.184 E16.65317
G1 X121.892 Y96.561 E16.69051
G1 X122.371 Y95.987 E16.72781
G0 F3600 X122.289 Y96.7
G1 F1800 X122.765 Y96.152 E16.76402
G1 X123.299 Y95.659 E16.80028
G1 X123.884 Y95.229 E16.8365
G1 X124.513 Y94.865 E16.87276
G1 X125.178 Y94.572 E16.90902
G1 X125.871 Y94.354 E16.94526
G1 X126.583 Y94.214 E16.98146
G1 X127.5 Y94.15 E17.02732
G1 X136.5 Y94.15 E17.47633
G1 X137.225 Y94.19 E17.51256
G1 X137.942 Y94.309 E17.54882
G1 X138.641 Y94.507 E17.58507
G1 X139.314 Y94.78 E17.6213
G1 X139.953 Y95.125 E17.65753
G1 X140.55 Y95.539 E17.69377
G1 X141.098 Y96.015 E17.72999
G1 X141.591 Y96.549 E17.76625
G1 X142.021 Y97.134 E17.80247
G1 X142.385 Y97.763 E17.83873
G1 X142.678 Y98.428 E17.87498
G1 X142.896 Y99.121 E17.91122
G1 X142.948 Y99.385 E17.92465
G1 X143.098 Y99.515 E17.93455
G1 X143.591 Y100.049 E17.97081
G1 X144.021 Y100.634 E18.00703
G1 X144.385 Y101.263 E18.04329
G1 X144.678 Y101.928 E18.07954
G1 X144.896 Y102.621 E18.11579
G1 X144.942 Y102.809 E18.12544
G1 X145.641 Y103.007 E18.16169
G1 X146.314 Y103.28 E18.19792
G1 X146.953 Y103.625 E18.23415
G1 X147.55 Y104.039 E18.2704
G1 X148.098 Y104.515 E18.30661
G1 X148.591 Y105.049 E18.34287
G1 X149.021 Y105.634 E18.37909
G1 X149.385 Y106.263 E18.41535
G1 X149.678 Y106.928 E18.4516
G1 X149.896 Y107.621 E18.48785
G1 X150.036 Y108.333 E18.52405
G1 X150.1 Y109.25 E18.56991
G1 X150.1 Y111.25 E18.66969
G1 X150.06 Y111.975 E18.70592
G1 X149.941 Y112.692 E18.74218
G1 X149.743 Y113.391 E18.77842
G1 X149.47 Y114.064 E18.81466
G1 X149.125 Y114.703 E18.85089
G1 X148.711 Y115.3 E18.88713
G1 X148.235 Y115.848 E18.92334
G1 X147.701 Y116.341 E18.9596
G1 X147.116 Y116.771 E18.99583
G1 X146.487 Y117.135 E19.03208
G1 X145.822 Y117.428 E19.06834
G1 X145.129 Y117.646 E19.10458
G1 X144.511 Y117.767 E19.136
G1 X144.441 Y118.192 E19.15749
G1 X144.243 Y118.891 E19.19373
G1 X143.97 Y119.564 E19.22997
G1 X143.625 Y120.203 E19.2662
G1 X143.211 Y120.8 E19.30244
G1 X142.735 Y121.348 E19.33865
G1 X142.201 Y121.841 E19.37491
G1 X141.616 Y122.271 E19.41114
G1 X140.987 Y122.635 E19.44739
G1 X140.322 Y122.928 E19.48365
G1 X139.629 Y123.146 E19.51989
G1 X138.917 Y123.286 E19.55609
G1 X138 Y123.35 E19.60195
G1 X135.5 Y123.35 E19.72668
G1 X135.148 Y123.331 E19.74427
G1 X135.048 Y123.638 E19.76037
G1 X134.748 Y124.3 E19.79663
G1 X134.378 Y124.924 E19.83283
G1 X133.941 Y125.505 E19.8691
G1 X133.443 Y126.033 E19.90531
G1 X132.889 Y126.504 E19.94159
G1 X132.288 Y126.911 E19.9778
G1 X131.645 Y127.25 E20.01406
G1 X130.969 Y127.516 E20.05031
G1 X130.268 Y127.706 E20.08654
G1 X129.55 Y127.817 E20.12279
G1 X128.895 Y127.85 E20.15551
G1 X126.5 Y127.85 E20.27499
G1 X125.775 Y127.81 E20.31122
G1 X125.058 Y127.691 E20.34748
G1 X124.359 Y127.493 E20.38373
G1 X123.686 Y127.22 E20.41996
G1 X123.047 Y126.875 E20.45619
G1 X122.45 Y126.461 E20.49243
G1 X121.902 Y125.985 E20.52865
G1 X121.409 Y125.451 E20.56491
G1 X120.979 Y124.866 E20.60113
G1 X120.615 Y124.237 E20.63739
G1 X120.322 Y123.572 E20.67364
G1 X120.104 Y122.879 E20.70988
G1 X119.964 Y122.167 E20.74609
G1 X119.9 Y121.25 E20.79195
G1 X119.9 Y118.863 E20.91103
G1 X119.94 Y118.138 E20.94726
G1 X120.059 Y117.421 E20.98352
G1 X120.257 Y116.722 E21.01977
G1 X120.53 Y116.049 E21.056
G1 X120.875 Y115.41 E21.09223
G1 X121.289 Y114.813 E21.12847
G1 X121.765 Y114.265 E21.16469
G1 X122.286 Y113.784 E21.20006
G1 X121.979 Y113.366 E21.22594
G1 X121.615 Y112.737 E21.2622
G1 X121.322 Y112.072 E21.29845
G1 X121.104 Y111.379 E21.33469
G1 X120.964 Y110.667 E21.3709
G1 X120.9 Y109.75 E21.41676
G1 X120.9 Y100.75 E21.86577
G1 X120.94 Y100.025 E21.90199
G1 X121.059 Y99.308 E21.93825
G1 X121.257 Y98.609 E21.9745
G1 X121.53 Y97.936 E22.01073
G1 X121.875 Y97.297 E22.04696
G1 X122.289 Y96.7 E22.08321
G0 F3600 X122.685 Y96.844
G1 F1800 X123.159 Y96.323 E22.11835
G1 X123.689 Y95.859 E22.15349
G1 X124.268 Y95.459 E22.1886
G1 X124.889 Y95.127 E22.22373
G1 X125.543 Y94.867 E22.25884
G1 X126.223 Y94.683 E22.29399
G1 X126.919 Y94.577 E22.32911
G1 X127.5 Y94.55 E22.35813
G1 X136.5 Y94.55 E22.80714
G1 X137.203 Y94.59 E22.84227
G1 X137.897 Y94.709 E22.8774
G1 X138.572 Y94.907 E22.9125
G1 X139.221 Y95.179 E22.9476
G1 X139.835 Y95.524 E22.98274
G1 X140.406 Y95.935 E23.01784
G1 X140.927 Y96.409 E23.05298
G1 X141.391 Y96.939 E23.08812
G1 X141.791 Y97.518 E23.12323
G1 X142.123 Y98.139 E23.15837
G1 X142.383 Y98.793 E23.19348
G1 X142.567 Y99.473 E23.22862
G1 X142.586 Y99.599 E23.23498
G1 X142.927 Y99.909 E23.25797
G1 X143.391 Y100.439 E23.29312
G1 X143.791 Y101.018 E23.32822
G1 X144.123 Y101.639 E23.36336
G1 X144.383 Y102.293 E23.39847
G1 X144.567 Y102.973 E23.43361
G1 X144.595 Y103.157 E23.4429
G1 X144.897 Y103.209 E23.45819
G1 X145.572 Y103.407 E23.49328
G1 X146.221 Y103.679 E23.52839
G1 X146.835 Y104.024 E23.56353
G1 X147.406 Y104.435 E23.59863
G1 X147.927 Y104.909 E23.63377
