;FLAVOR:Marlin
;TIME:704
;Filament used: 0.639767m
;Layer height: 0.2
;MINX:118.7
;MINY:92.95
;MINZ:0.3
;MAXX:151.3
;MAXY:129.05
;MAXZ:16.9
;Generated with Cura_SteamEngine 4.8.0
M140 S60
M105
M190 S60
M104 S210
M105
M109 S210
M82 ;absolute extrusion mode
G28 ;Home
G1 Z15.0 F6000 ;Move the platform down 15mm
;Prime the extruder
G92 E0
G1 F200 E3
G92 E0
G92 E0
G92 E0
G1 F2400 E-6.5
;LAYER_COUNT:84
;LAYER:0
M107
G0 F3600 X120.58 Y95.672 Z0.3
;TYPE:SKIRT
G1 F2400 E0
G1 F1800 X121.123 Y95.099 E0.03938
G1 X121.722 Y94.584 E0.0788
G1 X122.37 Y94.133 E0.11818
G1 X123.061 Y93.749 E0.15762
G1 X123.786 Y93.437 E0.197
G1 X124.539 Y93.2 E0.23638
G1 X125.313 Y93.041 E0.27581
G1 X126.098 Y92.96 E0.31518
G1 X126.5 Y92.95 E0.33524
G1 X128.887 Y92.95 E0.45433
G1 X129.676 Y92.99 E0.49374
G1 X130.456 Y93.109 E0.53311
G1 X131.221 Y93.307 E0.57253
G1 X131.961 Y93.581 E0.6119
G1 X132.67 Y93.929 E0.6513
G1 X133.341 Y94.347 E0.69074
G1 X133.965 Y94.83 E0.73011
G1 X134.538 Y95.373 E0.76949
G1 X135.053 Y95.972 E0.8089
G1 X135.504 Y96.62 E0.84829
G1 X135.888 Y97.311 E0.88773
G1 X135.948 Y97.45 E0.89529
G1 X138 Y97.45 E0.99766
G1 X138.789 Y97.49 E1.03707
G1 X139.569 Y97.609 E1.07644
G1 X140.334 Y97.807 E1.11586
G1 X141.074 Y98.081 E1.15523
G1 X141.783 Y98.429 E1.19463
G1 X142.454 Y98.847 E1.23408
G1 X143.078 Y99.33 E1.27344
G1 X143.651 Y99.873 E1.31283
G1 X144.166 Y100.472 E1.35224
G1 X144.617 Y101.12 E1.39163
G1 X145.001 Y101.811 E1.43107
G1 X145.313 Y102.536 E1.47044
G1 X145.531 Y103.229 E1.50669
G1 X145.834 Y103.307 E1.5223
G1 X146.574 Y103.581 E1.56167
G1 X147.283 Y103.929 E1.60107
G1 X147.954 Y104.347 E1.64051
G1 X148.578 Y104.83 E1.67988
G1 X149.151 Y105.373 E1.71926
G1 X149.666 Y105.972 E1.75867
G1 X150.117 Y106.62 E1.79806
G1 X150.501 Y107.311 E1.8375
G1 X150.813 Y108.036 E1.87688
G1 X151.05 Y108.789 E1.91626
G1 X151.209 Y109.563 E1.95568
G1 X151.29 Y110.348 E1.99505
G1 X151.3 Y110.75 E2.01512
G1 X151.3 Y112.75 E2.1149
G1 X151.26 Y113.539 E2.15431
G1 X151.141 Y114.319 E2.19368
G1 X150.943 Y115.084 E2.2331
G1 X150.669 Y115.824 E2.27247
G1 X150.321 Y116.533 E2.31187
G1 X149.903 Y117.204 E2.35131
G1 X149.42 Y117.828 E2.39068
G1 X148.877 Y118.401 E2.43006
G1 X148.278 Y118.916 E2.46947
G1 X147.63 Y119.367 E2.50886
G1 X146.939 Y119.751 E2.5483
G1 X146.214 Y120.063 E2.58768
G1 X145.916 Y120.157 E2.60327
G1 X145.669 Y120.824 E2.63875
G1 X145.321 Y121.533 E2.67816
G1 X144.903 Y122.204 E2.7176
G1 X144.42 Y122.828 E2.75697
G1 X144.033 Y123.236 E2.78502
G1 X143.943 Y123.584 E2.80296
G1 X143.669 Y124.324 E2.84232
G1 X143.321 Y125.033 E2.88173
G1 X142.903 Y125.704 E2.92117
G1 X142.42 Y126.328 E2.96054
G1 X141.877 Y126.901 E2.99992
G1 X141.278 Y127.416 E3.03933
G1 X140.63 Y127.867 E3.07872
G1 X139.939 Y128.251 E3.11816
G1 X139.214 Y128.563 E3.15754
G1 X138.461 Y128.8 E3.19692
G1 X137.687 Y128.959 E3.23634
G1 X136.902 Y129.04 E3.27571
G1 X136.5 Y129.05 E3.29577
G1 X127.5 Y129.05 E3.74479
G1 X126.711 Y129.01 E3.7842
G1 X125.931 Y128.891 E3.82357
G1 X125.166 Y128.693 E3.86299
G1 X124.426 Y128.419 E3.90236
G1 X123.717 Y128.071 E3.94176
G1 X123.046 Y127.653 E3.9812
G1 X122.422 Y127.17 E4.02057
G1 X121.849 Y126.627 E4.05995
G1 X121.334 Y126.028 E4.09936
G1 X120.883 Y125.38 E4.13875
G1 X120.499 Y124.689 E4.17819
G1 X120.187 Y123.964 E4.21757
G1 X119.95 Y123.211 E4.25695
G1 X119.791 Y122.437 E4.29637
G1 X119.71 Y121.652 E4.33575
G1 X119.7 Y121.25 E4.35581
G1 X119.7 Y112.25 E4.80482
G1 X119.74 Y111.461 E4.84423
G1 X119.859 Y110.681 E4.8836
G1 X120.057 Y109.916 E4.92302
G1 X120.331 Y109.176 E4.96239
G1 X120.679 Y108.467 E5.00179
G1 X120.732 Y108.382 E5.00679
G1 X120.397 Y108.003 E5.03203
G1 X119.937 Y107.361 E5.07143
G1 X119.545 Y106.676 E5.11081
G1 X119.223 Y105.954 E5.15025
G1 X118.977 Y105.204 E5.18963
G1 X118.807 Y104.433 E5.22901
G1 X118.716 Y103.648 E5.26844
G1 X118.7 Y103.145 E5.29355
G1 X118.7 Y100.75 E5.41304
G1 X118.74 Y99.961 E5.45245
G1 X118.859 Y99.181 E5.49181
G1 X119.057 Y98.416 E5.53124
G1 X119.331 Y97.676 E5.57061
G1 X119.679 Y96.967 E5.61001
G1 X120.097 Y96.296 E5.64945
G1 X120.58 Y95.672 E5.68882
G0 F3600 X120.975 Y95.827
G1 F1800 X121.516 Y95.28 E5.7272
G1 X122.111 Y94.792 E5.76559
G1 X122.753 Y94.369 E5.80395
G1 X123.436 Y94.014 E5.84235
G1 X124.151 Y93.733 E5.88068
G1 X124.893 Y93.527 E5.9191
G1 X125.651 Y93.399 E5.95745
G1 X126.5 Y93.35 E5.99988
G1 X128.887 Y93.35 E6.11897
G1 X129.655 Y93.39 E6.15733
G1 X130.415 Y93.509 E6.19571
G1 X131.158 Y93.707 E6.23407
G1 X131.877 Y93.981 E6.27246
G1 X132.563 Y94.328 E6.31081
G1 X133.21 Y94.744 E6.34919
G1 X133.81 Y95.225 E6.38756
G1 X134.357 Y95.766 E6.42594
G1 X134.845 Y96.361 E6.46433
G1 X135.268 Y97.003 E6.50269
G1 X135.623 Y97.686 E6.54109
G1 X135.687 Y97.85 E6.54987
G1 X138 Y97.85 E6.66527
G1 X138.768 Y97.89 E6.70364
G1 X139.528 Y98.009 E6.74202
G1 X140.271 Y98.207 E6.78038
G1 X140.99 Y98.481 E6.81876
G1 X141.676 Y98.828 E6.85712
G1 X142.323 Y99.244 E6.89549
G1 X142.923 Y99.725 E6.93386
G1 X143.47 Y100.266 E6.97224
G1 X143.958 Y100.861 E7.01063
G1 X144.381 Y101.503 E7.04899
G1 X144.736 Y102.186 E7.08739
G1 X145.017 Y102.901 E7.12572
G1 X145.198 Y103.554 E7.15953
G1 X145.771 Y103.707 E7.18912
G1 X146.49 Y103.981 E7.2275
G1 X147.176 Y104.328 E7.26586
G1 X147.823 Y104.744 E7.30423
G1 X148.423 Y105.225 E7.3426
G1 X148.97 Y105.766 E7.38098
G1 X149.458 Y106.361 E7.41937
G1 X149.881 Y107.003 E7.45773
G1 X150.236 Y107.686 E7.49613
G1 X150.517 Y108.401 E7.53446
G1 X150.723 Y109.143 E7.57288
G1 X150.851 Y109.901 E7.61123
G1 X150.9 Y110.75 E7.65366
G1 X150.9 Y112.75 E7.75344
G1 X150.86 Y113.518 E7.79181
G1 X150.741 Y114.278 E7.83019
G1 X150.543 Y115.021 E7.86855
G1 X150.269 Y115.74 E7.90694
G1 X149.922 Y116.426 E7.94529
G1 X149.506 Y117.073 E7.98366
G1 X149.025 Y117.673 E8.02203
G1 X148.484 Y118.22 E8.06041
G1 X147.889 Y118.708 E8.0988
G1 X147.247 Y119.131 E8.13716
G1 X146.564 Y119.486 E8.17556
G1 X145.849 Y119.767 E8.21389
G1 X145.592 Y119.838 E8.22719
G1 X145.543 Y120.021 E8.23665
G1 X145.269 Y120.74 E8.27503
G1 X144.922 Y121.426 E8.31339
G1 X144.506 Y122.073 E8.35176
G1 X144.025 Y122.673 E8.39013
G1 X143.675 Y123.027 E8.41496
G1 X143.543 Y123.521 E8.44047
G1 X143.269 Y124.24 E8.47886
G1 X142.922 Y124.926 E8.51722
G1 X142.506 Y125.573 E8.55559
G1 X142.025 Y126.173 E8.59396
G1 X141.484 Y126.72 E8.63234
G1 X140.889 Y127.208 E8.67073
G1 X140.247 Y127.631 E8.70909
G1 X139.564 Y127.986 E8.74749
G1 X138.849 Y128.267 E8.78582
G1 X138.107 Y128.473 E8.82424
G1 X137.349 Y128.601 E8.86259
G1 X136.5 Y128.65 E8.90502
G1 X127.5 Y128.65 E9.35403
G1 X126.732 Y128.61 E9.3924
G1 X125.972 Y128.491 E9.43077
G1 X125.229 Y128.293 E9.46914
G1 X124.51 Y128.019 E9.50752
G1 X123.824 Y127.672 E9.54588
G1 X123.177 Y127.256 E9.58425
G1 X122.577 Y126.775 E9.62262
G1 X122.03 Y126.234 E9.661
G1 X121.542 Y125.639 E9.69939
G1 X121.119 Y124.997 E9.73775
G1 X120.764 Y124.314 E9.77615
G1 X120.483 Y123.599 E9.81448
G1 X120.277 Y122.857 E9.8529
G1 X120.149 Y122.099 E9.89125
G1 X120.1 Y121.25 E9.93368
G1 X120.1 Y112.25 E10.38269
G1 X120.14 Y111.482 E10.42106
G1 X120.259 Y110.722 E10.45944
G1 X120.457 Y109.979 E10.4978
G1 X120.731 Y109.26 E10.53619
G1 X121.078 Y108.574 E10.57454
G1 X121.234 Y108.331 E10.58895
G1 X121.014 Y108.112 E10.60443
G1 X120.528 Y107.515 E10.64284
G1 X120.107 Y106.872 E10.68118
G1 X119.755 Y106.188 E10.71956
G1 X119.475 Y105.471 E10.75796
G1 X119.272 Y104.73 E10.7963
G1 X119.146 Y103.971 E10.83468
G1 X119.1 Y103.145 E10.87595
G1 X119.1 Y100.75 E10.99544
G1 X119.14 Y99.982 E11.03381
G1 X119.259 Y99.222 E11.07219
G1 X119.457 Y98.479 E11.11055
G1 X119.731 Y97.76 E11.14894
G1 X120.078 Y97.074 E11.18729
G1 X120.494 Y96.427 E11.22567
G1 X120.975 Y95.827 E11.26403
G0 F3600 X121.371 Y95.987
G1 F1800 X121.908 Y95.466 E11.30136
G1 X122.498 Y95.007 E11.33865
G1 X123.134 Y94.612 E11.376
G1 X123.808 Y94.288 E11.41331
G1 X124.513 Y94.038 E11.45063
G1 X125.241 Y93.864 E11.48798
G1 X125.983 Y93.769 E11.5253
G1 X126.5 Y93.75 E11.55111
G1 X128.887 Y93.75 E11.6702
G1 X129.634 Y93.79 E11.70752
G1 X130.372 Y93.909 E11.74481
G1 X131.094 Y94.107 E11.78216
G1 X131.79 Y94.38 E11.81946
G1 X132.453 Y94.727 E11.85679
G1 X133.076 Y95.142 E11.89414
G1 X133.65 Y95.621 E11.93144
G1 X134.171 Y96.158 E11.96877
G1 X134.63 Y96.748 E12.00606
G1 X135.025 Y97.384 E12.04341
G1 X135.349 Y98.058 E12.08072
G1 X135.418 Y98.253 E12.09104
G1 X135.5 Y98.25 E12.09514
G1 X138 Y98.25 E12.21986
G1 X138.747 Y98.29 E12.25718
G1 X139.485 Y98.409 E12.29448
G1 X140.207 Y98.607 E12.33183
G1 X140.903 Y98.88 E12.36913
G1 X141.566 Y99.227 E12.40646
G1 X142.189 Y99.642 E12.44381
G1 X142.763 Y100.121 E12.48111
G1 X143.284 Y100.658 E12.51843
G1 X143.743 Y101.248 E12.55573
G1 X144.138 Y101.884 E12.59308
G1 X144.462 Y102.558 E12.63039
G1 X144.712 Y103.263 E12.66771
G1 X144.862 Y103.889 E12.69982
G1 X144.985 Y103.909 E12.70604
G1 X145.707 Y104.107 E12.74339
G1 X146.403 Y104.38 E12.78069
G1 X147.066 Y104.727 E12.81802
G1 X147.689 Y105.142 E12.85537
G1 X148.263 Y105.621 E12.89267
G1 X148.784 Y106.158 E12.93
G1 X149.243 Y106.748 E12.96729
G1 X149.638 Y107.384 E13.00464
G1 X149.962 Y108.058 E13.04195
G1 X150.212 Y108.763 E13.07927
G1 X150.386 Y109.491 E13.11661
G1 X150.481 Y110.233 E13.15393
G1 X150.5 Y110.75 E13.17974
G1 X150.5 Y112.75 E13.27952
G1 X150.46 Y113.497 E13.31685
G1 X150.341 Y114.235 E13.35414
G1 X150.143 Y114.957 E13.39149
G1 X149.87 Y115.653 E13.42879
G1 X149.523 Y116.316 E13.46612
G1 X149.108 Y116.939 E13.50347
G1 X148.629 Y117.513 E13.54077
G1 X148.092 Y118.034 E13.5781
G1 X147.502 Y118.493 E13.61539
G1 X146.866 Y118.888 E13.65274
G1 X146.192 Y119.212 E13.69005
G1 X145.487 Y119.462 E13.72737
G1 X145.264 Y119.515 E13.7388
G1 X145.143 Y119.957 E13.76167
G1 X144.87 Y120.653 E13.79897
G1 X144.523 Y121.316 E13.8363
G1 X144.108 Y121.939 E13.87365
G1 X143.629 Y122.513 E13.91095
G1 X143.32 Y122.813 E13.93243
G1 X143.143 Y123.457 E13.96575
G1 X142.87 Y124.153 E14.00305
G1 X142.523 Y124.816 E14.04039
G1 X142.108 Y125.439 E14.07773
G1 X141.629 Y126.013 E14.11503
G1 X141.092 Y126.534 E14.15236
G1 X140.502 Y126.993 E14.18965
G1 X139.866 Y127.388 E14.227
G1 X139.192 Y127.712 E14.26431
G1 X138.487 Y127.962 E14.30163
G1 X137.759 Y128.136 E14.33897
G1 X137.017 Y128.231 E14.3763
G1 X136.5 Y128.25 E14.40211
G1 X127.5 Y128.25 E14.85112
G1 X126.753 Y128.21 E14.88844
G1 X126.015 Y128.091 E14.92573
G1 X125.293 Y127.893 E14.96308
G1 X124.597 Y127.62 E15.00038
G1 X123.934 Y127.273 E15.03772
G1 X123.311 Y126.858 E15.07506
G1 X122.737 Y126.379 E15.11236
G1 X122.216 Y125.842 E15.14969
G1 X121.757 Y125.252 E15.18698
G1 X121.362 Y124.616 E15.22434
G1 X121.038 Y123.942 E15.26164
G1 X120.788 Y123.237 E15.29896
G1 X120.614 Y122.509 E15.33631
G1 X120.519 Y121.767 E15.37363
G1 X120.5 Y121.25 E15.39944
G1 X120.5 Y112.25 E15.84845
G1 X120.54 Y111.503 E15.88577
G1 X120.659 Y110.765 E15.92307
G1 X120.857 Y110.043 E15.96042
G1 X121.13 Y109.347 E15.99772
G1 X121.477 Y108.684 E16.03505
G1 X121.748 Y108.277 E16.05944
G1 X121.631 Y108.175 E16.06719
G1 X121.122 Y107.626 E16.10454
G1 X120.675 Y107.027 E16.14183
G1 X120.294 Y106.383 E16.17916
G1 X119.984 Y105.702 E16.21649
G1 X119.748 Y104.992 E16.25381
G1 X119.59 Y104.261 E16.29113
G1 X119.5 Y103.145 E16.34698
G1 X119.5 Y100.75 E16.46647
G1 X119.54 Y100.003 E16.50379
G1 X119.659 Y99.265 E16.54109
G1 X119.857 Y98.543 E16.57844
G1 X120.13 Y97.847 E16.61574
G1 X120.477 Y97.184 E16.65307
G1 X120.892 Y96.561 E16.69042
G1 X121.371 Y95.987 E16.72772
G0 F3600 X121.289 Y96.7
G1 F1800 X121.765 Y96.152 E16.76393
G1 X122.299 Y95.659 E16.80019
G1 X122.884 Y95.229 E16.83641
G1 X123.513 Y94.865 E16.87267
G1 X124.178 Y94.572 E16.90892
G1 X124.871 Y94.354 E16.94517
G1 X125.583 Y94.214 E16.98137
G1 X126.5 Y94.15 E17.02723
G1 X128.887 Y94.15 E17.14632
G1 X129.612 Y94.19 E17.18254
G1 X130.329 Y94.309 E17.2188
G1 X131.028 Y94.507 E17.25505
G1 X131.701 Y94.78 E17.29128
G1 X132.34 Y95.125 E17.32751
G1 X132.937 Y95.539 E17.36376
G1 X133.485 Y96.015 E17.39997
G1 X133.978 Y96.549 E17.43623
G1 X134.408 Y97.134 E17.47245
G1 X134.772 Y97.763 E17.50871
G1 X135.065 Y98.428 E17.54496
G1 X135.143 Y98.675 E17.55788
G1 X135.5 Y98.65 E17.57574
G1 X138 Y98.65 E17.70046
G1 X138.725 Y98.69 E17.73669
G1 X139.442 Y98.809 E17.77295
G1 X140.141 Y99.007 E17.8092
G1 X140.814 Y99.28 E17.84543
G1 X141.453 Y99.625 E17.88166
G1 X142.05 Y100.039 E17.9179
G1 X142.598 Y100.515 E17.95412
G1 X143.091 Y101.049 E17.99038
G1 X143.521 Y101.634 E18.0266
G1 X143.885 Y102.263 E18.06286
G1 X144.178 Y102.928 E18.09911
G1 X144.396 Y103.621 E18.13535
G1 X144.517 Y104.239 E18.16677
G1 X144.942 Y104.309 E18.18826
G1 X145.641 Y104.507 E18.22451
G1 X146.314 Y104.78 E18.26074
G1 X146.953 Y105.125 E18.29697
G1 X147.55 Y105.539 E18.33321
G1 X148.098 Y106.015 E18.36943
G1 X148.591 Y106.549 E18.40569
G1 X149.021 Y107.134 E18.44191
G1 X149.385 Y107.763 E18.47817
G1 X149.678 Y108.428 E18.51442
G1 X149.896 Y109.121 E18.55066
G1 X150.036 Y109.833 E18.58687
G1 X150.1 Y110.75 E18.63273
G1 X150.1 Y112.75 E18.73251
G1 X150.06 Y113.475 E18.76873
G1 X149.941 Y114.192 E18.80499
G1 X149.743 Y114.891 E18.84124
G1 X149.47 Y115.564 E18.87747
G1 X149.125 Y116.203 E18.9137
G1 X148.711 Y116.8 E18.94995
G1 X148.235 Y117.348 E18.98616
G1 X147.701 Y117.841 E19.02242
G1 X147.116 Y118.271 E19.05864
G1 X146.487 Y118.635 E19.0949
G1 X145.822 Y118.928 E19.13115
G1 X145.129 Y119.146 E19.1674
G1 X144.941 Y119.192 E19.17705
G1 X144.743 Y119.891 E19.2133
G1 X144.47 Y120.564 E19.24953
G1 X144.125 Y121.203 E19.28576
G1 X143.711 Y121.8 E19.32201
G1 X143.235 Y122.348 E19.35822
G1 X142.955 Y122.606 E19.37722
G1 X142.941 Y122.692 E19.38156
G1 X142.743 Y123.391 E19.41781
G1 X142.47 Y124.064 E19.45404
G1 X142.125 Y124.703 E19.49027
G1 X141.711 Y125.3 E19.52652
G1 X141.235 Y125.848 E19.56273
G1 X140.701 Y126.341 E19.59899
G1 X140.116 Y126.771 E19.63521
G1 X139.487 Y127.135 E19.67147
G1 X138.822 Y127.428 E19.70772
G1 X138.129 Y127.646 E19.74397
G1 X137.417 Y127.786 E19.78017
G1 X136.5 Y127.85 E19.82603
G1 X127.5 Y127.85 E20.27504
G1 X126.775 Y127.81 E20.31127
G1 X126.058 Y127.691 E20.34753
G1 X125.359 Y127.493 E20.38377
G1 X124.686 Y127.22 E20.42001
G1 X124.047 Y126.875 E20.45624
G1 X123.45 Y126.461 E20.49248
G1 X122.902 Y125.985 E20.52869
G1 X122.409 Y125.451 E20.56495
G1 X121.979 Y124.866 E20.60118
G1 X121.615 Y124.237 E20.63743
G1 X121.322 Y123.572 E20.67369
G1 X121.104 Y122.879 E20.70993
G1 X120.964 Y122.167 E20.74613
G1 X120.9 Y121.25 E20.79199
G1 X120.9 Y112.25 E21.241
G1 X120.94 Y111.525 E21.27723
G1 X121.059 Y110.808 E21.31349
G1 X121.257 Y110.109 E21.34974
G1 X121.53 Y109.436 E21.38597
G1 X121.875 Y108.797 E21.4222
G1 X122.278 Y108.216 E21.45748
G1 X122.245 Y108.191 E21.45954
G1 X121.717 Y107.693 E21.49575
G1 X121.246 Y107.139 E21.53203
G1 X120.839 Y106.538 E21.56824
G1 X120.5 Y105.895 E21.60451
G1 X120.234 Y105.219 E21.64075
G1 X120.044 Y104.518 E21.67698
G1 X119.933 Y103.8 E21.71323
G1 X119.9 Y103.145 E21.74595
G1 X119.9 Y100.75 E21.86544
G1 X119.94 Y100.025 E21.90166
G1 X120.059 Y99.308 E21.93792
G1 X120.257 Y98.609 E21.97417
G1 X120.53 Y97.936 E22.0104
G1 X120.875 Y97.297 E22.04663
G1 X121.289 Y96.7 E22.08288
G0 F3600 X121.685 Y96.844
G1 F1800 X122.159 Y96.323 E22.11802
G1 X122.689 Y95.859 E22.15316
G1 X123.268 Y95.459 E22.18827
G1 X123.889 Y95.127 E22.2234
G1 X124.543 Y94.867 E22.25851
G1 X125.223 Y94.683 E22.29366
G1 X125.919 Y94.577 E22.32878
G1 X126.5 Y94.55 E22.3578
G1 X128.887 Y94.55 E22.47689
G1 X129.59 Y94.59 E22.51202
G1 X130.284 Y94.709 E22.54715
G1 X130.959 Y94.907 E22.58224
G1 X131.608 Y95.179 E22.61735
G1 X132.222 Y95.524 E22.65249
G1 X132.793 Y95.935 E22.68759
G1 X133.314 Y96.409 E22.72273
G1 X133.778 Y96.939 E22.75787
G1 X134.178 Y97.518 E22.79298
G1 X134.51 Y98.139 E22.82811
G1 X134.77 Y98.793 E22.86322
G1 X134.85 Y99.088 E22.87847
G1 X134.919 Y99.077 E22.88196
G1 X135.5 Y99.05 E22.91098
G1 X138 Y99.05 E23.0357
G1 X138.703 Y99.09 E23.07083
G1 X139.397 Y99.209 E23.10596
G1 X140.072 Y99.407 E23.14105
G1 X140.721 Y99.679 E23.17616
G1 X141.335 Y100.024 E23.2113
G1 X141.906 Y100.435 E23.2464
G1 X142.427 Y100.909 E23.28154
G1 X142.891 Y101.439 E23.31668
G1 X143.291 Y102.018 E23.35179
G1 X143.623 Y102.639 E23.38692
